assets/luts/ASTIA.cube
TITLE "Generated by Resolve"
LUT_3D_SIZE 9
0 0 0
0.0851911 0.00605783 0.000381476
0.201617 0.0150759 0.000442512
0.365347 0.0202792 0
0.544671 0.0238041 0.000106813
0.676036 0.0318608 3.0518e-05
0.784588 0.0420539 0.00955215
0.866773 0.0616617 0.0327153
0.94168 0.0825208 0.0725567
0.0258946 0.115602 0.000183108
0.126833 0.11873 0.000244144
0.255329 0.119005 0.000442512
0.400961 0.12665 0.000350958
0.545296 0.135393 0.000183108
0.667872 0.145205 0
0.763592 0.161456 3.0518e-05
0.847944 0.182605 0
0.920195 0.204639 0.0347295
0.0509957 0.277104 0.000122072
0.160906 0.271458 0.000640879
0.286259 0.271077 3.0518e-05
0.422599 0.272328 0.00047303
0.55346 0.276829 0
0.662364 0.288823 0.000335698
0.754772 0.302815 0
0.831601 0.318624 0
0.90135 0.335576 0.0100404
0.103777 0.455787 0.000457771
0.214862 0.448768 0.000503548
0.328923 0.442893 0.000274662
0.449409 0.440009 9.15541e-05
0.565164 0.440146 4.57771e-05
0.663783 0.44329 0
0.747234 0.450217 0.000289921
0.820554 0.455787 3.0518e-05
0.885908 0.463584 0.00167849
0.187549 0.609842 0.000259403
0.285496 0.602594 0.000213626
0.378073 0.596704 0.000167849
0.48191 0.591394 0.000259403
0.58381 0.585519 0.00015259
0.669932 0.58436 0.000198367
0.744381 0.58294 0.000137331
0.810925 0.581582 0.000274662
0.873014 0.582483 0.00535592
0.280385 0.717739 0.000244144
0.35433 0.711727 0
0.430304 0.705623 3.0518e-05
0.517662 0.699687 3.0518e-05
0.601404 0.694545 0.000167849
0.675334 0.689494 0.000106813
0.743862 0.684688 0.000122072
0.806104 0.680842 0.00178531
0.863432 0.67808 0.0157321
0.358587 0.795209 0.00355535
0.417563 0.790417 0.00283818
0.479103 0.786221 0.00015259
0.548959 0.781247 0.000259403
0.618906 0.774762 4.57771e-05
0.685649 0.769131 0.00173953
0.747906 0.763821 0.00712596
0.804105 0.759441 0.0158694
0.85864 0.753704 0.0324102
0.428916 0.856748 0.0414282
0.474067 0.854154 0.0332799
0.523247 0.849989 0.0260471
0.580591 0.844953 0.0213474
0.638956 0.83978 0.0216373
0.696468 0.833692 0.025864
0.752621 0.828641 0.0379034
0.804868 0.82237 0.0539712
0.853346 0.816709 0.072755
0.490517 0.907851 0.0907607
0.526574 0.905333 0.0860304
0.565087 0.901991 0.0827649
0.611353 0.896727 0.0795453
0.659464 0.891539 0.0813306
0.710094 0.886732 0.0842603
0.760281 0.881285 0.0911574
0.807568 0.874693 0.105501
0.853346 0.8701 0.120958
0.00015259 0.00541695 0.0766308
0.104555 0.0115206 0.0884108
0.245899 0.0148318 0.0950332
0.424735 0.0158083 0.102251
0.594232 0.0186007 0.115068
0.714305 0.0237278 0.132967
0.811139 0.0376898 0.168795
0.890272 0.0552987 0.2094
0.961334 0.0774701 0.253544
0.0106203 0.137209 0.151583
0.132479 0.132479 0.132479
0.277684 0.1337 0.112535
0.432395 0.13286 0.104585
0.577951 0.139193 0.102754
0.692256 0.14963 0.116182
0.787121 0.16524 0.141558
0.865675 0.181491 0.178393
0.935042 0.204746 0.213565
0.0346075 0.303883 0.149935
0.155535 0.292271 0.125734
0.297642 0.285191 0.106844
0.439811 0.28629 0.0905776
0.573861 0.287938 0.0890364
0.681071 0.29601 0.100267
0.770733 0.305379 0.120241
0.845594 0.318074 0.148638
0.913725 0.331975 0.185275
0.0866102 0.468757 0.148577
0.208545 0.459266 0.122667
0.331014 0.451835 0.10135
0.458457 0.446448 0.0879377
0.577585 0.443595 0.0842145
0.675547 0.44416 0.0914473
0.758068 0.447807 0.108797
0.828672 0.452735 0.134081
0.894347 0.457557 0.161868
0.167102 0.609628 0.154574
0.276509 0.600793 0.133425
0.374807 0.594186 0.115175
0.486015 0.588647 0.0991684
0.58822 0.583276 0.0916915
0.675944 0.578485 0.0985122
0.751354 0.575586 0.109026
0.816663 0.574868 0.124773
0.877958 0.574411 0.15053
0.262272 0.709316 0.166323
0.344152 0.702876 0.151766
0.424201 0.69691 0.136751
0.514138 0.691554 0.121248
0.601053 0.685267 0.114275
0.678752 0.679713 0.114412
0.747692 0.675319 0.121523
0.809918 0.671244 0.133791
0.866773 0.669123 0.153445
0.346517 0.784985 0.184466
0.407248 0.780407 0.171984
0.470954 0.776349 0.159106
0.54583 0.771054 0.148852
0.618265 0.765667 0.14229
0.685481 0.759228 0.139696
0.74876 0.755032 0.142428
0.806958 0.749798 0.149828
0.85922 0.744656 0.166369
0.41706 0.846738 0.206119
0.465095 0.843259 0.19852
0.516091 0.839597 0.186633
0.576043 0.83505 0.178332
0.637308 0.829328 0.173022
0.6963 0.824826 0.167773
0.752544 0.818189 0.171405
0.80441 0.813138 0.179294
0.855192 0.807584 0.193042
0.481651 0.898161 0.23003
0.518227 0.895369 0.225299
0.558267 0.892195 0.219394
0.607004 0.888106 0.214771
0.657176 0.882887 0.210269
0.70898 0.878294 0.207324
0.758938 0.873014 0.209567
0.808087 0.867109 0.214389
0.853101 0.863233 0.224735
0.00103761 0.0110475 0.162829
0.117983 0.0141146 0.192676
0.27866 0.0168765 0.21828
0.468284 0.0152895 0.250446
0.625849 0.0162203 0.275731
0.740856 0.0234226 0.303288
0.830839 0.0377203 0.336095
0.907179 0.0565347 0.370916
0.974578 0.0798047 0.40029
0.00225834 0.155962 0.338628
0.130037 0.149355 0.312825
0.289448 0.144381 0.293477
0.456031 0.145678 0.279728
0.601114 0.14931 0.280095
0.711269 0.158907 0.294179
0.803067 0.171923 0.314397
0.878813 0.1879 0.337392
0.947997 0.20795 0.363256
0.0165866 0.324865 0.366125
0.150011 0.311513 0.332494
0.303166 0.303166 0.303166
0.454185 0.300038 0.282231
0.589105 0.301259 0.273274
0.695048 0.304601 0.278904
0.78201 0.312779 0.291798
0.856275 0.322667 0.309102
0.922133 0.334051 0.328527
0.0691997 0.481254 0.364523
0.198123 0.47068 0.330877
0.328481 0.461021 0.302922
0.461707 0.455177 0.281361
0.585565 0.449973 0.270527
0.683543 0.449439 0.267185
0.765591 0.449287 0.273213
0.836851 0.452277 0.284657
0.899031 0.456764 0.303548
0.146639 0.611551 0.35317
0.26186 0.603632 0.325856
0.369848 0.595483 0.305653
0.483391 0.588739 0.283711
0.590127 0.582132 0.268681
0.678721 0.576822 0.264317
0.754208 0.573678 0.264408
0.821347 0.57142 0.273518
0.882673 0.571252 0.285206
0.243229 0.704158 0.346532
0.330388 0.698619 0.326909
0.413001 0.694102 0.307332
0.509743 0.685832 0.289601
0.599924 0.680751 0.277958
0.679347 0.674403 0.270115
0.749737 0.669795 0.268299
0.813031 0.665507 0.271946
0.870375 0.66302 0.281743
0.328176 0.779126 0.347021
0.392615 0.774227 0.333165
0.461677 0.769802 0.315496
0.539544 0.764782 0.300435
0.615778 0.758099 0.288243
0.684199 0.752728 0.281453
0.749462 0.747204 0.278035
0.806226 0.742916 0.279286
0.860639 0.738521 0.286931
0.402426 0.839246 0.350851
0.453086 0.835401 0.338949
0.507179 0.832105 0.328054
0.569192 0.827466 0.314397
0.632883 0.822339 0.304372
0.692744 0.817029 0.297978
0.751812 0.811582 0.29456
0.805539 0.806424 0.296727
0.855573 0.801358 0.303151
0.469947 0.891707 0.361257
0.509621 0.888609 0.354025
0.552438 0.885252 0.346151
0.601816 0.881605 0.336812
0.65391 0.8757 0.329381
0.707591 0.871412 0.32401
0.758587 0.86537 0.321584
0.806027 0.860471 0.322194
0.851804 0.856077 0.327245
0.00492866 0.0162509 0.282872
0.134142 0.017792 0.342138
0.313024 0.0173495 0.389578
0.508461 0.0157626 0.431083
0.657313 0.0179599 0.45417
0.762722 0.0292821 0.475013
0.849607 0.0460059 0.499504
0.922011 0.0648203 0.523796
0.985931 0.0872511 0.543099
0.000137331 0.185718 0.542016
0.12903 0.17116 0.509422
0.306401 0.164065 0.4869
0.477256 0.162646 0.467613
0.621241 0.166873 0.461036
0.729839 0.174853 0.464042
0.817975 0.185336 0.4766
0.892103 0.201587 0.490471
0.957046 0.218921 0.505013
0.00421149 0.35169 0.570855
0.137423 0.337789 0.530327
0.303456 0.327611 0.492882
0.464408 0.320317 0.468559
0.601267 0.317205 0.454307
0.706859 0.319921 0.447471
0.793591 0.32401 0.451301
0.86569 0.331212 0.462303
0.930114 0.339071 0.473869
0.038407 0.499275 0.560845
0.176349 0.486122 0.52842
0.322957 0.47689 0.492744
0.46688 0.46688 0.46688
0.592157 0.46041 0.446326
0.690715 0.456794 0.437308
0.772244 0.45658 0.432395
0.842878 0.456306 0.438773
0.90515 0.460182 0.44625
0.118822 0.614923 0.542947
0.241184 0.607263 0.513008
0.357641 0.59942 0.485878
0.478202 0.592447 0.458305
0.591043 0.584726 0.438972
0.680491 0.577752 0.426734
0.757427 0.573602 0.421302
0.825727 0.570764 0.421408
0.886839 0.570687 0.427695
0.213474 0.703273 0.526787
0.309865 0.69691 0.502312
0.399252 0.691844 0.480323
0.503136 0.684291 0.458305
0.597253 0.678065 0.438422
0.679347 0.672267 0.425559
0.750881 0.665858 0.41706
0.813596 0.662852 0.413535
0.871992 0.659388 0.416968
0.304891 0.773663 0.511574
0.375448 0.769406 0.494713
0.447471 0.764736 0.476951
0.531014 0.75906 0.457862
0.611933 0.752544 0.441718
0.681987 0.748028 0.426673
0.74905 0.742184 0.418631
0.807477 0.736873 0.414939
0.86183 0.733288 0.415488
0.38201 0.83328 0.497871
0.437934 0.829435 0.484321
0.494896 0.825666 0.473259
0.562173 0.821134 0.458656
0.627955 0.815579 0.445579
0.691157 0.809995 0.435691
0.750103 0.805081 0.427619
0.804273 0.799969 0.425452
0.855161 0.795422 0.42594
0.456123 0.885313 0.494102
0.496788 0.881865 0.484367
0.541466 0.877897 0.475608
0.594858 0.874067 0.467079
0.648371 0.869047 0.455573
0.703456 0.863798 0.44596
0.756497 0.858839 0.439857
0.804105 0.853742 0.435828
0.850904 0.848585 0.433707
0.00914015 0.0217594 0.441596
0.155093 0.0237583 0.510307
0.348608 0.0242466 0.566201
0.542794 0.0229496 0.605692
0.681758 0.0302129 0.61767
0.782971 0.0437781 0.631815
0.865629 0.0594949 0.648829
0.934768 0.0803388 0.660395
0.992447 0.101549 0.670604
0.00015259 0.22034 0.724514
0.122194 0.204501 0.691356
0.316258 0.194659 0.661662
0.494865 0.189944 0.63827
0.6374 0.192035 0.624704
0.743374 0.19678 0.621775
0.828672 0.206973 0.623484
0.90013 0.219333 0.628077
0.965988 0.234195 0.632197
0.000167849 0.379522 0.742153
0.121782 0.363622 0.702968
0.301732 0.3523 0.667002
0.470497 0.345068 0.634195
0.611917 0.339345 0.613779
0.716121 0.33695 0.602487
0.801373 0.338582 0.59852
0.873014 0.343862 0.598825
0.938033 0.348959 0.602213
0.0160067 0.516579 0.726131
0.153903 0.504646 0.690883
0.311513 0.493523 0.656016
0.46334 0.482994 0.624933
0.593637 0.474937 0.601068
0.69398 0.469032 0.585809
0.778164 0.465263 0.577371
0.847715 0.46537 0.575723
0.911177 0.466148 0.576608
0.0830396 0.623377 0.698314
0.211978 0.614328 0.669749
0.340932 0.607385 0.641077
0.470085 0.597894 0.61323
0.588922 0.588922 0.588922
0.680003 0.583703 0.572412
0.76054 0.578561 0.561593
0.829679 0.574716 0.554925
0.890288 0.573251 0.55227
0.177691 0.704387 0.671901
0.282307 0.699123 0.645609
0.383795 0.692943 0.625376
0.490532 0.685328 0.602197
0.593133 0.678462 0.580285
0.677104 0.672023 0.561364
0.751644 0.666529 0.550515
0.815305 0.662028 0.543343
0.874067 0.658045 0.541024
0.27306 0.772671 0.645777
0.350881 0.768719 0.627573
0.429236 0.763775 0.609689
0.518685 0.757641 0.590738
0.604303 0.750774 0.572122
0.678843 0.745083 0.556542
0.74696 0.739803 0.544656
0.806928 0.734447 0.537957
0.862074 0.729351 0.534386
0.358007 0.830198 0.626108
0.417456 0.826749 0.613397
0.47866 0.823484 0.597559
0.550011 0.818296 0.582376
0.621561 0.812787 0.567803
0.686259 0.806546 0.55494
0.748287 0.80174 0.545586
0.80351 0.796475 0.537881
0.854658 0.792279 0.532815
0.432746 0.87834 0.607828
0.478431 0.875181 0.598718
0.526665 0.871763 0.588678
0.583291 0.867826 0.575982
0.640726 0.863432 0.564889
0.697475 0.858228 0.553491
0.751415 0.853147 0.544213
0.799771 0.847623 0.536995
0.84715 0.842039 0.531792
0.0171206 0.0339818 0.604929
0.177935 0.0379187 0.683497
0.387594 0.0371862 0.746914
0.569558 0.0413214 0.757595
0.699321 0.0530098 0.758679
0.798077 0.0657359 0.764996
0.876051 0.080827 0.769314
0.944945 0.100404 0.77145
0.996109 0.122103 0.771618
0.00015259 0.257679 0.870375
0.114977 0.241199 0.838544
0.322713 0.231037 0.800992
0.505272 0.225345 0.771862
0.649058 0.222065 0.755413
0.753628 0.22565 0.745052
0.838041 0.231922 0.738643
0.907607 0.242222 0.736553
0.972259 0.252628 0.735302
0.000213626 0.407599 0.87071
0.101793 0.390784 0.835874
0.295705 0.379416 0.798459
0.471962 0.370031 0.764065
0.615076 0.361166 0.739025
0.722179 0.358068 0.724376
0.805997 0.356909 0.714473
0.877745 0.35967 0.710063
0.943267 0.365118 0.706279
0.00280766 0.53489 0.849424
0.122393 0.522866 0.816098
0.293965 0.511254 0.780819
0.456184 0.500587 0.747524
0.592172 0.490791 0.72047
0.696803 0.484138 0.702953
0.781109 0.479271 0.692607
0.85185 0.477867 0.684489
0.914977 0.477607 0.679438
0.042298 0.633417 0.820676
0.177127 0.624521 0.789883
0.31931 0.616266 0.760616
0.458793 0.606989 0.732296
0.584497 0.598733 0.70544
0.680766 0.590997 0.687938
0.762112 0.585199 0.673396
0.830167 0.581811 0.662409
0.892836 0.579049 0.655314
0.133257 0.708919 0.791272
0.249454 0.703685 0.764294
0.36025 0.696971 0.742214
0.476905 0.689479 0.715923
0.584634 0.682612 0.690791
0.674586 0.674586 0.674586
0.749294 0.669856 0.65832
0.815854 0.664225 0.647944
0.875624 0.660655 0.640848
0.233402 0.774685 0.760769
0.321752 0.770245 0.740215
0.40737 0.764675 0.722759
0.502983 0.75903 0.69987
0.59501 0.752743 0.680644
0.67454 0.746014 0.66302
0.744839 0.741054 0.648463
0.805264 0.734844 0.638193
0.862623 0.73051 0.631571
0.325872 0.830335 0.734554
0.390524 0.826642 0.720607
0.458259 0.821302 0.706859
0.53756 0.816083 0.689754
0.612787 0.811383 0.670558
0.680568 0.805249 0.655894
0.744152 0.799725 0.643549
0.799664 0.794903 0.632181
0.852567 0.789731 0.624369
0.403494 0.872007 0.70631
0.453071 0.869139 0.695857
0.505013 0.865888 0.685542
0.566644 0.862043 0.670848
0.628336 0.857786 0.657664
0.6878 0.85243 0.645243
0.742367 0.846265 0.632959
0.794766 0.84007 0.623682
0.840757 0.834333 0.614969
0.0256809 0.0572518 0.779553
0.203494 0.0623789 0.846693
0.415 0.0652628 0.888228
0.587503 0.0706035 0.872755
0.713375 0.0803693 0.866224
0.807553 0.0938888 0.86096
0.884108 0.109926 0.861051
0.95198 0.128756 0.857816
0.997055 0.149493 0.853559
6.10361e-05 0.292012 0.974472
0.105745 0.27776 0.944808
0.322866 0.266606 0.906294
0.510689 0.260502 0.873091
0.655772 0.255634 0.852934
0.759213 0.25626 0.839048
0.842435 0.259297 0.830961
0.912505 0.267277 0.82565
0.977081 0.276463 0.819379
0.000350958 0.433524 0.967605
0.0800488 0.418067 0.93933
0.281315 0.406317 0.899977
0.468864 0.395315 0.865217
0.617777 0.387045 0.836728
0.724743 0.380621 0.819425
0.810697 0.378973 0.808179
0.882948 0.379431 0.799084
0.948104 0.381582 0.793881
0.00077821 0.553048 0.949462
0.093904 0.541939 0.919326
0.27248 0.530159 0.883925
0.444587 0.519509 0.847562
0.590616 0.508949 0.818769
0.696605 0.501427 0.798795
0.78262 0.495003 0.785946
0.85452 0.491829 0.775021
0.91873 0.489937 0.767666
0.0124666 0.643153 0.923323
0.139422 0.635081 0.894362
0.2925 0.626337 0.862501
0.443793 0.618326 0.830991
0.576226 0.609033 0.803296
0.677028 0.601709 0.781506
0.760525 0.595697 0.765774
0.831556 0.589609 0.753964
0.894713 0.586053 0.744625
0.0888838 0.716014 0.892058
0.2103 0.709361 0.866743
0.332601 0.702739 0.84065
0.458335 0.695796 0.813947
0.575204 0.68838 0.790219
0.669779 0.680095 0.770275
0.747524 0.674067 0.752987
0.814572 0.668742 0.740017
0.875319 0.664454 0.729839
0.187564 0.778164 0.860365
0.28481 0.773114 0.83975
0.37995 0.768017 0.819532
0.484459 0.76199 0.797269
0.583124 0.756054 0.774701
0.667094 0.749172 0.756237
0.742199 0.742199 0.742199
0.804135 0.737606 0.727199
0.861372 0.732906 0.717433
0.286732 0.827649 0.827604
0.356695 0.82385 0.813397
0.430549 0.82002 0.798215
0.517143 0.814572 0.779522
0.599893 0.809216 0.760769
0.672023 0.803601 0.742962
0.736996 0.797345 0.729992
0.794339 0.791806 0.714199
0.846098 0.78674 0.70425
0.367742 0.865125 0.791836
0.421347 0.862898 0.780819
0.476921 0.859602 0.768292
0.544533 0.855344 0.753475
0.612802 0.850736 0.739406
0.673075 0.845869 0.726131
0.731411 0.84004 0.712459
0.785199 0.83331 0.701045
0.832639 0.828138 0.68954
0.029099 0.0932479 0.930922
0.223423 0.100877 0.98471
0.428397 0.103212 0.981857
0.598108 0.107958 0.960571
0.720256 0.117327 0.948745
0.813458 0.127703 0.94229
0.890806 0.143786 0.93698
0.957626 0.16257 0.930404
0.996277 0.181598 0.924468
0.00120546 0.325704 0.999969
0.098436 0.312657 0.999374
0.319814 0.301396 0.992325
0.514 0.292866 0.957626
0.659586 0.287999 0.936812
0.763134 0.286351 0.921218
0.846967 0.288594 0.908873
0.916396 0.294392 0.900664
0.98088 0.300526 0.892454
0.00030518 0.459449 0.999344
0.0573892 0.446464 0.99971
0.266682 0.434134 0.985718
0.464454 0.421851 0.949233
0.617426 0.413626 0.92018
0.726787 0.406332 0.900862
0.812284 0.402792 0.886961
0.885527 0.401007 0.876005
0.950881 0.401099 0.868147
0.000167849 0.570535 0.999878
0.062211 0.559609 0.99678
0.246799 0.55021 0.967742
0.434974 0.538003 0.931426
0.584604 0.528206 0.902266
0.695537 0.51841 0.881422
0.782727 0.511376 0.865995
0.855299 0.507851 0.851713
0.920913 0.505196 0.844083
0.00318914 0.653773 0.999405
0.098909 0.645335 0.978973
0.261845 0.637613 0.950545
0.426841 0.628794 0.917693
0.566323 0.619684 0.886992
0.672908 0.612039 0.865049
0.758953 0.604608 0.849271
0.831052 0.599466 0.833204
0.895171 0.595712 0.823026
0.0482338 0.723018 0.977935
0.162982 0.716854 0.95584
0.297826 0.710246 0.9281
0.437034 0.703456 0.899794
0.56408 0.694957 0.873671
0.662806 0.688136 0.850462
0.744244 0.681285 0.834089
0.813687 0.674815 0.820371
0.874815 0.670787 0.80679
0.135439 0.779675 0.946227
0.242069 0.775982 0.924392
0.34464 0.77026 0.904265
0.460472 0.764218 0.880583
0.569635 0.757382 0.856519
0.658045 0.751492 0.835813
0.734585 0.744747 0.817899
0.799878 0.73846 0.802884
0.856138 0.732448 0.791272
0.235813 0.822889 0.906218
0.317189 0.819562 0.890303
0.398169 0.815946 0.873198
0.490318 0.811627 0.853727
0.580118 0.805524 0.833295
0.656809 0.800076 0.816114
0.726833 0.792889 0.800656
0.786664 0.786664 0.786664
0.83714 0.78175 0.771221
0.326299 0.858274 0.864866
0.383719 0.856001 0.852949
0.445243 0.853254 0.840269
0.517342 0.849287 0.825284
0.591562 0.844678 0.810513
0.658717 0.839246 0.794369
0.719005 0.834195 0.777508
0.774868 0.828092 0.766674
0.823697 0.821805 0.756161
0.0313878 0.145327 0.999878
0.238453 0.148791 0.999954
0.44007 0.148669 0.999298
0.60589 0.152392 0.999939
0.725048 0.159091 0.997406
0.81857 0.170275 0.99321
0.893568 0.184802 0.992401
0.959457 0.19942 0.990814
0.996277 0.217411 0.982635
0.000839246 0.358801 0.999573
0.0917067 0.345815 0.999573
0.316793 0.335851 0.999893
0.516396 0.327092 0.99971
0.660975 0.321401 0.993088
0.766049 0.317388 0.987198
0.847822 0.319188 0.975784
0.919203 0.32253 0.965652
0.98381 0.327138 0.956298
0.000686656 0.484199 0.999954
0.0415351 0.472358 0.999954
0.248005 0.461189 0.999481
0.455421 0.448798 0.997986
0.614054 0.4383 0.987793
0.727306 0.430915 0.969207
0.813794 0.425574 0.955169
0.885801 0.423545 0.944045
0.953994 0.424063 0.932555
0.000106813 0.585321 0.99968
0.0283818 0.576043 0.999908
0.220325 0.565896 0.999847
0.417899 0.556359 0.991913
0.577798 0.546059 0.976608
0.691066 0.537743 0.95111
0.781262 0.530053 0.934096
0.85536 0.525429 0.921477
0.923629 0.52256 0.912108
0.000595102 0.664302 0.999893
0.0660105 0.657115 0.999863
0.227268 0.650187 0.999954
0.407156 0.640421 0.989029
0.556695 0.631922 0.961273
0.668452 0.623438 0.937743
0.757015 0.616876 0.917021
0.830472 0.6103 0.904692
0.896406 0.606134 0.89218
0.00881971 0.728756 0.999893
0.115129 0.723598 0.997879
0.262303 0.717983 0.995377
0.41352 0.711162 0.974884
0.549096 0.702281 0.945525
0.654169 0.694606 0.922301
0.737957 0.687404 0.903731
0.808637 0.680781 0.888685
0.869963 0.674784 0.872923
0.0819104 0.7785 0.99942
0.187701 0.774609 0.991302
0.304601 0.769863 0.97499
0.431022 0.764019 0.950805
0.548211 0.757809 0.925399
0.644419 0.751965 0.901747
0.722637 0.744533 0.884092
0.789242 0.738384 0.865904
0.847959 0.730907 0.853223
0.177707 0.81825 0.976226
0.26862 0.814984 0.958236
0.357336 0.811276 0.940688
0.457633 0.80676 0.920027
0.557366 0.800259 0.898604
0.639765 0.79501 0.879454
0.711223 0.789563 0.863081
0.774136 0.783444 0.845518
0.828626 0.777981 0.832273
0.279728 0.85211 0.93167
0.34435 0.849302 0.919432
0.409369 0.846159 0.906126
0.488167 0.842313 0.890013
0.568933 0.837705 0.873777
0.640482 0.833204 0.855528
0.704112 0.829007 0.837934
0.763073 0.822248 0.826154
0.815259 0.815259 0.815259
