assets/luts/ASTIA.cube
TITLE "Generated by Resolve"
LUT_3D_SIZE 65
0 0 0
0.029099 0.00326543 0.000335698
0.036759 0.00392157 3.0518e-05
0.0439918 0.00436408 0.000213626
0.0507668 0.00448615 0.000228885
0.0589151 0.0043183 0.000747692
0.0680705 0.00492866 0.000350958
0.0764324 0.00541695 0.00030518
0.0851911 0.00605783 0.000381476
0.0966506 0.00732433 0.000335698
0.110231 0.0081178 0.000350958
0.122332 0.00836194 0.000701915
0.137011 0.00943008 0.000717174
0.15169 0.0106813 0.000198367
0.167102 0.0122683 6.10361e-05
0.183154 0.0137942 0.00015259
0.201617 0.0150759 0.000442512
0.220478 0.0163119 0.000396735
0.241932 0.0168612 0.00030518
0.263371 0.0175479 0.000137331
0.28394 0.0181888 0.00015259
0.303487 0.0189364 0.000274662
0.32401 0.0194095 0.00030518
0.344976 0.0198367 0.00015259
0.365347 0.0202792 0
0.387991 0.0205844 0
0.4103 0.0211795 0
0.43267 0.021912 0
0.454978 0.0227207 0
0.476936 0.0235142 0
0.499748 0.0238956 1.5259e-05
0.522423 0.0238346 6.10361e-05
0.544671 0.0238041 0.000106813
0.565652 0.0242618 0.000122072
0.584283 0.0247959 9.15541e-05
0.60116 0.0255589 6.10361e-05
0.616953 0.0267491 3.0518e-05
0.632349 0.027924 0
0.647623 0.0289311 3.0518e-05
0.662043 0.0306401 0
0.676036 0.0318608 3.0518e-05
0.689937 0.0329747 6.10361e-05
0.703655 0.0341497 0.000244144
0.717922 0.0356451 0.00105287
0.73254 0.0368505 0.00125124
0.747173 0.0375525 0.00135805
0.760754 0.038529 0.0030518
0.773022 0.0399329 0.00691234
0.784588 0.0420539 0.00955215
0.795422 0.0446174 0.0112764
0.806226 0.0470436 0.0132296
0.817029 0.0493172 0.0154421
0.827237 0.0515755 0.0178988
0.837278 0.0541238 0.0208743
0.847211 0.0569162 0.0246128
0.857069 0.0592966 0.028687
0.866773 0.0616617 0.0327153
0.876326 0.0640116 0.0373388
0.885679 0.0665293 0.0422217
0.895064 0.069276 0.0466621
0.904433 0.0717479 0.0512245
0.913725 0.0742657 0.0561685
0.922972 0.0768749 0.061677
0.932082 0.079469 0.0670939
0.94168 0.0825208 0.0725567
0.00840772 0.0352483 0.00248722
0.0378424 0.035935 0.00114443
0.0470741 0.0390021 0
0.0549325 0.0395514 0
0.06215 0.0399786 0
0.0701457 0.0406348 0.000244144
0.0800183 0.0400702 0.000335698
0.0921187 0.0399786 0.000106813
0.103532 0.0403449 0.00015259
0.115679 0.0411841 0.000137331
0.127672 0.0420386 3.0518e-05
0.142077 0.0431678 4.57771e-05
0.155917 0.0446326 3.0518e-05
0.172488 0.0444495 0.000213626
0.1888 0.0438392 0.000442512
0.207431 0.0445716 0.000259403
0.22536 0.0456245 4.57771e-05
0.246983 0.0463722 0
0.268254 0.0466926 0
0.288609 0.0473335 0
0.308522 0.0482795 4.57771e-05
0.328511 0.0491035 0.000106813
0.34995 0.0490883 3.0518e-05
0.371206 0.0489815 1.5259e-05
0.392706 0.049012 0.000213626
0.414115 0.0490883 0.000427253
0.434821 0.0493935 0.00062562
0.453361 0.0510567 0.00062562
0.471977 0.0527352 0.000518807
0.490394 0.0541085 0.00047303
0.508827 0.0548867 0.000534066
0.526879 0.0556802 0.000564584
0.545068 0.0557717 0.000427253
0.563272 0.0563363 0.000274662
0.581033 0.0572213 0.000106813
0.598047 0.0583352 3.0518e-05
0.613855 0.0599069 9.15541e-05
0.629343 0.0615244 0.00015259
0.644404 0.0633555 0.000198367
0.659205 0.0641794 0.000213626
0.673869 0.0652018 0.000213626
0.688273 0.0663157 0.000167849
0.701991 0.0678874 0.000122072
0.715023 0.0699168 9.15541e-05
0.727855 0.0719615 6.10361e-05
0.740139 0.0742962 1.5259e-05
0.75198 0.0764782 0
0.763745 0.0783093 0.000122072
0.775372 0.0800946 0.000366217
0.786801 0.0819104 0.000595102
0.797894 0.0839399 0.0034638
0.80882 0.0861982 0.00642405
0.819669 0.0888533 0.00801099
0.830335 0.0915084 0.00953689
0.840665 0.0939956 0.0126497
0.85066 0.0964523 0.0172427
0.860502 0.098909 0.0217594
0.870192 0.101396 0.026215
0.879622 0.104646 0.0295872
0.888991 0.10721 0.0345006
0.898207 0.109789 0.0393378
0.907301 0.112352 0.0439918
0.916228 0.114855 0.0484016
0.925231 0.117296 0.0538338
0.934539 0.1205 0.0601205
0.01149 0.0466011 0.00238041
0.0395209 0.0478828 0.000411994
0.049424 0.0486458 0.000137331
0.0583658 0.0491646 0.000259403
0.0669413 0.0496986 0.000289921
0.0750896 0.0505379 0.000396735
0.0838026 0.0512703 0.00047303
0.095079 0.0516213 0.000198367
0.107042 0.0515908 1.5259e-05
0.120333 0.0523079 0.000183108
0.133349 0.0529335 0.000198367
0.146242 0.0528572 7.62951e-05
0.160189 0.0530861 7.62951e-05
0.177157 0.0538186 0.000274662
0.194827 0.0545357 0.000366217
0.213718 0.0554971 0.000213626
0.232609 0.0566415 7.62951e-05
0.253544 0.0558938 0.000244144
0.274144 0.0558175 0.000335698
0.294667 0.0565805 0.000335698
0.314839 0.0577096 0.000320439
0.335241 0.0582895 0.000244144
0.355901 0.0585794 0.000137331
0.375921 0.0589456 0
0.394736 0.059678 0
0.414054 0.0602579 0.000122072
0.433356 0.0608377 0.000213626
0.45214 0.0616312 0.000106813
0.471397 0.0620279 0
0.490532 0.0630503 3.0518e-05
0.509041 0.0645304 0.000137331
0.527184 0.066041 0.000228885
0.545037 0.0672923 0.000228885
0.562585 0.0683604 0.00015259
0.579965 0.0692912 9.15541e-05
0.596551 0.0705119 0
0.61265 0.0719005 6.10361e-05
0.628473 0.0732891 0.000122072
0.643992 0.0746166 0.000183108
0.659068 0.0752575 0.000213626
0.673869 0.0759442 0.000244144
0.687709 0.0768444 0.000244144
0.700847 0.0787671 0.000198367
0.713436 0.0814832 0.00015259
0.725704 0.0839399 7.62951e-05
0.737697 0.0862745 1.5259e-05
0.749584 0.0881819 0
0.761303 0.0899062 0
0.772839 0.0915541 0
0.784314 0.0943465 0
0.795468 0.0964828 0.000427253
0.806439 0.098558 0.0010071
0.817334 0.100923 0.00270085
0.827955 0.10341 0.00497444
0.83827 0.105882 0.0087892
0.84828 0.108324 0.0131075
0.858045 0.111269 0.0167239
0.867658 0.114244 0.020264
0.87715 0.117159 0.0239109
0.886564 0.119448 0.0289464
0.895827 0.121767 0.0338903
0.904967 0.124102 0.0387732
0.913893 0.127062 0.0438849
0.922774 0.130571 0.0493629
0.931868 0.134188 0.0546731
0.0132753 0.0550698 0.00137331
0.0415808 0.0566873 0.000564584
0.0519265 0.0572824 0.000534066
0.0612955 0.057847 0.000823987
0.0697642 0.0582895 0.000747692
0.0779126 0.0588083 0.000549325
0.088014 0.059266 0.000549325
0.098146 0.0599222 0.000366217
0.110155 0.0603494 1.5259e-05
0.123232 0.0609903 0.00015259
0.137438 0.0616617 0.000198367
0.150301 0.0615244 6.10361e-05
0.165194 0.0618753 0.00015259
0.180804 0.0625925 0.00030518
0.198657 0.0632029 0.000289921
0.217578 0.0639963 0.000122072
0.2374 0.0649424 0.000350958
0.257771 0.0642863 0.000411994
0.277775 0.0640269 0.000366217
0.299413 0.065095 0.00030518
0.319738 0.0663157 0.000183108
0.339574 0.066804 0.000122072
0.359152 0.0667887 9.15541e-05
0.37882 0.0669718 0
0.397742 0.0674144 0
0.415 0.0688792 3.0518e-05
0.433066 0.0699626 1.5259e-05
0.452064 0.0707866 0
0.471611 0.0712749 0
0.490745 0.0721752 0
0.509453 0.0733349 0
0.527749 0.0745556 1.5259e-05
0.545403 0.0756695 1.5259e-05
0.562387 0.0771649 0
0.579004 0.0786755 1.5259e-05
0.595544 0.0801099 1.5259e-05
0.612146 0.081178 0
0.628351 0.0821851 1.5259e-05
0.643809 0.0832532 6.10361e-05
0.658824 0.0837568 0.000106813
0.673045 0.0852827 0.000137331
0.686687 0.0869459 0.00015259
0.699428 0.0891127 0.00015259
0.711803 0.0911727 0.000122072
0.723918 0.0931411 7.62951e-05
0.735943 0.0952773 0
0.74786 0.0970932 0
0.759686 0.0999008 0
0.771374 0.102525 0
0.782864 0.105165 0
0.794034 0.106996 0.000457771
0.80502 0.108827 0.0009308
0.815778 0.11075 0.00172427
0.82623 0.112947 0.0031281
0.836332 0.115709 0.00505074
0.846311 0.118563 0.00839246
0.856123 0.121309 0.0121004
0.865782 0.124147 0.0158541
0.875319 0.126879 0.0198367
0.884794 0.129046 0.0250858
0.894041 0.131472 0.0300145
0.902892 0.134768 0.0342412
0.911803 0.138003 0.0399176
0.920745 0.141299 0.0454871
0.929885 0.144686 0.0508736
0.0142367 0.0654917 0.000946059
0.0439765 0.0663157 0.000747692
0.0537575 0.0666514 4.57771e-05
0.0623941 0.0671855 0.000228885
0.070573 0.0673838 0.00030518
0.0792706 0.0677195 0.000381476
0.0901808 0.0682689 0.000686656
0.101137 0.0688945 0.000595102
0.113542 0.0691234 0.000167849
0.125841 0.0694591 0.000122072
0.140093 0.0701305 0.00015259
0.153216 0.0697795 7.62951e-05
0.16997 0.0704814 0.000274662
0.185214 0.0714427 0.000427253
0.203403 0.072343 0.000335698
0.2224 0.0732586 0.000198367
0.242069 0.0736858 0.000244144
0.261692 0.0732738 9.15541e-05
0.281865 0.0730449 7.62951e-05
0.303365 0.0740063 3.0518e-05
0.324147 0.0750744 0
0.342947 0.0755474 0
0.361456 0.0756542 0
0.379721 0.0763409 3.0518e-05
0.398062 0.0780652 0.000122072
0.415167 0.079469 0.00015259
0.433783 0.0800488 0.000122072
0.453147 0.0802014 6.10361e-05
0.471824 0.080827 1.5259e-05
0.490822 0.0820172 6.10361e-05
0.509606 0.0833906 0.000106813
0.527993 0.0848249 0.00015259
0.544808 0.0861067 0.000106813
0.561044 0.0874342 1.5259e-05
0.5776 0.0887465 3.0518e-05
0.594171 0.0899519 1.5259e-05
0.610605 0.0910506 0
0.627024 0.0917525 0
0.642664 0.092958 0
0.657176 0.0949569 0
0.671382 0.0962997 4.57771e-05
0.685328 0.097673 7.62951e-05
0.698054 0.0993668 6.10361e-05
0.710384 0.101076 1.5259e-05
0.722499 0.103365 0
0.734401 0.106065 0
0.746441 0.108629 0
0.758267 0.111223 0
0.76994 0.11371 0
0.781445 0.116075 3.0518e-05
0.79263 0.117632 0.000503548
0.803586 0.119463 0.000885023
0.814313 0.121706 0.00106813
0.824872 0.12398 0.00125124
0.834867 0.126604 0.00389105
0.844617 0.129335 0.00712596
0.854353 0.131975 0.00991836
0.864012 0.1346 0.0124971
0.873533 0.137148 0.0160525
0.882673 0.140169 0.0203555
0.891691 0.143206 0.024567
0.90074 0.146212 0.0301518
0.909682 0.149218 0.0359197
0.9187 0.1523 0.0415656
0.927871 0.155459 0.0470283
0.0152895 0.0768139 0.000732433
0.0478981 0.0770581 0.000350958
0.0569619 0.0775158 1.5259e-05
0.0644236 0.0786908 0
0.0725414 0.0789654 0.00015259
0.0825666 0.0790875 0.000198367
0.0932784 0.0796216 0.000198367
0.104448 0.0797894 0.00015259
0.116075 0.0795605 0.000106813
0.12874 0.0797284 0.000137331
0.142306 0.0798505 0.000274662
0.156527 0.0798657 0.000289921
0.173831 0.0806287 0.000457771
0.190478 0.0813611 0.000564584
0.209171 0.0821851 0.000411994
0.227573 0.0830854 0.000244144
0.247395 0.0832227 0.000213626
0.26656 0.0830091 0.000106813
0.285588 0.0831311 7.62951e-05
0.304982 0.0840925 0.000228885
0.325231 0.0851148 0.000259403
0.343709 0.0856641 0.000244144
0.361074 0.0867628 0
0.379232 0.0877089 4.57771e-05
0.397406 0.0894484 0.000137331
0.416129 0.090074 0.000198367
0.434684 0.0906081 0.000274662
0.453391 0.0910201 0.000244144
0.471565 0.091722 0.000213626
0.491096 0.0929885 0.000274662
0.510185 0.0943465 0.00030518
0.52845 0.0956588 0.000320439
0.545144 0.0965744 0.000320439
0.561379 0.0979324 0.000213626
0.577417 0.0996567 7.62951e-05
0.593118 0.10016 3.0518e-05
0.609247 0.101015 0
0.625544 0.101671 0
0.641001 0.102831 0
0.655497 0.104646 0
0.669734 0.106508 0
0.683894 0.108614 0
0.696635 0.110994 0
0.708995 0.113298 0
0.721141 0.115633 0
0.73315 0.117998 0
0.745235 0.120241 0
0.757137 0.122515 0
0.768826 0.124834 0
0.780102 0.127153 0
0.791028 0.129641 9.15541e-05
0.801938 0.131609 0.000289921
0.81268 0.133623 0.000488289
0.823255 0.135668 0.000686656
0.833234 0.138094 0.00360113
0.843015 0.140597 0.00683604
0.852628 0.143236 0.00970474
0.862257 0.146258 0.0104677
0.871611 0.149294 0.012192
0.880583 0.1523 0.0158541
0.88954 0.155276 0.0205386
0.898512 0.158206 0.0259251
0.9075 0.160983 0.0317845
0.916579 0.163851 0.0374914
0.92578 0.16672 0.0433967
0.0199741 0.0877546 0.00015259
0.051194 0.0874952 7.62951e-05
0.0608988 0.0884413 0.000320439
0.0679789 0.0896315 0.000274662
0.0764172 0.0901808 0.000167849
0.0865339 0.0903792 0.00015259
0.0968948 0.0906539 0
0.108553 0.0908675 0
0.119463 0.0913405 4.57771e-05
0.13344 0.090837 6.10361e-05
0.146929 0.0910658 0.000167849
0.160342 0.0914626 0.00015259
0.175341 0.0920577 0.000213626
0.193378 0.0927596 0.000259403
0.213458 0.0932021 0.000213626
0.231907 0.0938125 6.10361e-05
0.251881 0.093492 0.000106813
0.271855 0.0935988 0.000167849
0.290745 0.0936751 0.00015259
0.308782 0.0948348 0.000320439
0.326482 0.0959182 0.000442512
0.344533 0.0966812 0.000381476
0.361578 0.0980392 9.15541e-05
0.380194 0.0992599 0
0.399023 0.100587 1.5259e-05
0.417411 0.101396 9.15541e-05
0.43566 0.101823 0.000213626
0.453559 0.102327 0.000350958
0.471626 0.102861 0.000396735
0.49099 0.104311 0.000411994
0.509972 0.10605 0.000427253
0.528511 0.107744 0.000427253
0.546136 0.108858 0.000350958
0.562524 0.110231 0.000228885
0.578485 0.111696 9.15541e-05
0.59411 0.111711 6.10361e-05
0.609461 0.111803 3.0518e-05
0.624796 0.112108 6.10361e-05
0.639826 0.113802 6.10361e-05
0.654353 0.11603 0
0.668864 0.118395 0
0.68304 0.12079 0
0.695781 0.123003 0
0.70811 0.125307 0
0.720195 0.127657 0
0.732219 0.129778 0
0.744121 0.131899 0
0.755673 0.134142 0
0.767025 0.136416 0
0.77821 0.138735 0
0.789334 0.141009 0
0.800275 0.143313 0
0.811048 0.145663 0
0.821653 0.147753 0.000106813
0.831571 0.150301 0.00236515
0.841321 0.15317 0.00387579
0.850919 0.156085 0.00534066
0.860426 0.158968 0.0065919
0.869764 0.161761 0.00865187
0.878874 0.164492 0.0132601
0.887938 0.167224 0.0185855
0.89688 0.16997 0.0238499
0.905592 0.173236 0.028687
0.914534 0.176074 0.034287
0.923659 0.178347 0.0406043
0.0224002 0.100786 0.000167849
0.0530556 0.101198 0.000183108
0.0618143 0.101198 0.00015259
0.0687266 0.101762 9.15541e-05
0.0784314 0.102968 6.10361e-05
0.088365 0.104128 4.57771e-05
0.0995193 0.104479 0
0.111559 0.104997 0
0.124086 0.104875 1.5259e-05
0.13846 0.103883 4.57771e-05
0.152697 0.103044 7.62951e-05
0.165927 0.1037 6.10361e-05
0.178637 0.104417 0.000106813
0.196628 0.105196 0
0.216403 0.105806 0
0.23537 0.105852 0.000106813
0.254215 0.105745 0.000289921
0.273411 0.106172 0.000396735
0.292287 0.106798 0.000183108
0.310475 0.107637 0.000183108
0.327947 0.10837 0.000228885
0.345174 0.108888 0.00015259
0.362325 0.109926 1.5259e-05
0.381445 0.110903 0
0.400198 0.112352 4.57771e-05
0.418677 0.113481 7.62951e-05
0.437232 0.113695 0.000137331
0.455146 0.11429 0.000274662
0.473075 0.115373 0.000366217
0.491081 0.117449 0.000366217
0.509361 0.119249 0.000366217
0.527626 0.120607 0.000335698
0.545129 0.121538 0.000274662
0.562463 0.122454 0.000198367
0.579644 0.123598 0.000137331
0.595071 0.124315 9.15541e-05
0.610162 0.125063 4.57771e-05
0.624994 0.125902 1.5259e-05
0.639628 0.127382 0
0.654032 0.129107 0
0.668254 0.130968 0
0.682231 0.13312 0
0.694957 0.135119 0
0.707088 0.137591 1.5259e-05
0.718746 0.140276 4.57771e-05
0.730419 0.142611 6.10361e-05
0.742214 0.144366 1.5259e-05
0.753796 0.146258 0
0.765209 0.148425 0
0.776516 0.150515 0
0.78764 0.152407 0
0.798657 0.154757 0
0.809644 0.157977 0
0.820401 0.161166 0
0.830106 0.163867 0
0.839673 0.166598 0
0.849195 0.169314 0.000854505
0.858671 0.172015 0.00233463
0.868009 0.174578 0.00584421
0.877226 0.17705 0.0112612
0.886183 0.180255 0.0160983
0.895003 0.183551 0.0208133
0.903685 0.186892 0.0254673
0.912718 0.189364 0.031281
0.921859 0.191409 0.037644
0.0258946 0.115602 0.000183108
0.0558938 0.115206 0
0.0644236 0.115312 1.5259e-05
0.0721447 0.11574 0.000106813
0.0814069 0.116884 0.000137331
0.0916304 0.117952 0.000137331
0.10251 0.118242 0.000106813
0.11426 0.118685 0.000122072
0.126833 0.11873 0.000244144
0.140124 0.118532 0.000289921
0.154223 0.118151 0.000350958
0.169543 0.117861 0.000427253
0.18352 0.11841 0.000427253
0.202167 0.119234 0.000198367
0.219211 0.120012 0
0.237354 0.119432 0.000198367
0.255329 0.119005 0.000442512
0.273823 0.119585 0.000503548
0.292668 0.120562 0.000274662
0.311467 0.121492 4.57771e-05
0.330404 0.122118 1.5259e-05
0.347753 0.123064 3.0518e-05
0.365118 0.124239 7.62951e-05
0.382635 0.125307 0.000289921
0.400961 0.12665 0.000350958
0.419654 0.127443 0.000396735
0.438529 0.126986 0.00030518
0.457069 0.12665 0.000228885
0.475074 0.127794 0.000289921
0.493065 0.129839 0.000274662
0.510506 0.132296 0.000259403
0.527794 0.134203 0.000244144
0.545296 0.135393 0.000183108
0.562707 0.136553 0.000122072
0.579629 0.13756 6.10361e-05
0.5953 0.13846 6.10361e-05
0.610712 0.139467 4.57771e-05
0.625635 0.140261 0
0.639979 0.141375 0
0.654154 0.143099 0
0.667872 0.145205 0
0.680934 0.14725 3.0518e-05
0.692927 0.149157 9.15541e-05
0.704997 0.151492 0.000122072
0.716716 0.153933 0.00015259
0.72845 0.155901 0.00015259
0.740261 0.157443 0.000106813
0.751949 0.159243 7.62951e-05
0.763592 0.161456 3.0518e-05
0.775158 0.164019 0
0.78645 0.166323 0
0.79762 0.169253 0
0.808606 0.172229 0
0.819257 0.175113 0
0.828962 0.177569 0
0.838529 0.180072 0
0.847944 0.182605 0
0.856931 0.185611 1.5259e-05
0.866072 0.188754 0.00326543
0.875288 0.19173 0.00791943
0.884276 0.194705 0.0127565
0.893141 0.197726 0.0175479
0.901869 0.200778 0.0222629
0.911009 0.202853 0.0283055
0.920195 0.204639 0.0347295
0.028809 0.130571 9.15541e-05
0.0594186 0.130282 0.000167849
0.0695048 0.130495 1.5259e-05
0.0773327 0.130953 0.00015259
0.0852064 0.131441 0.00030518
0.0961929 0.131868 0.00030518
0.106401 0.132403 0.000259403
0.117494 0.13257 0.000320439
0.129763 0.132845 0.000442512
0.142245 0.133837 0.000503548
0.15671 0.133898 0.000564584
0.171756 0.133715 0.00062562
0.188449 0.133562 0.000732433
0.206256 0.134264 0.000610361
0.222614 0.135073 0.000381476
0.24097 0.13547 1.5259e-05
0.258701 0.135241 0.000183108
0.276905 0.135943 0.000228885
0.294987 0.136889 0.000183108
0.313436 0.137667 0
0.332372 0.138033 3.0518e-05
0.351019 0.138384 6.10361e-05
0.368734 0.139101 9.15541e-05
0.386114 0.140063 0.000289921
0.403159 0.141131 0.000518807
0.421424 0.142214 0.000457771
0.440284 0.142214 0.000350958
0.458839 0.142184 0.000198367
0.477241 0.143023 0.00015259
0.495323 0.144396 0.000122072
0.512657 0.146639 0.000122072
0.529839 0.148119 9.15541e-05
0.546807 0.14934 6.10361e-05
0.563485 0.150622 3.0518e-05
0.579828 0.151522 0
0.595453 0.152468 0
0.610803 0.153536 0
0.625772 0.154772 0
0.639338 0.157061 0
0.653071 0.15903 0
0.666743 0.160876 0
0.679545 0.162631 3.0518e-05
0.691508 0.164279 0.000106813
0.703273 0.166003 0.000167849
0.714839 0.167758 0.000244144
0.726864 0.169894 0.000213626
0.739086 0.172198 0.00015259
0.75111 0.174563 9.15541e-05
0.762951 0.176989 3.0518e-05
0.774472 0.179278 0
0.785733 0.181506 0
0.796689 0.183917 0
0.807263 0.186648 0
0.817761 0.189242 0
0.82739 0.191714 1.5259e-05
0.836805 0.194568 4.57771e-05
0.845792 0.19762 7.62951e-05
0.85452 0.200763 0.000106813
0.863783 0.203616 0.00392157
0.873137 0.206394 0.00906386
0.882353 0.20911 0.0122988
0.891432 0.211872 0.015259
0.900267 0.214679 0.0191501
0.909331 0.216815 0.0251164
0.918013 0.21976 0.0305943
0.0320592 0.148028 0.000137331
0.0617838 0.149142 1.5259e-05
0.0722667 0.148653 4.57771e-05
0.0796063 0.149218 0.000198367
0.0890516 0.149783 0.000228885
0.0996872 0.15024 0.000167849
0.109667 0.150607 0.000137331
0.121279 0.150179 0.000335698
0.132525 0.150256 0.00047303
0.145815 0.150515 0.000534066
0.160098 0.150362 0.000595102
0.17496 0.150317 0.000595102
0.192142 0.150134 0.000747692
0.209247 0.149966 0.000885023
0.226871 0.149722 0.000656138
0.244785 0.150301 0.000289921
0.26244 0.15108 1.5259e-05
0.280201 0.152071 0
0.297826 0.153109 0
0.315999 0.153475 1.5259e-05
0.334661 0.153918 4.57771e-05
0.353109 0.154208 7.62951e-05
0.371252 0.154574 0.000244144
0.389441 0.154864 0.000335698
0.406271 0.155779 0.000549325
0.424842 0.156924 0.000320439
0.442924 0.157794 0.00015259
0.460838 0.157839 3.0518e-05
0.479072 0.158709 1.5259e-05
0.497002 0.159716 0
0.514412 0.161135 0
0.531441 0.162356 0
0.548089 0.163882 0
0.564294 0.165545 0
0.580163 0.166415 0
0.595605 0.167636 0
0.610864 0.168566 0
0.625513 0.169818 0
0.639017 0.171893 0
0.652338 0.174014 0
0.665644 0.176074 0
0.678203 0.178088 4.57771e-05
0.690272 0.17995 0.000106813
0.702159 0.181872 0.000167849
0.713939 0.183963 0.000244144
0.726268 0.186084 0.000198367
0.738598 0.188357 0.000137331
0.750698 0.190631 7.62951e-05
0.762509 0.192828 1.5259e-05
0.773968 0.194827 0
0.785214 0.196826 0
0.795987 0.19939 3.0518e-05
0.806271 0.202396 6.10361e-05
0.816052 0.205249 9.15541e-05
0.825513 0.20766 0.000122072
0.834485 0.210391 0.000137331
0.843366 0.21326 0.000167849
0.85211 0.216159 0.000198367
0.861494 0.218723 0.00460822
0.870878 0.221256 0.00973526
0.880125 0.223926 0.0145418
0.889128 0.227375 0.0148775
0.898009 0.230854 0.0151827
0.906691 0.233799 0.0202182
0.915251 0.236774 0.0254063
0.0347906 0.167041 0.00030518
0.0642405 0.168612 3.0518e-05
0.0741283 0.16791 0.000106813
0.083299 0.167346 0.00015259
0.093019 0.167803 0.000137331
0.103609 0.168032 3.0518e-05
0.113802 0.168444 3.0518e-05
0.124804 0.168078 0.000228885
0.135561 0.167865 0.000381476
0.149447 0.167224 0.000595102
0.163333 0.167132 0.000656138
0.178408 0.167391 0.000747692
0.194522 0.167498 0.000915541
0.2112 0.167468 0.00103761
0.230442 0.166979 0.00062562
0.248585 0.167056 0.000213626
0.266377 0.167514 0
0.283421 0.168566 0
0.300496 0.169589 0
0.319036 0.168841 4.57771e-05
0.337346 0.169375 4.57771e-05
0.355413 0.16997 7.62951e-05
0.373297 0.170245 0.000289921
0.391394 0.170642 0.000350958
0.409735 0.171023 0.000350958
0.428 0.172229 0.000198367
0.445884 0.173663 0
0.46302 0.17438 0
0.480659 0.17554 0
0.49836 0.176608 0
0.515663 0.177722 0
0.532387 0.178607 0
0.548821 0.179568 0
0.564935 0.180941 0
0.580697 0.181247 0
0.596094 0.181994 0
0.610986 0.183749 0
0.62533 0.185962 1.5259e-05
0.638712 0.188571 1.5259e-05
0.651865 0.191241 3.0518e-05
0.664958 0.193912 3.0518e-05
0.677378 0.195407 7.62951e-05
0.689525 0.196796 0.000122072
0.701579 0.198535 0.000198367
0.713405 0.200504 0.000274662
0.725734 0.202274 0.000183108
0.737987 0.204257 0.000122072
0.749859 0.206638 6.10361e-05
0.761318 0.209339 0
0.772595 0.212024 7.62951e-05
0.783459 0.214496 0.000122072
0.794125 0.216983 0.000167849
0.804623 0.219532 0.000198367
0.814343 0.221988 0.000228885
0.823392 0.224353 0.000244144
0.832319 0.22678 0.000259403
0.841108 0.229252 0.000274662
0.849744 0.231907 0.000289921
0.859159 0.23508 0.00231937
0.868467 0.238254 0.00494392
0.877653 0.241489 0.00749218
0.886702 0.24477 0.00984207
0.895598 0.247944 0.0105898
0.904295 0.250599 0.0159609
0.912886 0.253117 0.0222324
0.0371252 0.187732 0.00015259
0.0675212 0.187182 1.5259e-05
0.0787823 0.18613 6.10361e-05
0.0886244 0.185168 4.57771e-05
0.0982986 0.184787 3.0518e-05
0.107713 0.185275 0
0.117067 0.185962 0
0.127016 0.186297 6.10361e-05
0.139956 0.185504 0.000320439
0.153368 0.184634 0.000579843
0.16733 0.184085 0.000686656
0.182818 0.184268 0.000717174
0.198108 0.184695 0.000808728
0.214405 0.185092 0.000854505
0.233219 0.18471 0.000503548
0.252186 0.184283 0.000106813
0.270359 0.185 4.57771e-05
0.287236 0.186175 6.10361e-05
0.303975 0.187182 0.000106813
0.321828 0.186648 0.000228885
0.339818 0.187076 0.000274662
0.357717 0.187793 0.000213626
0.375738 0.188098 3.0518e-05
0.393347 0.188464 0.000137331
0.411688 0.188769 0.000137331
0.430091 0.189242 0.000137331
0.448066 0.190036 7.62951e-05
0.465568 0.191028 1.5259e-05
0.482963 0.191806 7.62951e-05
0.500099 0.19266 0.000137331
0.516854 0.194125 9.15541e-05
0.533333 0.195712 0
0.549615 0.196994 0
0.565484 0.198398 0
0.580163 0.199969 0
0.595239 0.201068 0
0.609934 0.20293 0
0.624125 0.204959 1.5259e-05
0.637949 0.20708 4.57771e-05
0.651545 0.209262 6.10361e-05
0.664424 0.211749 7.62951e-05
0.676844 0.213031 0.000137331
0.689067 0.214343 0.000198367
0.700908 0.216251 0.000228885
0.712551 0.218235 0.000228885
0.724163 0.219974 0.000198367
0.735836 0.222126 0.000106813
0.747478 0.224521 6.10361e-05
0.758923 0.226993 1.5259e-05
0.770184 0.229435 0.000106813
0.781277 0.231937 0.000183108
0.792203 0.234501 0.000274662
0.802823 0.237171 0.00030518
0.812268 0.239078 0.000350958
0.821256 0.241581 0.000320439
0.83006 0.244327 0.000274662
0.838743 0.247135 0.000228885
0.84741 0.250019 0.000198367
0.856809 0.253056 0.000228885
0.866087 0.256123 0.000274662
0.875212 0.259251 0.000381476
0.884291 0.262272 0.00296025
0.893202 0.265156 0.00653086
0.90193 0.267384 0.0129091
0.910506 0.269673 0.019089
0.041001 0.208347 0.000183108
0.0717632 0.206897 0.000106813
0.0840009 0.205936 0.000183108
0.0932937 0.205158 0.000183108
0.103288 0.204395 7.62951e-05
0.112215 0.204486 4.57771e-05
0.121279 0.20528 4.57771e-05
0.131716 0.205539 4.57771e-05
0.144198 0.205417 0.000106813
0.157122 0.204715 0.000350958
0.171405 0.204913 0.000411994
0.186206 0.204929 0.000442512
0.201221 0.205356 0.000534066
0.219989 0.203937 0.00062562
