assets/luts/ASTIA.cube
TITLE "Generated by Resolve"
LUT_3D_SIZE 5
0 0 0
0.201617 0.0150759 0.000442512
0.544671 0.0238041 0.000106813
0.784588 0.0420539 0.00955215
0.94168 0.0825208 0.0725567
0.0509957 0.277104 0.000122072
0.286259 0.271077 3.0518e-05
0.55346 0.276829 0
0.754772 0.302815 0
0.90135 0.335576 0.0100404
0.187549 0.609842 0.000259403
0.378073 0.596704 0.000167849
0.58381 0.585519 0.00015259
0.744381 0.58294 0.000137331
0.873014 0.582483 0.00535592
0.358587 0.795209 0.00355535
0.479103 0.786221 0.00015259
0.618906 0.774762 4.57771e-05
0.747906 0.763821 0.00712596
0.85864 0.753704 0.0324102
0.490517 0.907851 0.0907607
0.565087 0.901991 0.0827649
0.659464 0.891539 0.0813306
0.760281 0.881285 0.0911574
0.853346 0.8701 0.120958
0.00103761 0.0110475 0.162829
0.27866 0.0168765 0.21828
0.625849 0.0162203 0.275731
0.830839 0.0377203 0.336095
0.974578 0.0798047 0.40029
0.0165866 0.324865 0.366125
0.303166 0.303166 0.303166
0.589105 0.301259 0.273274
0.78201 0.312779 0.291798
0.922133 0.334051 0.328527
0.146639 0.611551 0.35317
0.369848 0.595483 0.305653
0.590127 0.582132 0.268681
0.754208 0.573678 0.264408
0.882673 0.571252 0.285206
0.328176 0.779126 0.347021
0.461677 0.769802 0.315496
0.615778 0.758099 0.288243
0.749462 0.747204 0.278035
0.860639 0.738521 0.286931
0.469947 0.891707 0.361257
0.552438 0.885252 0.346151
0.65391 0.8757 0.329381
0.758587 0.86537 0.321584
0.851804 0.856077 0.327245
0.00914015 0.0217594 0.441596
0.348608 0.0242466 0.566201
0.681758 0.0302129 0.61767
0.865629 0.0594949 0.648829
0.992447 0.101549 0.670604
0.000167849 0.379522 0.742153
0.301732 0.3523 0.667002
0.611917 0.339345 0.613779
0.801373 0.338582 0.59852
0.938033 0.348959 0.602213
0.0830396 0.623377 0.698314
0.340932 0.607385 0.641077
0.588922 0.588922 0.588922
0.76054 0.578561 0.561593
0.890288 0.573251 0.55227
0.27306 0.772671 0.645777
0.429236 0.763775 0.609689
0.604303 0.750774 0.572122
0.74696 0.739803 0.544656
0.862074 0.729351 0.534386
0.432746 0.87834 0.607828
0.526665 0.871763 0.588678
0.640726 0.863432 0.564889
0.751415 0.853147 0.544213
0.84715 0.842039 0.531792
0.0256809 0.0572518 0.779553
0.415 0.0652628 0.888228
0.713375 0.0803693 0.866224
0.884108 0.109926 0.861051
0.997055 0.149493 0.853559
0.000350958 0.433524 0.967605
0.281315 0.406317 0.899977
0.617777 0.387045 0.836728
0.810697 0.378973 0.808179
0.948104 0.381582 0.793881
0.0124666 0.643153 0.923323
0.2925 0.626337 0.862501
0.576226 0.609033 0.803296
0.760525 0.595697 0.765774
0.894713 0.586053 0.744625
0.187564 0.778164 0.860365
0.37995 0.768017 0.819532
0.583124 0.756054 0.774701
0.742199 0.742199 0.742199
0.861372 0.732906 0.717433
0.367742 0.865125 0.791836
0.476921 0.859602 0.768292
0.612802 0.850736 0.739406
0.731411 0.84004 0.712459
0.832639 0.828138 0.68954
0.0313878 0.145327 0.999878
0.44007 0.148669 0.999298
0.725048 0.159091 0.997406
0.893568 0.184802 0.992401
0.996277 0.217411 0.982635
0.000686656 0.484199 0.999954
0.248005 0.461189 0.999481
0.614054 0.4383 0.987793
0.813794 0.425574 0.955169
0.953994 0.424063 0.932555
0.000595102 0.664302 0.999893
0.227268 0.650187 0.999954
0.556695 0.631922 0.961273
0.757015 0.616876 0.917021
0.896406 0.606134 0.89218
0.0819104 0.7785 0.99942
0.304601 0.769863 0.97499
0.548211 0.757809 0.925399
0.722637 0.744533 0.884092
0.847959 0.730907 0.853223
0.279728 0.85211 0.93167
0.409369 0.846159 0.906126
0.568933 0.837705 0.873777
0.704112 0.829007 0.837934
0.815259 0.815259 0.815259
