assets/luts/CC.cube
TITLE "Generated by Resolve"
LUT_3D_SIZE 65
0 0 0
0.0154269 0.00143435 0.000259403
0.0212253 0.00148013 7.62951e-05
0.027039 0.00202945 0.000167849
0.0332189 0.00227359 0.000122072
0.0412299 0.00257877 0.000518807
0.0502785 0.00326543 0.00135805
0.0586862 0.00350958 0.00138857
0.0678111 0.00361639 0.00190738
0.0779889 0.00381476 0.00207523
0.0889601 0.00422675 0.00175479
0.0985885 0.00494392 0.00167849
0.11162 0.00578317 0.00216678
0.124681 0.0065156 0.00325017
0.138689 0.00773632 0.00321965
0.153506 0.00901808 0.00337224
0.169238 0.00968948 0.00349432
0.185031 0.0105592 0.00387579
0.204364 0.0118105 0.00399786
0.223239 0.0133974 0.00430304
0.242985 0.0143435 0.00605783
0.262333 0.0155489 0.00753796
0.282673 0.0172427 0.00895705
0.304265 0.0191501 0.00982681
0.325475 0.0208438 0.0104372
0.347845 0.0225528 0.0112459
0.370199 0.0244907 0.0121309
0.392798 0.0267185 0.0132448
0.415503 0.029221 0.014374
0.437766 0.0317235 0.0153658
0.462654 0.0349584 0.0173037
0.487449 0.0380255 0.019379
0.511757 0.041062 0.0214237
0.535073 0.044831 0.0237125
0.554803 0.0483864 0.0252842
0.572168 0.051957 0.0265507
0.589334 0.0561379 0.0287938
0.60621 0.0603189 0.0312352
0.622858 0.0644083 0.0338903
0.638224 0.0692149 0.0355077
0.652705 0.073579 0.0370794
0.666972 0.0777905 0.0387121
0.680888 0.0821241 0.0406043
0.69424 0.0875257 0.0443732
0.707851 0.0927291 0.0480049
0.721309 0.0973831 0.0517739
0.733791 0.102373 0.0554665
0.745007 0.107866 0.0590829
0.755901 0.114015 0.062501
0.766278 0.120424 0.0656138
0.776242 0.127275 0.0686809
0.785748 0.134615 0.0717174
0.794766 0.141482 0.0745861
0.803769 0.147967 0.0777447
0.812589 0.154162 0.0812085
0.820584 0.160708 0.0843214
0.828458 0.167178 0.0873884
0.836286 0.173587 0.0908522
0.844007 0.17998 0.0944991
0.851347 0.186801 0.0977188
0.858564 0.19353 0.100893
0.865812 0.20029 0.104341
0.873091 0.207111 0.108141
0.880262 0.213855 0.111879
0.886717 0.221515 0.11696
0.00125124 0.0174105 0.00140383
0.0206149 0.0186313 0.00178531
0.0288853 0.0206149 0.000595102
0.0371862 0.020798 0.000946059
0.0451362 0.020798 0.00120546
0.0526284 0.0218509 0.00173953
0.0613565 0.0217288 0.00221256
0.0712139 0.0224613 0.00265507
0.0805371 0.023621 0.00320439
0.0913405 0.0242466 0.00299077
0.102388 0.0249638 0.00285344
0.115175 0.0258793 0.00276188
0.12781 0.0270085 0.00244144
0.143587 0.0285954 0.00311284
0.158968 0.0299077 0.00390631
0.174899 0.0311284 0.00399786
0.189303 0.0323949 0.00427253
0.209522 0.0341802 0.00482185
0.229816 0.0361028 0.00560006
0.249119 0.0378119 0.00624094
0.267857 0.0397955 0.00648508
0.286839 0.0418097 0.00703441
0.308034 0.0436866 0.00863661
0.330098 0.0455634 0.00994888
0.35198 0.0478523 0.011017
0.37351 0.050309 0.0120089
0.394507 0.0528725 0.0130007
0.414511 0.0562142 0.014313
0.434409 0.0595865 0.0157321
0.454154 0.0630808 0.0168002
0.474037 0.0667582 0.0173037
0.493523 0.0703899 0.017792
0.512428 0.073167 0.0191196
0.530327 0.0758373 0.0209964
0.547829 0.0785687 0.0227512
0.565316 0.0818952 0.0247501
0.5832 0.0865034 0.0272221
0.600748 0.0910964 0.0296178
0.617929 0.0958267 0.0317998
0.63331 0.100206 0.0341192
0.648188 0.104891 0.0365148
0.662623 0.109621 0.03888
0.676555 0.114656 0.0413367
0.689998 0.119982 0.0438697
0.703197 0.125261 0.0463722
0.715969 0.130648 0.049073
0.727733 0.136294 0.0524453
0.738933 0.141848 0.0563211
0.749859 0.147494 0.0601053
0.760616 0.153079 0.0638285
0.770672 0.158877 0.0675059
0.780407 0.164813 0.0710002
0.789944 0.170962 0.0741741
0.799329 0.17705 0.0772869
0.808072 0.183246 0.0806439
0.816236 0.189578 0.0842603
0.824292 0.195865 0.0878157
0.832212 0.20209 0.0913405
0.839918 0.209552 0.0950332
0.847608 0.216541 0.0988479
0.855161 0.223468 0.102617
0.862577 0.230381 0.10631
0.86978 0.237308 0.109895
0.87689 0.244297 0.11429
0.883436 0.25185 0.119753
0.00326543 0.0251926 0.002533
0.0220951 0.027039 0.00111391
0.0307164 0.0277562 0.00103761
0.040177 0.0286717 0.00157168
0.049424 0.0293126 0.00187686
0.057084 0.0302739 0.00221256
0.0647746 0.0311131 0.00302129
0.073579 0.0309911 0.00399786
0.0835431 0.0316625 0.0041352
0.0951095 0.0324254 0.00337224
0.106432 0.0329442 0.00308232
0.118975 0.0336919 0.00350958
0.132799 0.0350652 0.0040589
0.148806 0.0373541 0.00448615
0.164523 0.0394446 0.00451667
0.180316 0.0411231 0.00418097
0.196887 0.04271 0.00425727
0.216892 0.043183 0.00399786
0.236179 0.0447242 0.00421149
0.256535 0.0472267 0.00502022
0.276722 0.0499733 0.0059968
0.296895 0.0520027 0.00721752
0.316457 0.0535897 0.0087892
0.3355 0.0551766 0.0103609
0.355306 0.0578775 0.0112001
0.375677 0.0603647 0.011902
0.396078 0.062974 0.0128176
0.41622 0.0661479 0.0142367
0.436042 0.0688792 0.0157931
0.455497 0.0720378 0.0170596
0.474861 0.0756695 0.0178073
0.493812 0.0793011 0.0185397
0.5122 0.0826581 0.0194095
0.530083 0.085832 0.0203708
0.547768 0.0888991 0.0214237
0.565209 0.0925307 0.0231479
0.582544 0.0973373 0.0260014
0.599573 0.102098 0.0288396
0.616098 0.106783 0.0315709
0.631403 0.111055 0.0341039
0.646403 0.115312 0.0365759
0.660945 0.119646 0.0390021
0.674754 0.124849 0.041474
0.688121 0.130648 0.0440375
0.70103 0.13611 0.0468605
0.713619 0.141405 0.0497749
0.725383 0.146883 0.0530556
0.736751 0.152193 0.0566873
0.747875 0.157351 0.0605325
0.758907 0.162982 0.063859
0.768948 0.168643 0.0672465
0.778729 0.174289 0.0705882
0.788296 0.180209 0.0737621
0.797665 0.186206 0.0771496
0.806317 0.192401 0.0806897
0.814481 0.198901 0.0843366
0.822477 0.206226 0.0881208
0.830335 0.213504 0.0918441
0.838087 0.220676 0.095552
0.845808 0.22742 0.0993515
0.853407 0.234104 0.103105
0.860899 0.240757 0.106813
0.868315 0.247379 0.110643
0.875517 0.254231 0.114916
0.882094 0.261662 0.119677
0.00329595 0.0314641 0.00274662
0.0246586 0.0340581 0.00151064
0.0338903 0.0351568 0.00149538
0.0424048 0.0368048 0.00233463
0.0506905 0.0376745 0.00260929
0.0588693 0.0381628 0.002533
0.0681315 0.038529 0.00321965
0.0760967 0.0384527 0.00436408
0.086656 0.0392462 0.00407416
0.0981918 0.0404212 0.00320439
0.110414 0.0416266 0.00326543
0.123079 0.0425574 0.00383001
0.137972 0.0440223 0.00415045
0.152926 0.0455787 0.00468452
0.168399 0.0474098 0.00457771
0.183948 0.0492256 0.00410468
0.201358 0.0512398 0.00427253
0.221256 0.0517433 0.00416571
0.240269 0.0526131 0.00408942
0.260136 0.0544137 0.00488289
0.280339 0.0570687 0.00598154
0.300511 0.0589609 0.00727855
0.32076 0.0603647 0.00866712
0.340002 0.0619059 0.0101167
0.359701 0.0643778 0.0109712
0.378225 0.0678721 0.0117037
0.397299 0.0709697 0.0127108
0.417151 0.073991 0.0140841
0.436667 0.0767071 0.0156252
0.456016 0.0796826 0.016968
0.47509 0.0828412 0.018204
0.493797 0.0860151 0.0193637
0.512032 0.0893111 0.0202335
0.529854 0.0928969 0.0211643
0.547341 0.0964675 0.0220951
0.564446 0.101091 0.0236973
0.581125 0.106126 0.0257572
0.597665 0.110796 0.0280308
0.614008 0.115236 0.0306706
0.629328 0.119341 0.0332189
0.644434 0.123857 0.0357366
0.659175 0.128389 0.0382086
0.673075 0.133791 0.0410163
0.686381 0.139193 0.0441901
0.699321 0.144396 0.0474403
0.711925 0.149493 0.0503548
0.723659 0.154894 0.0535897
0.73521 0.160693 0.0564431
0.746441 0.166201 0.0598001
0.757488 0.171679 0.0630961
0.767483 0.177142 0.0665141
0.777279 0.182589 0.0698863
0.786923 0.188052 0.0733349
0.796338 0.193851 0.0773327
0.804898 0.200824 0.081117
0.813031 0.208026 0.0847639
0.821042 0.215152 0.0885328
0.828931 0.222248 0.092195
0.836713 0.229221 0.0958419
0.84445 0.235782 0.0995804
0.852079 0.242313 0.103273
0.859602 0.248798 0.106981
0.867109 0.255283 0.11107
0.874281 0.262013 0.115389
0.880888 0.269276 0.120134
0.00411994 0.0403449 0.00302129
0.0263371 0.0427253 0.00262455
0.0354162 0.0432593 0.00202945
0.0436103 0.0446021 0.00268559
0.0515908 0.0452277 0.00230411
0.0599374 0.0457771 0.002121
0.0699474 0.0465858 0.00323491
0.0794995 0.0473487 0.00445563
0.0907912 0.0484016 0.00358587
0.102342 0.049958 0.00254826
0.114687 0.0509804 0.00303655
0.127398 0.0510719 0.00381476
0.142718 0.0521859 0.0043183
0.157122 0.0536355 0.00488289
0.172961 0.0554208 0.0049897
0.188785 0.0572824 0.00463874
0.207065 0.059144 0.00469978
0.226856 0.0605325 0.004654
0.246204 0.0614481 0.00479133
0.26537 0.063035 0.00561532
0.283894 0.0646525 0.0065156
0.303151 0.0665446 0.00753796
0.322805 0.0683909 0.00894179
0.341955 0.0707561 0.0101015
0.36051 0.0741741 0.0109102
0.378698 0.0776379 0.0116732
0.398062 0.0802472 0.0128176
0.417945 0.0823529 0.0141604
0.436728 0.0848707 0.0154879
0.455955 0.0879225 0.0166934
0.475059 0.0910811 0.0178378
0.493736 0.0943008 0.0189975
0.511818 0.0977951 0.0203708
0.529503 0.101442 0.0218204
0.546929 0.104845 0.0227512
0.563989 0.109514 0.0244907
0.580682 0.114611 0.0265507
0.597314 0.119036 0.0283207
0.613108 0.123705 0.0302434
0.627604 0.128801 0.0324407
0.64268 0.133135 0.0349584
0.657511 0.137438 0.0374456
0.671183 0.142443 0.0406043
0.684382 0.147509 0.0439155
0.697658 0.152911 0.0472267
0.710842 0.158541 0.0504768
0.722347 0.164172 0.0532082
0.73373 0.169772 0.0559396
0.745037 0.175219 0.0590372
0.756039 0.180514 0.0623484
0.766033 0.185763 0.0657816
0.775906 0.191241 0.0693828
0.785565 0.197299 0.0738689
0.795056 0.203326 0.0783093
0.803601 0.210178 0.0819562
0.811795 0.217212 0.085359
0.819776 0.224231 0.0888533
0.827573 0.231205 0.0923781
0.83534 0.237995 0.095964
0.843091 0.244388 0.0997024
0.850736 0.250736 0.103395
0.858366 0.257084 0.107454
0.865904 0.263386 0.111543
0.87303 0.270024 0.115892
0.879667 0.277119 0.120623
0.00541695 0.0506142 0.00361639
0.0299992 0.0527657 0.00437934
0.0389715 0.0532692 0.0037995
0.0466773 0.0539254 0.0031281
0.0544442 0.0546426 0.00254826
0.0638285 0.0555734 0.00241093
0.0736553 0.0566262 0.00331121
0.0834516 0.0569772 0.00393683
0.0936751 0.0570687 0.00363165
0.105592 0.058381 0.00309758
0.118441 0.0595407 0.00331121
0.13167 0.060029 0.00381476
0.146624 0.0609598 0.00436408
0.161334 0.0620737 0.00503548
0.177554 0.0638895 0.00492866
0.193545 0.0657206 0.00483711
0.211978 0.0672313 0.00527962
0.230945 0.0686198 0.00549325
0.249744 0.0702068 0.00588998
0.268086 0.0717021 0.00636301
0.286168 0.0731975 0.00717174
0.30518 0.0755779 0.00750744
0.32401 0.078706 0.0083772
0.342901 0.0813001 0.00936904
0.361334 0.0846418 0.0100557
0.379767 0.0872358 0.0113832
0.398505 0.0895552 0.0127108
0.41796 0.0917067 0.0138552
0.436637 0.0940871 0.0149691
0.456275 0.09691 0.016144
0.475349 0.0999466 0.0174716
0.493751 0.103166 0.0188144
0.511849 0.106126 0.0199741
0.529641 0.109941 0.0213931
0.547356 0.114229 0.0227665
0.564523 0.11809 0.0247501
0.581476 0.122728 0.0266423
0.598093 0.127138 0.0284123
0.613611 0.131731 0.0303807
0.628077 0.13666 0.032578
0.642267 0.141573 0.0347295
0.656184 0.146792 0.0373693
0.669902 0.152056 0.0404364
0.683589 0.157397 0.0439307
0.697017 0.162692 0.0473793
0.709987 0.167987 0.0506905
0.721431 0.173266 0.0535439
0.732692 0.178531 0.0563516
0.74377 0.183764 0.0591287
0.754681 0.189563 0.0616922
0.76492 0.195636 0.0657664
0.774746 0.201511 0.0702983
0.784405 0.207355 0.0747692
0.793912 0.213184 0.0791943
0.80238 0.219928 0.0827344
0.81059 0.226764 0.0861219
0.818708 0.233539 0.0895094
0.826703 0.240208 0.0932479
0.834516 0.246754 0.0968795
0.842069 0.253117 0.100328
0.849592 0.25948 0.104051
0.857099 0.265766 0.107973
0.864637 0.271916 0.112047
0.871748 0.278431 0.116442
0.878264 0.285191 0.121279
0.00723278 0.0605173 0.00476081
0.0334936 0.062089 0.00489815
0.0436408 0.0630045 0.00468452
0.0509499 0.0636912 0.00396735
0.0588388 0.064683 0.00364691
0.0681773 0.0656291 0.00369268
0.0771344 0.0665751 0.00347906
0.0873884 0.0669108 0.00334173
0.0970321 0.067155 0.00334173
0.110292 0.0673686 0.00314336
0.123018 0.0685588 0.00326543
0.135622 0.0696574 0.00384527
0.149233 0.0706645 0.00462348
0.164797 0.071809 0.00502022
0.18172 0.0731212 0.00503548
0.197833 0.0747082 0.00508125
0.216007 0.0757153 0.00575265
0.234211 0.0771191 0.00654612
0.252842 0.0787518 0.00708019
0.270909 0.0805219 0.00727855
0.288975 0.082536 0.00726329
0.307668 0.0850538 0.00727855
0.326192 0.0883497 0.00794995
0.345098 0.0913558 0.00865187
0.363836 0.0942855 0.00935378
0.38204 0.0969253 0.0104829
0.400443 0.0990768 0.0118563
0.418494 0.101274 0.0131838
0.436851 0.103563 0.0145571
0.45626 0.106706 0.016022
0.475349 0.110048 0.0175174
0.494209 0.113466 0.0188754
0.513329 0.117159 0.019501
0.531304 0.121157 0.0208591
0.548867 0.12517 0.0222324
0.565835 0.12871 0.0243076
0.582498 0.132235 0.0263676
0.598978 0.135912 0.028397
0.614282 0.140795 0.0304417
0.62858 0.146166 0.0325933
0.642588 0.151705 0.0352483
0.656352 0.157183 0.0378882
0.669993 0.162127 0.0406958
0.683192 0.166964 0.0444648
0.696162 0.171786 0.0483406
0.708919 0.176883 0.0515908
0.720287 0.182406 0.0542763
0.731395 0.188251 0.0567788
0.742321 0.194064 0.0592508
0.753033 0.199908 0.0621347
0.763226 0.205844 0.0667277
0.773266 0.211765 0.0712444
0.783139 0.217655 0.0757305
0.792767 0.223392 0.0801404
0.801236 0.229969 0.0836805
0.809628 0.236484 0.0872816
0.817899 0.242969 0.090837
0.826017 0.249424 0.0944076
0.833814 0.255772 0.0979934
0.841428 0.261997 0.101671
0.848997 0.268193 0.105547
0.856443 0.274342 0.109377
0.863783 0.280598 0.113252
0.87042 0.286915 0.117617
0.876524 0.293187 0.122316
0.00883497 0.071519 0.00584421
0.0359197 0.0723278 0.00570687
0.0457923 0.073579 0.00523384
0.0529793 0.074403 0.00474556
0.0608682 0.0751202 0.00440986
0.0690623 0.0758984 0.00411994
0.0790417 0.0767987 0.00390631
0.0899672 0.0777447 0.00366217
0.10135 0.0781415 0.00347906
0.114824 0.0781109 0.00325017
0.128267 0.078233 0.00308232
0.140764 0.0794842 0.0039826
0.152804 0.0808576 0.00492866
0.168505 0.0822156 0.00514229
0.185061 0.0835737 0.00509651
0.202106 0.0849165 0.0052491
0.219898 0.0863966 0.00585946
0.237613 0.0880751 0.00660716
0.255604 0.0895247 0.00735485
0.273716 0.091249 0.00773632
0.291905 0.0933394 0.00759899
0.310369 0.0958114 0.00721752
0.328496 0.0986343 0.00772107
0.347433 0.10135 0.00849927
0.36585 0.104326 0.00907912
0.383963 0.107088 0.00987259
0.402243 0.109316 0.0119478
0.420081 0.111666 0.013962
0.438102 0.114488 0.0154726
0.456733 0.118105 0.0161135
0.47538 0.121477 0.0171969
0.494209 0.124758 0.0183413
0.513176 0.128267 0.0189364
0.531762 0.131914 0.0200504
0.549859 0.135912 0.021912
0.56669 0.139849 0.0243839
0.583139 0.143755 0.0267643
0.599313 0.147677 0.029099
0.614343 0.152438 0.0312963
0.628824 0.157443 0.0335088
0.642985 0.162524 0.0358129
0.656718 0.167742 0.038468
0.670298 0.172503 0.0412604
0.683223 0.177584 0.0441596
0.695613 0.182727 0.0477302
0.70753 0.188037 0.0510719
0.718837 0.193606 0.054078
0.729946 0.199207 0.0568551
0.740917 0.204883 0.0596323
0.751415 0.210559 0.0633555
0.761471 0.216236 0.0677348
0.771557 0.222095 0.0721752
0.781643 0.228351 0.0763714
0.79147 0.234562 0.0804913
0.800183 0.240574 0.084535
0.808759 0.246555 0.0885176
0.817105 0.252705 0.0922255
0.825254 0.258961 0.0957198
0.833158 0.265126 0.0994125
0.840833 0.271183 0.103273
0.848356 0.277394 0.107225
0.855772 0.283589 0.111147
0.863081 0.289754 0.115038
0.869642 0.295903 0.119448
0.875761 0.302022 0.124102
0.011368 0.0837262 0.00671397
0.0389258 0.08365 0.00634775
0.0483864 0.0849165 0.00598154
0.0562753 0.0856336 0.00534066
0.0640269 0.0863661 0.0049897
0.0724041 0.087129 0.00450141
0.0821698 0.0879683 0.00392157
0.0928054 0.0889601 0.00369268
0.103822 0.0894789 0.00361639
0.115953 0.0897993 0.00341802
0.129747 0.0903639 0.00347906
0.144076 0.0911116 0.0040589
0.156939 0.0922866 0.00476081
0.17322 0.0935531 0.00471504
0.189014 0.0950332 0.00468452
0.206256 0.0962081 0.00495918
0.223026 0.0973678 0.00573739
0.239551 0.09897 0.00683604
0.257404 0.100816 0.00755322
0.27602 0.10312 0.00814832
0.29453 0.10518 0.00851453
0.31249 0.107759 0.00819409
0.330282 0.110445 0.00823987
0.348531 0.113115 0.00808728
0.366827 0.11606 0.00909438
0.385168 0.118639 0.0104829
0.40351 0.120546 0.0129244
0.421546 0.122484 0.0153506
0.439719 0.125383 0.0165713
0.458335 0.129 0.0171664
0.476768 0.132799 0.0177462
0.494652 0.136736 0.0183261
0.513008 0.14052 0.0190585
0.531441 0.144228 0.0199283
0.549355 0.14815 0.022034
0.566659 0.152087 0.0248112
0.583642 0.156069 0.0276646
0.599832 0.15993 0.030457
0.614298 0.164553 0.03299
0.628702 0.169528 0.0351873
0.642786 0.174716 0.0373846
0.656352 0.179797 0.0393835
0.669078 0.184649 0.0410315
0.681895 0.1897 0.0434577
0.694347 0.194659 0.0466926
0.706157 0.199832 0.0499733
0.717449 0.205203 0.0529946
0.728634 0.210666 0.0565957
0.739773 0.216327 0.0606699
0.750301 0.222217 0.0645914
0.760128 0.228046 0.0682383
0.770367 0.234119 0.0724651
0.780438 0.240162 0.0766461
0.790158 0.246143 0.0807507
0.798871 0.251957 0.0847791
0.807462 0.25774 0.0887617
0.815915 0.263508 0.0926986
0.824369 0.26923 0.0968338
0.832456 0.275074 0.101091
0.840116 0.281102 0.10518
0.847623 0.28716 0.109071
0.855039 0.293172 0.112932
0.862333 0.299153 0.116762
0.868788 0.305135 0.121172
0.874907 0.311086 0.125765
0.0139773 0.0958877 0.00723278
0.0417334 0.0963149 0.00727855
0.0523079 0.0969558 0.00746166
0.0601053 0.0974899 0.00663767
0.0679332 0.0980697 0.00579843
0.0771954 0.0989242 0.0047303
0.0862898 0.100008 0.00415045
0.0964065 0.100832 0.00381476
0.107179 0.101564 0.0037995
0.118257 0.102632 0.00364691
0.132586 0.103746 0.00376898
0.146761 0.104692 0.0043183
0.161501 0.105272 0.00491341
0.177081 0.106462 0.00509651
0.192584 0.108171 0.00531014
0.209491 0.11014 0.00619516
0.22594 0.111589 0.00703441
0.242954 0.113237 0.00756847
0.260487 0.115053 0.00769055
0.27834 0.116976 0.00828565
0.296452 0.118624 0.0087129
0.314519 0.12047 0.009308
0.33254 0.122698 0.00988785
0.350668 0.125383 0.0101778
0.36846 0.128145 0.0103609
0.387381 0.13135 0.0114748
0.405829 0.1337 0.0135958
0.423957 0.136034 0.0159609
0.442771 0.138598 0.0171969
0.461479 0.141466 0.0180362
0.479744 0.145098 0.0186007
0.497383 0.148898 0.0191653
0.514626 0.152773 0.0197452
0.531563 0.156664 0.0203098
0.54905 0.160418 0.0222477
0.566278 0.164492 0.025391
0.583215 0.168627 0.0285039
0.599695 0.172869 0.0315709
0.61413 0.178027 0.0346075
0.628382 0.183062 0.0370031
0.64242 0.188022 0.0391546
0.655772 0.192828 0.0410315
0.668467 0.197467 0.0426337
0.680949 0.202106 0.0442359
0.693233 0.206744 0.0459754
0.705165 0.2121 0.0492256
0.716793 0.217868 0.0534829
0.728222 0.223621 0.0577096
0.739483 0.229389 0.0619059
0.749874 0.23505 0.0657664
0.759701 0.240665 0.0694133
0.769299 0.246326 0.0731975
0.778698 0.252155 0.0773632
0.788251 0.257908 0.0814832
0.797086 0.263416 0.0852369
0.805982 0.268788 0.0885634
0.814694 0.27425 0.0925917
0.823255 0.279759 0.0968795
0.831281 0.285451 0.101137
0.839033 0.291203 0.105333
0.846632 0.297063 0.109758
0.854139 0.302907 0.114153
0.861494 0.308736 0.118227
0.867918 0.314626 0.122713
0.87425 0.320668 0.127306
0.0162509 0.110658 0.00769055
0.0443275 0.112154 0.00727855
0.0548562 0.111803 0.0071107
0.0621958 0.112459 0.00622568
0.0707713 0.113848 0.0056611
0.0798962 0.11516 0.00534066
0.0888991 0.116075 0.00483711
0.100343 0.116411 0.00466926
0.111391 0.116869 0.00460822
0.123751 0.117723 0.00451667
0.137469 0.118532 0.00447089
0.151034 0.1196 0.00485237
0.16582 0.119875 0.00546273
0.180545 0.120211 0.00602731
0.196567 0.121492 0.00653086
0.213184 0.123568 0.00727855
0.229603 0.125658 0.00799573
0.246845 0.12755 0.00807202
0.263981 0.129381 0.00823987
0.281437 0.130739 0.00885023
0.299474 0.132296 0.00970474
0.317235 0.133928 0.0103609
0.334997 0.135988 0.0108186
0.353353 0.138201 0.0113527
0.370947 0.140826 0.0115511
0.390448 0.144289 0.0130617
0.409094 0.147539 0.0144198
0.426749 0.149981 0.0161593
0.445609 0.152377 0.0170596
0.464134 0.15491 0.0179751
0.482124 0.158114 0.0193179
0.500038 0.161669 0.0204929
0.517174 0.165652 0.0211795
0.533776 0.169818 0.0221256
0.550378 0.173754 0.0238804
0.566751 0.177844 0.0264439
0.58352 0.181796 0.0294652
0.599557 0.186038 0.032517
0.613947 0.190982 0.035523
0.628077 0.195956 0.0383764
0.641993 0.201022 0.0406806
0.65536 0.205982 0.0426184
0.668284 0.210727 0.0443275
0.68101 0.215503 0.0460212
0.693553 0.220371 0.0479744
0.705364 0.225849 0.0513924
0.71693 0.231449 0.055375
0.728328 0.237049 0.0593729
0.739559 0.242588 0.0635386
0.749767 0.248035 0.0672923
0.759564 0.253437 0.0709087
0.769116 0.2589 0.0744945
0.778363 0.264485 0.0783703
0.78735 0.269795 0.0818189
0.796201 0.274647 0.0844434
0.804913 0.279805 0.0883955
0.813596 0.285145 0.0927138
0.822171 0.290471 0.0970016
0.830121 0.29604 0.101244
0.837888 0.301625 0.105455
0.845502 0.30724 0.109651
0.85275 0.313481 0.114549
0.859876 0.319722 0.119387
0.866804 0.325353 0.124147
0.873625 0.330953 0.128862
0.0182956 0.125887 0.00764477
0.0476081 0.127596 0.00697337
0.0576791 0.12755 0.00682078
0.0662089 0.128069 0.00616464
0.074876 0.129595 0.00572213
0.083711 0.130556 0.00553903
0.0932784 0.131212 0.00619516
0.104234 0.131579 0.00607309
0.115297 0.131853 0.00602731
0.128527 0.132235 0.00570687
0.141741 0.133089 0.00563058
0.155108 0.134447 0.00544747
0.16907 0.135348 0.00544747
0.183459 0.135805 0.00607309
0.201099 0.136995 0.00683604
0.217899 0.138643 0.00764477
0.234638 0.140368 0.00816358
0.251164 0.142245 0.00831617
0.26775 0.144045 0.00848402
0.285283 0.144686 0.00939956
0.302983 0.145953 0.0105592
0.3205 0.147433 0.0115663
0.338094 0.149493 0.0119478
0.356313 0.151781 0.0125277
0.374456 0.154162 0.0133669
0.393072 0.157565 0.0147707
0.411734 0.161151 0.0161898
0.429007 0.164187 0.0168154
0.447639 0.167697 0.016907
0.465843 0.170336 0.0178225
0.483696 0.173098 0.0189822
0.50164 0.176333 0.021088
0.519295 0.179599 0.0231785
0.535973 0.183429 0.0243839
0.552529 0.18706 0.0262455
0.568811 0.19086 0.0285496
0.584619 0.1953 0.0312352
0.599588 0.200168 0.0333867
0.613855 0.205539 0.0362097
0.627909 0.21091 0.0390478
0.641733 0.216373 0.041474
0.655283 0.220768 0.0437324
0.668635 0.22501 0.0461128
0.68162 0.229557 0.0486
0.694133 0.234302 0.0507515
0.705699 0.239658 0.0539864
0.717189 0.245045 0.0577554
0.728374 0.250462 0.0616922
0.739208 0.255863 0.0656291
0.749371 0.261265 0.0689708
0.75906 0.266575 0.0724956
0.768551 0.271839 0.076051
0.777905 0.277119 0.0795758
0.786908 0.282124 0.0830243
0.795651 0.286961 0.0866407
0.804273 0.291783 0.0902419
0.812787 0.296605 0.0938277
0.821134 0.301488 0.0973678
0.828702 0.307439 0.102007
0.83621 0.31339 0.106661
0.84361 0.319326 0.111284
0.850889 0.325261 0.115892
0.858045 0.331273 0.120699
0.864958 0.336706 0.12546
0.871534 0.342199 0.13048
0.0216068 0.144793 0.00799573
0.0524453 0.143999 0.0081178
0.0631113 0.144076 0.00733959
0.071931 0.144228 0.00630198
0.0805982 0.14493 0.00552377
0.0892348 0.145724 0.00610361
0.0982071 0.146456 0.0071107
0.107897 0.147051 0.00779736
0.120302 0.147097 0.00759899
0.133135 0.147173 0.00732433
0.146304 0.147662 0.00727855
0.159854 0.14902 0.00727855
0.173159 0.150439 0.00714122
0.187854 0.151675 0.00695811
0.204959 0.152789 0.00772107
0.222141 0.153964 0.00862135
0.239658 0.155444 0.00883497
0.255924 0.157305 0.00909438
0.272129 0.159045 0.00939956
0.289204 0.159731 0.0101167
0.306508 0.160891 0.0112459
0.324468 0.162722 0.0123293
0.343374 0.165057 0.0132906
0.361044 0.167239 0.0138094
0.378637 0.169589 0.0148165
0.395544 0.172137 0.016083
0.412818 0.175006 0.0173953
0.431067 0.178302 0.0180972
0.44918 0.181537 0.0184024
0.467002 0.184802 0.0187381
0.484916 0.188388 0.0196536
0.502892 0.19202 0.0216526
0.52047 0.195529 0.0238804
0.537652 0.199176 0.0262913
0.55375 0.203479 0.0297856
0.56968 0.207691 0.0319982
0.58529 0.212192 0.0347143
0.599939 0.216907 0.0365759
0.614008 0.221759 0.0380255
0.627878 0.226627 0.0395056
0.641642 0.231754 0.0423896
0.655161 0.235935 0.0451057
0.668482 0.240101 0.0478065
0.681575 0.244404 0.0507057
0.694194 0.248768 0.053727
0.705287 0.253544 0.0571756
0.716289 0.258717 0.0604562
0.727275 0.263935 0.0643931
0.738048 0.269154 0.0682383
0.748135 0.274372 0.0714733
0.758083 0.279606 0.0746777
0.76788 0.28481 0.0778668
0.777462 0.289998 0.0815137
0.786435 0.294743 0.085359
0.795056 0.299565 0.0889143
0.803494 0.304463 0.0923934
0.811826 0.309377 0.0958724
0.819959 0.314366 0.099443
0.827314 0.320119 0.10399
0.834562 0.325856 0.108507
0.841733 0.331579 0.113008
0.849042 0.337331 0.117556
