assets/luts/CC.cube
TITLE "Generated by Resolve"
LUT_3D_SIZE 5
0 0 0
0.169238 0.00968948 0.00349432
0.511757 0.041062 0.0214237
0.755901 0.114015 0.062501
0.886717 0.221515 0.11696
0.041825 0.219425 0.0156558
0.259678 0.22858 0.0150759
0.527337 0.265309 0.0332494
0.735241 0.325353 0.0779431
0.864561 0.399756 0.138781
0.182834 0.541054 0.0833906
0.36878 0.536248 0.0866102
0.578744 0.54464 0.109133
0.743496 0.566659 0.1467
0.855344 0.595544 0.194644
0.361486 0.738689 0.196185
0.484703 0.735317 0.2
0.634775 0.733471 0.216739
0.759915 0.736996 0.247761
0.852232 0.745327 0.289403
0.503822 0.843244 0.318044
0.58645 0.841154 0.325704
0.688426 0.838697 0.341588
0.782315 0.839826 0.36347
0.859861 0.842161 0.39585
0.000549325 0.00704967 0.101534
0.247913 0.0232853 0.159182
0.60058 0.0670634 0.225116
0.796918 0.149767 0.285191
0.912184 0.256123 0.345571
0.0151522 0.289448 0.306569
0.284169 0.284169 0.284169
0.568948 0.310643 0.288411
0.762707 0.361181 0.320317
0.881498 0.424826 0.364858
0.151949 0.572503 0.375708
0.36672 0.564157 0.364446
0.590051 0.56791 0.362707
0.756466 0.583154 0.375753
0.862257 0.607782 0.404868
0.332799 0.745007 0.435691
0.470695 0.741207 0.432212
0.634165 0.738186 0.432944
0.762905 0.741421 0.443442
0.855619 0.750103 0.463783
0.488426 0.843473 0.497856
0.577523 0.842115 0.502419
0.686488 0.840314 0.508247
0.784222 0.842008 0.517037
0.862242 0.843549 0.531823
0.00274662 0.026215 0.305241
0.323613 0.0591592 0.420996
0.654017 0.115221 0.478645
0.825711 0.202045 0.522484
0.929519 0.301335 0.560159
0.00512703 0.359304 0.58822
0.289631 0.350164 0.558999
0.598032 0.36878 0.546151
0.783276 0.407782 0.555093
0.894255 0.457816 0.573556
0.101762 0.605631 0.624842
0.345617 0.598108 0.606149
0.595773 0.595773 0.595773
0.763577 0.607935 0.592203
0.870069 0.628321 0.601785
0.28333 0.755962 0.64509
0.445212 0.751644 0.637186
0.626368 0.749523 0.631617
0.765576 0.75227 0.631083
0.860059 0.760174 0.637125
0.456016 0.84509 0.667643
0.55523 0.844251 0.667842
0.67776 0.843976 0.668513
0.78262 0.844831 0.668956
0.860945 0.84596 0.671946
0.0144808 0.0765393 0.576333
0.388113 0.120546 0.672541
0.689311 0.182162 0.682704
0.84361 0.268132 0.699413
0.940352 0.352178 0.714336
0.0111391 0.424125 0.765805
0.277867 0.414496 0.741299
0.611948 0.427131 0.725673
0.796307 0.455772 0.721508
0.902525 0.497765 0.725643
0.044007 0.636942 0.776471
0.301396 0.629602 0.761654
0.586374 0.629999 0.749157
0.766751 0.637613 0.742977
0.874769 0.653819 0.74226
0.206531 0.769238 0.78204
0.399466 0.765087 0.7738
0.609506 0.764294 0.767361
0.765637 0.765637 0.765637
0.862959 0.773693 0.762829
0.391226 0.841947 0.776883
0.50753 0.841901 0.77554
0.651499 0.842191 0.77499
0.768597 0.842725 0.773251
0.852781 0.844694 0.771084
0.0287022 0.164004 0.79762
0.420356 0.202884 0.808454
0.705715 0.260182 0.805158
0.855848 0.332006 0.810925
0.946593 0.405539 0.816571
0.0184939 0.477256 0.867124
0.254047 0.470741 0.848722
0.613184 0.480476 0.834928
0.802335 0.504417 0.827375
0.907988 0.542199 0.825238
0.0367437 0.665095 0.873808
0.246708 0.659205 0.860365
0.572259 0.659251 0.848722
0.768261 0.667338 0.840269
0.878279 0.680522 0.835874
0.117144 0.773754 0.866773
0.326482 0.771878 0.858763
0.577737 0.771954 0.851682
0.75111 0.774792 0.845228
0.854841 0.779049 0.839796
0.302129 0.83653 0.846494
0.438636 0.835447 0.843595
0.606668 0.83653 0.841566
0.743999 0.839231 0.840574
0.839673 0.839673 0.839673
