assets/luts/CC.cube
TITLE "Generated by Resolve"
LUT_3D_SIZE 9
0 0 0
0.0678111 0.00361639 0.00190738
0.169238 0.00968948 0.00349432
0.325475 0.0208438 0.0104372
0.511757 0.041062 0.0214237
0.652705 0.073579 0.0370794
0.755901 0.114015 0.062501
0.828458 0.167178 0.0873884
0.886717 0.221515 0.11696
0.011368 0.0837262 0.00671397
0.103822 0.0894789 0.00361639
0.223026 0.0973678 0.00573739
0.366827 0.11606 0.00909438
0.513008 0.14052 0.0190585
0.642786 0.174716 0.0373846
0.739773 0.216327 0.0606699
0.815915 0.263508 0.0926986
0.874907 0.311086 0.125765
0.041825 0.219425 0.0156558
0.143359 0.220722 0.01178
0.259678 0.22858 0.0150759
0.394156 0.243259 0.0203861
0.527337 0.265309 0.0332494
0.64416 0.293446 0.052369
0.735241 0.325353 0.0779431
0.807187 0.361685 0.106722
0.864561 0.399756 0.138781
0.0995041 0.389944 0.0387884
0.20145 0.388678 0.0384833
0.311879 0.389013 0.042359
0.433661 0.39408 0.0526894
0.551141 0.407156 0.066804
0.654536 0.425437 0.0857252
0.736294 0.447242 0.10779
0.80351 0.47158 0.132982
0.858473 0.499062 0.163363
0.182834 0.541054 0.0833906
0.277043 0.538094 0.0842145
0.36878 0.536248 0.0866102
0.474372 0.538949 0.0968032
0.578744 0.54464 0.109133
0.670359 0.553277 0.124285
0.743496 0.566659 0.1467
0.803723 0.57995 0.168658
0.855344 0.595544 0.194644
0.277394 0.658549 0.138109
0.354376 0.655283 0.139605
0.430167 0.653834 0.14226
0.520897 0.652949 0.150774
0.608942 0.654963 0.160296
0.68748 0.658 0.174655
0.752544 0.662943 0.191562
0.805646 0.669825 0.21387
0.850477 0.678798 0.240909
0.361486 0.738689 0.196185
0.421256 0.736538 0.197818
0.484703 0.735317 0.2
0.560006 0.733745 0.205341
0.634775 0.733471 0.216739
0.701961 0.734997 0.23035
0.759915 0.736996 0.247761
0.810086 0.74049 0.26746
0.852232 0.745327 0.289403
0.435447 0.798566 0.25565
0.484794 0.79678 0.260075
0.536828 0.795148 0.263386
0.598474 0.794186 0.268437
0.661433 0.792767 0.277714
0.719173 0.792523 0.290028
0.76965 0.793271 0.305623
0.815198 0.79498 0.322606
0.854185 0.797635 0.342199
0.503822 0.843244 0.318044
0.543938 0.842054 0.321462
0.58645 0.841154 0.325704
0.636805 0.840955 0.331853
0.688426 0.838697 0.341588
0.738445 0.839216 0.351995
0.782315 0.839826 0.36347
0.823545 0.840757 0.378088
0.859861 0.842161 0.39585
0.00030518 0.0028687 0.0401923
0.0838483 0.00862135 0.0581216
0.211933 0.0155032 0.07187
0.390021 0.0282292 0.0897688
0.56437 0.0528115 0.111406
0.688289 0.0874952 0.137011
0.77995 0.130983 0.169253
0.848478 0.180987 0.20058
0.903487 0.238178 0.2392
0.0037995 0.110338 0.118379
0.112352 0.112352 0.112352
0.248493 0.121324 0.110811
0.401297 0.135515 0.121279
0.549401 0.16202 0.132342
0.670893 0.194064 0.1552
0.760052 0.236393 0.180758
0.829847 0.280461 0.211124
0.88603 0.327504 0.243671
0.0277867 0.25713 0.156008
0.143603 0.253452 0.147204
0.275074 0.256428 0.14522
0.417121 0.269932 0.149035
0.552666 0.288029 0.160067
0.663676 0.312932 0.177951
0.751064 0.342 0.200519
0.819028 0.37554 0.224994
0.87422 0.411383 0.257679
0.0849775 0.41593 0.192889
0.197879 0.411353 0.185565
0.316106 0.410224 0.181903
0.443259 0.413367 0.186908
0.563989 0.423087 0.194751
0.667048 0.439185 0.209583
0.749126 0.459342 0.229114
0.81236 0.483848 0.25243
0.866209 0.507561 0.27863
0.166766 0.556222 0.237491
0.270024 0.551629 0.233921
0.36788 0.549538 0.231586
0.479362 0.550927 0.231907
0.586938 0.555184 0.239094
0.676295 0.562341 0.250828
0.750622 0.573739 0.266285
0.811276 0.585794 0.284031
0.85864 0.600259 0.306783
0.262913 0.664836 0.284352
0.344793 0.662196 0.281743
0.42591 0.659419 0.281834
0.518761 0.6589 0.281636
0.6103 0.659007 0.286656
0.68986 0.662058 0.2934
0.754711 0.66627 0.306615
0.8094 0.67248 0.324361
0.855192 0.680903 0.341711
0.350011 0.741314 0.3252
0.412268 0.73959 0.323995
0.479454 0.737835 0.323262
0.557626 0.736355 0.326925
0.635325 0.735271 0.333089
0.703517 0.735729 0.34078
0.761349 0.738369 0.350591
0.811048 0.742412 0.363088
0.85333 0.747021 0.381888
0.425696 0.798962 0.367025
0.47631 0.79707 0.368353
0.531395 0.795621 0.370199
0.595636 0.794507 0.372717
0.659953 0.794232 0.379538
0.719936 0.793835 0.385534
0.771191 0.794491 0.39646
0.815961 0.796933 0.408087
0.855497 0.799527 0.423117
0.498192 0.842725 0.411826
0.537804 0.842252 0.413382
0.581582 0.841489 0.415518
0.634043 0.839872 0.420478
0.685985 0.84036 0.426413
0.73724 0.840513 0.435538
0.784222 0.839872 0.443061
0.824445 0.840909 0.453651
0.860609 0.84271 0.464027
0.000549325 0.00704967 0.101534
0.0985122 0.0133364 0.129046
0.247913 0.0232853 0.159182
0.43624 0.0402686 0.193652
0.60058 0.0670634 0.225116
0.715648 0.104311 0.252827
0.796918 0.149767 0.285191
0.860227 0.201343 0.316594
0.912184 0.256123 0.345571
0.00192264 0.136614 0.252399
0.113664 0.138918 0.243
0.264027 0.143221 0.239109
0.427085 0.161944 0.245335
0.575113 0.185397 0.258412
0.690227 0.217594 0.278004
0.77586 0.256596 0.302235
0.840955 0.298863 0.32813
0.894255 0.342992 0.355001
0.0151522 0.289448 0.306569
0.141131 0.28423 0.291768
0.284169 0.284169 0.284169
0.431907 0.293935 0.281849
0.568948 0.310643 0.288411
0.678538 0.333471 0.303349
0.762707 0.361181 0.320317
0.829313 0.390982 0.342489
0.881498 0.424826 0.364858
0.0714122 0.439078 0.341268
0.190249 0.434348 0.330892
0.317113 0.430442 0.322271
0.450263 0.433951 0.320668
0.575341 0.443229 0.326284
0.677012 0.456809 0.334234
0.756039 0.474205 0.34522
0.81973 0.494438 0.362387
0.871687 0.51606 0.382376
0.151949 0.572503 0.375708
0.258732 0.566995 0.367971
0.36672 0.564157 0.364446
0.480964 0.564538 0.360525
0.590051 0.56791 0.362707
0.682872 0.57377 0.368963
0.756466 0.583154 0.375753
0.814298 0.593835 0.388113
0.862257 0.607782 0.404868
0.247272 0.671626 0.4056
0.332799 0.668925 0.402121
0.418433 0.665858 0.398703
0.515404 0.663828 0.397192
0.610391 0.665492 0.398322
0.691508 0.667323 0.401266
0.757763 0.671504 0.409918
0.81091 0.677729 0.419577
0.856977 0.685283 0.434058
0.332799 0.745007 0.435691
0.400076 0.742885 0.432212
0.470695 0.741207 0.432212
0.552285 0.739452 0.430945
0.634165 0.738186 0.432944
0.703471 0.739101 0.436347
0.762905 0.741421 0.443442
0.812802 0.74519 0.453193
0.855619 0.750103 0.463783
0.413291 0.799878 0.463935
0.467048 0.798856 0.462318
0.523445 0.796811 0.464973
0.590692 0.796155 0.466667
0.657725 0.795377 0.468177
0.718791 0.794827 0.47332
0.771817 0.796368 0.479301
0.818189 0.797879 0.487877
0.856962 0.800793 0.497292
0.488426 0.843473 0.497856
0.531075 0.842908 0.499947
0.577523 0.842115 0.502419
0.632395 0.840726 0.504692
0.686488 0.840314 0.508247
0.737606 0.841306 0.511376
0.784222 0.842008 0.517037
0.825467 0.842161 0.523079
0.862242 0.843549 0.531823
0.00120546 0.0140078 0.186084
0.115023 0.0235904 0.238621
0.285237 0.0369268 0.282017
0.480842 0.0608377 0.327413
0.631067 0.0883192 0.354086
0.734234 0.129213 0.379049
0.813077 0.173358 0.40621
0.872679 0.224445 0.43418
0.922469 0.277989 0.457557
0.00148013 0.173419 0.407477
0.116579 0.169299 0.390127
0.285313 0.174899 0.383932
0.450843 0.189853 0.383322
0.597482 0.214466 0.392218
0.707027 0.246159 0.405539
0.7888 0.281529 0.423835
0.85275 0.321538 0.442969
0.903288 0.360876 0.464851
0.00682078 0.324849 0.45745
0.131579 0.31783 0.4374
0.285695 0.316747 0.425101
0.444419 0.322774 0.419333
0.584619 0.337789 0.422766
0.693019 0.358083 0.429252
0.773342 0.383078 0.442359
0.837797 0.410452 0.45742
0.888487 0.440589 0.473579
0.0477913 0.468833 0.487404
0.176425 0.460655 0.472297
0.31397 0.458427 0.463172
0.458 0.458 0.458
0.586252 0.464714 0.454582
0.686656 0.477012 0.458991
0.765072 0.492729 0.465492
0.825772 0.509499 0.474632
0.875853 0.52961 0.485725
0.130785 0.588556 0.511498
0.243198 0.583978 0.501808
0.357443 0.58117 0.493385
0.479423 0.580423 0.487053
0.594568 0.582132 0.484504
0.685863 0.586511 0.483253
0.760235 0.594125 0.48896
0.818708 0.603998 0.494911
0.866072 0.617243 0.50695
0.222324 0.679881 0.531853
0.315312 0.676829 0.523262
0.405798 0.67483 0.519493
0.510521 0.673548 0.513771
0.610025 0.674083 0.511208
0.693355 0.67512 0.512596
0.760174 0.679377 0.514992
0.814786 0.684794 0.521248
0.860288 0.691234 0.529564
0.312184 0.749187 0.548074
0.38584 0.747265 0.544762
0.459937 0.745541 0.540963
0.546578 0.743557 0.537987
0.630121 0.743893 0.538216
0.703334 0.744183 0.539437
0.764706 0.746151 0.541787
0.815961 0.749371 0.546487
0.858015 0.753521 0.553552
0.396338 0.802548 0.566506
0.453803 0.80145 0.565713
0.5149 0.799756 0.564813
0.58584 0.798993 0.564019
0.655436 0.798337 0.564019
0.719249 0.798047 0.567117
0.772549 0.799939 0.568307
0.819516 0.801862 0.574166
0.860349 0.804349 0.580545
0.474556 0.845838 0.589303
0.519982 0.844694 0.589532
0.568597 0.843626 0.589502
0.625406 0.843503 0.591714
0.683986 0.843595 0.593271
0.737194 0.843412 0.594491
0.784115 0.844038 0.597848
0.825498 0.844678 0.599619
0.862486 0.845335 0.605219
0.00274662 0.026215 0.305241
0.137392 0.0408942 0.365637
0.323613 0.0591592 0.420996
0.515114 0.0830549 0.460426
0.654017 0.115221 0.478645
0.752239 0.156786 0.499886
0.825711 0.202045 0.522484
0.883848 0.251759 0.542992
0.929519 0.301335 0.560159
0.00323491 0.209293 0.548501
0.113024 0.206378 0.528923
0.294652 0.210925 0.520272
0.469902 0.224186 0.51487
0.616129 0.247684 0.517891
0.723201 0.277089 0.528054
0.801541 0.310155 0.539834
0.861494 0.345769 0.55288
0.909392 0.38146 0.565866
0.00512703 0.359304 0.58822
0.121416 0.351232 0.570153
0.289631 0.350164 0.558999
0.456291 0.355291 0.54931
0.598032 0.36878 0.546151
0.705257 0.385168 0.54992
0.783276 0.407782 0.555093
0.844968 0.432013 0.563134
0.894255 0.457816 0.573556
0.0311589 0.495186 0.611429
0.159792 0.487495 0.597955
0.308812 0.484504 0.587716
0.458351 0.484321 0.57821
0.589914 0.489784 0.572473
0.693172 0.49781 0.570947
0.770657 0.510109 0.572747
0.831525 0.526879 0.577676
0.881086 0.544396 0.58468
0.101762 0.605631 0.624842
0.219501 0.60061 0.613657
0.345617 0.598108 0.606149
0.474281 0.596124 0.599039
0.595773 0.595773 0.595773
0.689326 0.601328 0.592767
0.763577 0.607935 0.592203
0.821866 0.617502 0.594583
0.870069 0.628321 0.601785
0.191165 0.689433 0.635355
0.292302 0.687602 0.629541
0.392233 0.684428 0.623346
0.500648 0.683375 0.616663
0.606394 0.682994 0.61326
0.693339 0.684062 0.611261
0.762066 0.687953 0.611551
0.816907 0.692622 0.614282
0.86276 0.699611 0.61857
0.28333 0.755962 0.64509
0.362493 0.754116 0.641184
0.445212 0.751644 0.637186
0.536126 0.75053 0.634226
0.626368 0.749523 0.631617
0.701625 0.750515 0.631418
0.765576 0.75227 0.631083
0.816571 0.755734 0.632761
0.860059 0.760174 0.637125
0.373358 0.806622 0.656428
0.435904 0.805264 0.654536
0.500465 0.804349 0.652567
0.576059 0.803098 0.653025
0.652735 0.801556 0.652155
0.717647 0.802319 0.650797
0.774334 0.804013 0.653071
0.820325 0.805798 0.653971
0.861006 0.808667 0.657206
0.456016 0.84509 0.667643
0.504555 0.844511 0.668116
0.55523 0.844251 0.667842
0.615961 0.844038 0.668498
0.67776 0.843976 0.668513
0.733516 0.844617 0.667872
0.78262 0.844831 0.668956
0.823545 0.844892 0.669367
0.860945 0.84596 0.671946
0.00714122 0.0480354 0.438315
0.162814 0.0655222 0.503868
0.36054 0.0852522 0.55938
0.539132 0.112627 0.578332
0.672297 0.149111 0.59234
0.768048 0.187503 0.608911
0.838697 0.233127 0.622263
0.891096 0.281926 0.634134
0.934859 0.326131 0.646052
0.00340276 0.247929 0.664805
0.11043 0.244892 0.647135
0.302892 0.250507 0.633539
0.485206 0.263294 0.62739
0.631846 0.282948 0.628748
0.734462 0.309621 0.631693
0.810483 0.339208 0.636637
0.868498 0.369772 0.642985
0.916381 0.401755 0.650675
0.00836194 0.394003 0.6916
0.106401 0.384527 0.676066
0.286595 0.383917 0.66421
0.461341 0.388785 0.653361
0.606958 0.397559 0.649134
0.713924 0.412924 0.648371
0.790051 0.430747 0.649607
0.850874 0.452613 0.652384
0.89987 0.477058 0.657282
0.0203861 0.519722 0.703944
0.136141 0.51281 0.691829
0.294011 0.509285 0.680812
0.45272 0.508141 0.673548
0.59292 0.511604 0.66482
0.697002 0.519951 0.663813
0.775387 0.530526 0.66183
0.83415 0.545296 0.663066
0.884108 0.5617 0.667933
0.0678264 0.622049 0.710811
0.190784 0.6168 0.70135
0.325536 0.613458 0.693843
0.465904 0.612467 0.687984
0.592798 0.613428 0.683116
0.689982 0.616556 0.677455
0.765576 0.622049 0.676661
0.823377 0.631296 0.676936
0.872282 0.641459 0.67953
0.153857 0.700465 0.71548
0.260609 0.697078 0.709819
0.371496 0.695109 0.704631
0.489845 0.693233 0.699245
0.601404 0.692668 0.694194
0.693736 0.693736 0.693736
0.763668 0.698512 0.690623
0.818173 0.702739 0.689799
0.86566 0.708995 0.691569
0.247456 0.761227 0.721981
0.33521 0.760037 0.717342
0.423941 0.757702 0.71397
0.523751 0.757137 0.709789
0.620111 0.75613 0.707485
0.699962 0.757122 0.705425
0.764858 0.759655 0.704189
0.819104 0.762402 0.707408
0.862303 0.767254 0.708812
0.344244 0.810239 0.72726
0.412314 0.809064 0.725216
0.482109 0.808316 0.722652
0.564843 0.805905 0.722087
0.645075 0.807446 0.720073
0.714336 0.807782 0.719951
0.771695 0.80885 0.718929
0.819684 0.810697 0.718379
0.8607 0.812451 0.719768
0.427787 0.844022 0.728206
0.479973 0.844251 0.728557
0.534844 0.844312 0.727642
0.600793 0.844251 0.727413
0.666362 0.843763 0.728527
0.724666 0.844312 0.728206
0.775708 0.845289 0.72694
0.820951 0.844663 0.726665
0.858091 0.845136 0.725887
0.0144808 0.0765393 0.576333
0.187076 0.096376 0.634806
0.388113 0.120546 0.672541
0.560662 0.148592 0.674449
0.689311 0.182162 0.682704
0.777966 0.223819 0.691112
0.84361 0.268132 0.699413
0.898131 0.309468 0.706996
0.940352 0.352178 0.714336
0.00399786 0.287556 0.748012
0.105119 0.284901 0.732891
0.309392 0.287846 0.72079
0.49453 0.300633 0.712734
0.641993 0.317418 0.709987
0.743297 0.339849 0.710246
0.816556 0.366445 0.711604
0.872526 0.396551 0.714595
0.920836 0.425818 0.71928
0.0111391 0.424125 0.765805
0.0906081 0.415991 0.754284
0.277867 0.414496 0.741299
0.462196 0.416556 0.732784
0.611948 0.427131 0.725673
0.718349 0.438987 0.722545
0.796307 0.455772 0.721508
0.854276 0.476066 0.721904
0.902525 0.497765 0.725643
0.0216068 0.542412 0.773739
0.110048 0.534508 0.762829
0.276524 0.53167 0.753155
0.44686 0.53109 0.744808
0.592874 0.533623 0.738643
0.70016 0.541512 0.733989
0.779293 0.549828 0.731823
0.839017 0.56257 0.732341
0.885985 0.579461 0.733166
0.044007 0.636942 0.776471
0.15938 0.63209 0.769162
0.301396 0.629602 0.761654
0.453117 0.628275 0.755962
0.586374 0.629999 0.749157
0.689189 0.632609 0.745281
0.766751 0.637613 0.742977
0.82652 0.645014 0.741283
0.874769 0.653819 0.74226
0.116747 0.710597 0.778744
0.22536 0.706905 0.774289
0.3458 0.705852 0.76849
0.474342 0.703456 0.763439
0.59379 0.703807 0.758938
0.690761 0.705226 0.757427
0.762631 0.708675 0.75346
0.819593 0.712795 0.751781
0.867323 0.718837 0.752651
0.206531 0.769238 0.78204
0.29929 0.767498 0.778393
0.399466 0.765087 0.7738
0.506966 0.764065 0.771466
0.609506 0.764294 0.767361
0.695964 0.764706 0.765927
0.765637 0.765637 0.765637
0.818372 0.770184 0.76379
0.862959 0.773693 0.762829
0.304982 0.811887 0.781811
0.379416 0.810697 0.779232
0.456825 0.809873 0.776349
0.546746 0.809598 0.775784
0.632227 0.810224 0.772686
0.706447 0.809903 0.773083
0.766384 0.811246 0.771893
0.816373 0.812665 0.770352
0.857328 0.813916 0.767895
0.391226 0.841947 0.776883
0.449027 0.841825 0.776181
0.50753 0.841901 0.77554
0.57882 0.842008 0.77528
0.651499 0.842191 0.77499
0.713237 0.843244 0.774395
0.768597 0.842725 0.773251
0.813474 0.843168 0.772549
0.852781 0.844694 0.771084
0.0229496 0.114351 0.697063
0.209659 0.138705 0.743099
0.405844 0.159731 0.750011
0.576837 0.186572 0.749233
0.699001 0.221973 0.752346
0.785794 0.258503 0.756069
0.849683 0.300252 0.760311
0.901808 0.340414 0.766781
0.944366 0.378882 0.771954
0.00634775 0.322942 0.810391
0.102647 0.3205 0.796475
0.309117 0.32343 0.78648
0.501457 0.333883 0.777615
0.64802 0.350164 0.772885
0.748867 0.370077 0.77145
0.822873 0.394186 0.771939
0.878187 0.420844 0.774197
0.924102 0.449119 0.774914
0.0137789 0.451072 0.822416
0.0735332 0.444709 0.811917
0.267475 0.442969 0.801434
0.461006 0.445258 0.791669
0.614435 0.454017 0.78587
0.721599 0.465049 0.781765
0.80061 0.479957 0.779995
0.858106 0.499397 0.778454
0.90515 0.520211 0.781109
0.0228275 0.563821 0.827359
0.0865339 0.55697 0.819059
0.257313 0.554162 0.809522
0.437919 0.553201 0.802625
0.589868 0.555734 0.795331
0.701595 0.561151 0.791089
0.779843 0.570321 0.786969
0.840635 0.582345 0.786648
0.888563 0.595865 0.785992
0.037171 0.651057 0.829725
0.124407 0.646632 0.822904
0.275273 0.645167 0.815641
0.437537 0.64416 0.810605
0.580209 0.644404 0.804807
0.688594 0.647669 0.79971
0.767361 0.652415 0.795392
0.827695 0.65893 0.794553
0.87686 0.667369 0.793317
0.0841993 0.720409 0.831571
0.186984 0.717342 0.826917
0.315389 0.71577 0.821408
0.455161 0.713985 0.815198
0.585657 0.714366 0.809949
0.685206 0.71606 0.806912
0.76202 0.719936 0.804349
0.820798 0.723766 0.803311
0.867918 0.728954 0.801724
0.161257 0.773053 0.829221
0.260136 0.772335 0.826749
0.366461 0.77023 0.822019
0.483284 0.768978 0.81828
0.598184 0.769207 0.815869
0.689097 0.771008 0.812146
0.76051 0.772549 0.810544
0.815274 0.775174 0.808026
0.8598 0.777707 0.807233
0.253712 0.811414 0.82237
0.338079 0.810285 0.819699
0.423133 0.809415 0.81854
0.519463 0.809049 0.816388
0.614389 0.808927 0.813565
0.694087 0.809888 0.812863
0.758877 0.810788 0.81149
0.811444 0.811444 0.811444
0.851682 0.813535 0.808209
0.349279 0.839506 0.81387
0.410651 0.839323 0.812619
0.474464 0.839246 0.812451
0.550851 0.838956 0.811582
0.629267 0.839597 0.811093
0.699016 0.840696 0.810773
0.757061 0.841108 0.810193
0.804166 0.842466 0.808896
0.845304 0.84329 0.806638
0.0287022 0.164004 0.79762
0.227832 0.184863 0.81387
0.420356 0.202884 0.808454
0.587579 0.228153 0.806104
0.705715 0.260182 0.805158
0.791562 0.295079 0.808392
0.855848 0.332006 0.810925
0.906889 0.368704 0.815015
0.946593 0.405539 0.816571
0.00888075 0.356512 0.857527
0.100526 0.35404 0.846952
0.311269 0.357977 0.835569
0.506722 0.365743 0.828794
0.652537 0.381796 0.823438
0.754101 0.399451 0.821881
0.824994 0.422309 0.819944
0.881407 0.447639 0.821057
0.925429 0.475685 0.821683
0.0184939 0.477256 0.867124
0.0614481 0.471641 0.860792
0.254047 0.470741 0.848722
0.454719 0.473701 0.841199
0.613184 0.480476 0.834928
0.724605 0.490639 0.831296
0.802335 0.504417 0.827375
0.861158 0.522332 0.826139
0.907988 0.542199 0.825238
0.0274662 0.582681 0.872602
0.0578317 0.577295 0.865766
0.234455 0.573587 0.856077
0.426474 0.574212 0.849348
0.586175 0.576288 0.843992
0.700664 0.58175 0.838407
0.78175 0.590967 0.833494
0.842832 0.601617 0.830533
0.891249 0.615061 0.830839
0.0367437 0.665095 0.873808
0.0965744 0.661814 0.867063
0.246708 0.659205 0.860365
0.420615 0.658778 0.855634
0.572259 0.659251 0.848722
0.685924 0.661906 0.843778
0.768261 0.667338 0.840269
0.828458 0.673381 0.838422
0.878279 0.680522 0.835874
0.0510719 0.728557 0.872267
0.14522 0.725978 0.867063
0.280827 0.72462 0.864225
0.433509 0.724224 0.858763
0.571176 0.723964 0.853697
0.679408 0.72668 0.848142
0.758404 0.728603 0.8448
0.818067 0.731487 0.842054
0.865171 0.735134 0.839048
0.117144 0.773754 0.866773
0.211124 0.772641 0.863386
0.326482 0.771878 0.858763
0.456199 0.771221 0.856062
0.577737 0.771954 0.851682
0.675486 0.773388 0.848524
0.75111 0.774792 0.845228
0.808637 0.776989 0.84361
0.854841 0.779049 0.839796
0.201846 0.809308 0.857282
0.290959 0.80763 0.854627
0.382712 0.806516 0.852232
0.487755 0.806027 0.850004
0.590692 0.806958 0.846754
0.675776 0.809476 0.846113
0.745937 0.809903 0.843549
0.800504 0.810971 0.841596
0.844755 0.812833 0.839017
0.302129 0.83653 0.846494
0.369421 0.835996 0.845029
0.438636 0.835447 0.843595
0.521096 0.83595 0.842634
0.606668 0.83653 0.841566
0.682261 0.83827 0.841764
0.743999 0.839231 0.840574
0.795941 0.839567 0.838987
0.839673 0.839673 0.839673
