assets/luts/CN.cube
TITLE "Generated by Resolve"
LUT_3D_SIZE 65
0 0 0
0.0225071 0.00244144 0.00030518
0.0323644 0.00434882 0.00077821
0.0387274 0.00518807 0.000686656
0.0451667 0.00444038 0.000823987
0.052369 0.00511177 0.000869764
0.0605478 0.00653086 0.000579843
0.0673838 0.00708019 0.000335698
0.0746319 0.00737011 0.000183108
0.0828412 0.0083772 0.000106813
0.0911421 0.00950637 4.57771e-05
0.0983444 0.0106203 0
0.106828 0.0122072 0
0.115328 0.0135958 9.15541e-05
0.125551 0.0149386 0.000381476
0.135943 0.0166171 0.000457771
0.146426 0.0184024 0.000503548
0.157397 0.0207675 0.000717174
0.170535 0.0218509 0.000320439
0.184009 0.0231785 0.00015259
0.19852 0.0247654 0.000137331
0.212863 0.0268406 0.000350958
0.228809 0.0293431 0.00030518
0.246036 0.0319677 0.000167849
0.263218 0.0346532 0.000137331
0.284794 0.0372625 3.0518e-05
0.306447 0.0404517 0.000137331
0.330739 0.0434882 0.00015259
0.357015 0.0464179 9.15541e-05
0.382773 0.0493629 0
0.411643 0.0534981 0
0.440665 0.0574807 0
0.469154 0.0614328 0
0.497261 0.0662852 4.57771e-05
0.523278 0.0703136 6.10361e-05
0.547295 0.0740978 7.62951e-05
0.570718 0.0784009 6.10361e-05
0.593591 0.0827344 3.0518e-05
0.615763 0.0870069 0
0.635599 0.0916762 1.5259e-05
0.654047 0.0957961 1.5259e-05
0.671824 0.0998245 4.57771e-05
0.689036 0.103883 6.10361e-05
0.704509 0.108278 1.5259e-05
0.719921 0.112428 0
0.735286 0.116228 0
0.749157 0.120058 0
0.76109 0.123949 1.5259e-05
0.772946 0.128069 1.5259e-05
0.784665 0.132235 4.57771e-05
0.794949 0.136263 4.57771e-05
0.803693 0.140169 1.5259e-05
0.812345 0.143801 0
0.820966 0.147295 1.5259e-05
0.829145 0.150805 3.0518e-05
0.835874 0.154711 3.0518e-05
0.842496 0.158572 1.5259e-05
0.849271 0.162371 1.5259e-05
0.856107 0.166079 0
0.861509 0.169635 0
0.866438 0.173159 0
0.871427 0.176669 1.5259e-05
0.876539 0.180148 1.5259e-05
0.881575 0.183612 1.5259e-05
0.885908 0.187579 0.00134279
0.00175479 0.0298009 0.0106203
0.0292515 0.0317235 0.00749218
0.0384985 0.0350195 0.00584421
0.0462654 0.0359503 0.00521859
0.0527504 0.0372473 0.00401312
0.0592966 0.0380713 0.002533
0.0668803 0.0375067 0.00138857
0.0758068 0.0391089 0.00122072
0.0844282 0.0405585 0.00129702
0.0917067 0.0411688 0.000732433
0.0987259 0.0420539 0.000289921
0.107866 0.0436408 0.000442512
0.116808 0.0452583 0.000518807
0.126192 0.0466926 0.000518807
0.13518 0.0483558 0.000854505
0.145892 0.0501564 0.000350958
0.156893 0.0516823 0.000244144
0.170748 0.0534066 0.000457771
0.18407 0.055314 0.000549325
0.198337 0.0569619 0.000366217
0.213352 0.0588083 0.000137331
0.228305 0.0608682 0.000335698
0.245792 0.0631113 0.000228885
0.263905 0.0657816 7.62951e-05
0.285084 0.0684672 0.000137331
0.306767 0.0711986 0.00030518
0.328176 0.0740368 0.000442512
0.350439 0.0777295 0.000289921
0.372198 0.0814069 0.000137331
0.393896 0.0852216 0.000167849
0.415869 0.0893111 0.000518807
0.43743 0.0933242 0.000839246
0.460822 0.0966201 0.000869764
0.486122 0.0998703 0.000610361
0.511025 0.102968 0.000335698
0.534936 0.10631 0.000137331
0.557504 0.110323 9.15541e-05
0.579644 0.114321 3.0518e-05
0.60148 0.118425 3.0518e-05
0.621958 0.121706 0
0.642557 0.125109 0
0.663188 0.12871 0
0.681376 0.132631 0
0.697124 0.136919 0
0.712612 0.141161 0
0.72781 0.145342 4.57771e-05
0.74139 0.148638 1.5259e-05
0.754513 0.151598 4.57771e-05
0.767254 0.154559 6.10361e-05
0.779782 0.157504 7.62951e-05
0.789746 0.160662 0.000122072
0.798917 0.16405 0.000137331
0.807996 0.167758 0.000122072
0.816938 0.171466 9.15541e-05
0.824964 0.174792 6.10361e-05
0.832258 0.177829 4.57771e-05
0.839429 0.18085 1.5259e-05
0.846494 0.183856 0
0.853666 0.187503 1.5259e-05
0.85919 0.191104 0.000503548
0.864637 0.19469 0.000991836
0.869978 0.198276 0.00143435
0.875196 0.201892 0.00180056
0.880278 0.205646 0.00294499
0.884871 0.209781 0.00563058
0.00480659 0.0429847 0.016022
0.0284733 0.046067 0.0108949
0.0391852 0.0468452 0.00918593
0.0481422 0.0476692 0.00839246
0.0563363 0.0484627 0.00764477
0.0629892 0.0493477 0.00637827
0.0694133 0.0502632 0.00514229
0.0772869 0.0517128 0.00538643
0.0859083 0.0526284 0.00517281
0.0943923 0.0537423 0.00392157
0.10222 0.0546273 0.00276188
0.110414 0.0555581 0.0015259
0.119158 0.0565499 0.000793469
0.128939 0.0578164 0.000747692
0.138994 0.0591592 0.000717174
0.149538 0.0608682 0.000198367
0.160678 0.0626841 0.000274662
0.174228 0.0639506 0.000411994
0.18703 0.0655833 0.000549325
0.202289 0.0681468 0.000335698
0.217929 0.0709544 0.000106813
0.233661 0.0731365 0
0.250217 0.0748913 0
0.266072 0.0766766 0
0.285008 0.0791333 9.15541e-05
0.30518 0.0818036 0.000228885
0.326284 0.0847944 0.000320439
0.348653 0.0884871 0.000259403
0.370687 0.0913558 0.00015259
0.392599 0.0947433 0.000137331
0.414282 0.0987716 0.000320439
0.435523 0.10277 0.00047303
0.45922 0.106264 0.000534066
0.484504 0.109361 0.000503548
0.509453 0.112383 0.00047303
0.533364 0.115938 0.000350958
0.555764 0.119661 0.000228885
0.577722 0.123354 0.000106813
0.599283 0.12697 0
0.620508 0.130129 0
0.641352 0.133288 0
0.661631 0.136538 0
0.679194 0.140429 0
0.695064 0.144656 0
0.710582 0.14873 6.10361e-05
0.725811 0.152728 0.000137331
0.739071 0.155764 4.57771e-05
0.752178 0.158572 3.0518e-05
0.76527 0.161334 7.62951e-05
0.778515 0.164828 0.000106813
0.788479 0.168215 9.15541e-05
0.797864 0.171603 6.10361e-05
0.806958 0.175143 3.0518e-05
0.815961 0.178714 3.0518e-05
0.823926 0.181872 1.5259e-05
0.831296 0.184939 0
0.838712 0.188449 0
0.846036 0.191943 0
0.853071 0.195422 6.10361e-05
0.858595 0.198856 0.000549325
0.864057 0.202258 0.00103761
0.869429 0.205661 0.00151064
0.874754 0.209369 0.00276188
0.87982 0.213474 0.00505074
0.88423 0.217823 0.00776684
0.00520333 0.052018 0.0196384
0.0307469 0.0548104 0.0141451
0.0407263 0.0560464 0.0125734
0.0500343 0.0569924 0.0116121
0.0577859 0.0577401 0.010605
0.0647746 0.0583352 0.0096437
0.0722667 0.0592203 0.00883497
0.0792706 0.0606241 0.00917067
0.0869154 0.0615549 0.00796521
0.0951705 0.0627298 0.00657664
0.103685 0.0642863 0.00556954
0.111727 0.0649119 0.00457771
0.1205 0.0657206 0.00291447
0.129702 0.0668956 0.00146487
0.140063 0.0680095 0.0011902
0.151019 0.0691997 0.000549325
0.162173 0.0714733 0.000595102
0.175647 0.0725872 0.000579843
0.188937 0.0737774 0.000549325
0.204715 0.0763409 0.000610361
0.220188 0.0790112 0.000350958
0.236194 0.0812695 0.000167849
0.252491 0.0832227 3.0518e-05
0.268696 0.0849317 0
0.287724 0.0869764 9.15541e-05
0.305394 0.0899977 0.000198367
0.324712 0.0927901 0.000228885
0.346609 0.0959793 0.000198367
0.368307 0.0984512 9.15541e-05
0.390433 0.10193 4.57771e-05
0.412558 0.105913 3.0518e-05
0.43415 0.10988 3.0518e-05
0.458274 0.113115 9.15541e-05
0.482826 0.116182 0.000167849
0.50692 0.119219 0.000259403
0.530617 0.122835 0.000244144
0.553811 0.126711 0.000183108
0.576196 0.130419 9.15541e-05
0.597742 0.133867 0
0.618936 0.136889 0
0.639231 0.13991 0
0.659083 0.142977 0
0.676616 0.146746 0
0.693049 0.150622 4.57771e-05
0.709163 0.154421 0.000137331
0.724392 0.158297 0.000213626
0.737545 0.161212 0.000106813
0.750759 0.164721 0
0.764248 0.168139 4.57771e-05
0.777523 0.171527 9.15541e-05
0.787213 0.174762 6.10361e-05
0.796628 0.177981 3.0518e-05
0.805905 0.181216 0
0.81532 0.184527 0
0.823468 0.188006 0
0.830961 0.191409 0
0.838392 0.194766 0
0.845655 0.198138 1.5259e-05
0.852537 0.201495 0.000122072
0.858045 0.204807 0.00062562
0.863478 0.208194 0.0011902
0.86891 0.211872 0.00213626
0.874281 0.215778 0.00424201
0.879301 0.219776 0.00654612
0.883711 0.224002 0.00924697
0.00526436 0.0623178 0.0234836
0.0332189 0.0642557 0.0181125
0.0422522 0.0659648 0.0157778
0.0506447 0.0669261 0.0149691
0.0575113 0.0675822 0.0146334
0.0645151 0.0682231 0.0139162
0.0724804 0.0691691 0.0129549
0.0802472 0.0700999 0.0124666
0.0879683 0.0707408 0.0106813
0.0960555 0.0717784 0.00939956
0.10457 0.0731823 0.00833143
0.112917 0.0730297 0.00700389
0.12256 0.0743572 0.00555428
0.13164 0.075639 0.00418097
0.141482 0.0768902 0.00285344
0.15201 0.0780957 0.00209049
0.164187 0.0797436 0.0015259
0.177935 0.0807355 0.000366217
0.19176 0.0820935 0.000167849
0.20734 0.084535 0.000259403
0.222309 0.0870832 0.00062562
0.237247 0.0891127 0.000335698
0.252583 0.0910048 0.000137331
0.268452 0.0932174 0
0.286168 0.0960708 0
0.303471 0.0988785 9.15541e-05
0.323568 0.101228 0.000106813
0.345113 0.103349 6.10361e-05
0.365896 0.105943 1.5259e-05
0.388464 0.109438 0
0.411139 0.113039 0
0.433341 0.116701 0
0.456626 0.120012 3.0518e-05
0.479698 0.123323 6.10361e-05
0.503716 0.126223 0.000137331
0.527428 0.129824 0.000122072
0.550683 0.133669 4.57771e-05
0.573693 0.137057 7.62951e-05
0.595651 0.140398 6.10361e-05
0.616083 0.143694 0
0.636378 0.146593 0
0.656321 0.149477 0
0.673564 0.153063 6.10361e-05
0.690013 0.156756 0.000137331
0.7066 0.160632 0.00015259
0.723079 0.164614 0.000122072
0.736706 0.168215 0.000106813
0.750042 0.171771 4.57771e-05
0.763287 0.175067 3.0518e-05
0.776379 0.178317 6.10361e-05
0.785946 0.181384 3.0518e-05
0.79556 0.184436 0
0.805676 0.187594 1.5259e-05
0.815641 0.190753 3.0518e-05
0.823468 0.194049 1.5259e-05
0.830671 0.197391 0
0.837903 0.20087 3.0518e-05
0.845121 0.20441 9.15541e-05
0.851881 0.207782 0.000259403
0.857466 0.211322 0.00105287
0.862974 0.214862 0.00183108
0.868421 0.218585 0.00370794
0.873808 0.222354 0.00579843
0.878767 0.226246 0.0081178
0.883207 0.230335 0.0107729
0.00526436 0.073228 0.0273747
0.0367285 0.0742504 0.0227665
0.0454108 0.076112 0.0201724
0.0524453 0.0771649 0.0189364
0.0591287 0.0776074 0.0187228
0.0666361 0.0784466 0.0171969
0.0745556 0.0793469 0.0159457
0.0820172 0.0795911 0.0152895
0.0892348 0.0796063 0.0144961
0.0973526 0.0804761 0.0128481
0.105776 0.0813001 0.0107729
0.114519 0.0818647 0.00941482
0.124361 0.0836042 0.00828565
0.133822 0.0852674 0.00724804
0.143832 0.086183 0.00579843
0.153704 0.087129 0.0043946
0.166155 0.0884871 0.00360113
0.179553 0.0896773 0.00300603
0.193118 0.0911421 0.00196841
0.206943 0.0932326 0.0011902
0.221424 0.0956436 0.00157168
0.235981 0.0972 0.00015259
0.250675 0.0997024 0.000106813
0.267033 0.102022 0
0.284642 0.104799 0
0.302251 0.106935 0
0.322438 0.109438 0
0.343664 0.111681 0
0.364294 0.114199 0
0.3879 0.116991 0
0.411078 0.120058 0
0.433204 0.123751 0
0.456886 0.126574 3.0518e-05
0.479744 0.129961 6.10361e-05
0.502022 0.133654 7.62951e-05
0.525277 0.136629 0.000167849
0.548775 0.140002 0.000213626
0.571817 0.143328 0.000244144
0.593515 0.146532 0.000228885
0.613931 0.149706 0.00015259
0.633967 0.152865 9.15541e-05
0.65391 0.156329 1.5259e-05
0.671565 0.159991 0
0.688762 0.163821 0
0.705684 0.16762 0
0.721874 0.171344 0
0.7355 0.174746 0
0.748913 0.178149 0
0.762097 0.181521 0
0.774975 0.184894 4.57771e-05
0.785351 0.187991 0
0.795605 0.191028 1.5259e-05
0.805707 0.194049 1.5259e-05
0.815656 0.19707 3.0518e-05
0.823255 0.200275 3.0518e-05
0.830457 0.203494 1.5259e-05
0.837568 0.206806 4.57771e-05
0.8448 0.210788 0.000366217
0.851438 0.214618 0.000854505
0.857008 0.218189 0.00166323
0.862501 0.221897 0.00331121
0.867933 0.22565 0.00540169
0.87332 0.229282 0.0074464
0.878233 0.233066 0.00978103
0.882841 0.236988 0.0127108
0.00762951 0.082887 0.0301213
0.0386664 0.0835737 0.026276
0.0483711 0.0849317 0.0248417
0.054963 0.0859083 0.0235599
0.0616007 0.0865644 0.0218357
0.0690166 0.0874952 0.0198672
0.0770886 0.0884871 0.018616
0.0838178 0.0889143 0.0177157
0.0902724 0.089128 0.0169985
0.0991073 0.0894636 0.0157321
0.107439 0.0903334 0.0138094
0.11606 0.0915541 0.0123445
0.125124 0.0929885 0.0110475
0.135409 0.0942702 0.00999466
0.146609 0.0950637 0.00900282
0.156786 0.0960708 0.0078584
0.168978 0.0975204 0.00724804
0.181247 0.0990768 0.00660716
0.194873 0.100526 0.00523384
0.207843 0.10222 0.00370794
0.221363 0.103899 0.0021973
0.236149 0.105318 0.000808728
0.250965 0.107698 0.0009308
0.267521 0.110216 0.000488289
0.284794 0.112749 0
0.30222 0.114916 0
0.322698 0.117525 0
0.342779 0.12015 0
0.363409 0.122728 0
0.386999 0.125643 0
0.410208 0.128527 0
0.433127 0.131502 0
0.456474 0.13492 0
0.479118 0.138369 1.5259e-05
0.501305 0.141833 3.0518e-05
0.524697 0.144457 0.00015259
0.547707 0.147082 0.000259403
0.570336 0.149874 0.000381476
0.591943 0.153353 0.000335698
0.612726 0.156893 0.000228885
0.633219 0.160525 0.000106813
0.653223 0.164141 0
0.670756 0.167559 0
0.687984 0.170947 0
0.704936 0.17435 0
0.72079 0.17789 0
0.734478 0.181262 0
0.747997 0.184695 0
0.761303 0.188128 0
0.773831 0.19144 0
0.784604 0.194507 1.5259e-05
0.795193 0.197589 1.5259e-05
0.805631 0.200656 3.0518e-05
0.815747 0.203632 4.57771e-05
0.823102 0.207019 0.000167849
0.83032 0.210666 0.000411994
0.837446 0.214298 0.000656138
0.844526 0.21799 0.000915541
0.851041 0.221653 0.00143435
0.856611 0.225208 0.00291447
0.862119 0.22887 0.0049897
0.867552 0.232532 0.00706493
0.872923 0.236469 0.00955215
0.878019 0.240299 0.0125277
0.882872 0.2439 0.01561
0.00828565 0.0927749 0.0347753
0.0403601 0.0937972 0.0289616
0.0489204 0.0948348 0.0282139
0.0551308 0.095613 0.027039
0.0626078 0.0961624 0.0251774
0.070222 0.0968032 0.02327
0.0772564 0.0978256 0.0219883
0.0839094 0.09897 0.0207523
0.091371 0.0994888 0.0196689
0.100587 0.0996719 0.0184482
0.109743 0.0999313 0.0172427
0.118135 0.101289 0.0158846
0.126467 0.102708 0.014435
0.136904 0.103639 0.0129244
0.147799 0.104402 0.0119326
0.158785 0.105074 0.010956
0.170321 0.106142 0.0100862
0.182025 0.107576 0.00923171
0.19498 0.109148 0.00746166
0.207965 0.110826 0.00611887
0.22211 0.112367 0.00462348
0.237308 0.113863 0.0031281
0.251957 0.115877 0.00248722
0.26894 0.118288 0.00181582
0.285603 0.12079 0.00123598
0.302922 0.123293 0.000534066
0.323507 0.125994 0.000350958
0.343648 0.128725 0.000686656
0.364446 0.131441 0.000534066
0.386557 0.134127 6.10361e-05
0.408927 0.136873 0
0.43183 0.139803 0
0.455009 0.143084 0
0.477928 0.146273 0
0.500725 0.149386 0
0.523903 0.152224 6.10361e-05
0.546624 0.155016 0.00015259
0.568948 0.157824 0.000228885
0.590723 0.161334 0.000198367
0.612055 0.165042 0.00015259
0.632898 0.168688 9.15541e-05
0.652537 0.172137 0
0.670039 0.175387 0
0.687236 0.178653 0
0.704143 0.181918 0
0.719799 0.185153 0
0.7337 0.188373 0
0.747311 0.191623 0
0.760693 0.19501 0
0.773068 0.198276 1.5259e-05
0.783749 0.201129 3.0518e-05
0.794369 0.204257 3.0518e-05
0.804944 0.207965 3.0518e-05
0.815152 0.211643 6.10361e-05
0.822705 0.215106 0.000518807
0.830152 0.218555 0.000961318
0.837369 0.222034 0.00128176
0.844373 0.225513 0.0015259
0.85066 0.229038 0.00267033
0.856229 0.232578 0.0047303
0.861769 0.23653 0.00741588
0.867216 0.240543 0.0101625
0.872602 0.244541 0.0129091
0.877668 0.248173 0.0158389
0.882536 0.251637 0.0188602
0.0103914 0.10399 0.0381018
0.0421759 0.103731 0.0321355
0.0504311 0.104753 0.0314794
0.0571145 0.105379 0.0305028
0.0643168 0.105928 0.0288243
0.0716411 0.1066 0.0268559
0.078584 0.107439 0.0256352
0.0851911 0.108537 0.0244602
0.0926375 0.109026 0.0229038
0.100999 0.109407 0.021149
0.109972 0.110216 0.0196841
0.1196 0.11078 0.0187381
0.128389 0.111894 0.0173648
0.138918 0.112642 0.0157321
0.148425 0.113436 0.014435
0.159411 0.113939 0.0134737
0.170459 0.1149 0.0125734
0.182101 0.11667 0.0117952
0.194888 0.118395 0.0104829
0.208072 0.120333 0.0099031
0.222431 0.122179 0.00883497
0.237095 0.123827 0.00756847
0.251896 0.125628 0.00642405
0.268879 0.127169 0.00459297
0.285496 0.129519 0.00424201
0.303853 0.132219 0.00343328
0.324529 0.13489 0.00251774
0.344823 0.13756 0.00164797
0.366079 0.140139 0.00112917
0.388037 0.142748 0.000396735
0.409216 0.145434 0.000427253
0.431006 0.148211 0.000167849
0.453849 0.151278 0
0.476509 0.154406 0
0.499397 0.157397 0
0.522637 0.160372 0
0.545541 0.163348 0
0.568017 0.16611 6.10361e-05
0.589471 0.16939 3.0518e-05
0.610758 0.173159 1.5259e-05
0.631693 0.177188 4.57771e-05
0.651499 0.180728 6.10361e-05
0.669429 0.183368 0
0.68661 0.186465 0
0.703487 0.189593 0
0.718776 0.192706 0
0.732662 0.195789 0
0.746487 0.199054 1.5259e-05
0.760204 0.202579 6.10361e-05
0.772549 0.206226 4.57771e-05
0.783261 0.209522 1.5259e-05
0.793973 0.213077 1.5259e-05
0.804547 0.216632 0
0.81442 0.220127 9.15541e-05
0.821973 0.223438 0.000549325
0.829419 0.226749 0.000991836
0.836774 0.23006 0.00143435
0.843992 0.233524 0.00302129
0.850278 0.237369 0.00564584
0.855985 0.24123 0.00830091
0.86154 0.24506 0.0109712
0.867018 0.24889 0.0136568
0.872419 0.252705 0.0163272
0.877455 0.256138 0.0192111
0.882353 0.259419 0.0221714
0.0120851 0.114229 0.0424201
0.0435035 0.114229 0.036286
0.053727 0.114458 0.0348211
0.0602121 0.115023 0.0337224
0.0666972 0.115633 0.0326238
0.0733043 0.116609 0.0305486
0.0800488 0.117449 0.0294652
0.0872206 0.118059 0.0284428
0.0945602 0.118578 0.0268864
0.102174 0.119524 0.024567
0.110918 0.120684 0.023621
0.120378 0.121233 0.0230411
0.130251 0.121721 0.0213474
0.140383 0.122499 0.0196536
0.14966 0.12343 0.0186007
0.160418 0.124605 0.0182498
0.171237 0.125628 0.0176547
0.183062 0.127337 0.0169375
0.195193 0.129076 0.0161593
0.208057 0.1308 0.0151827
0.222354 0.132509 0.0138399
0.236683 0.134264 0.0127565
0.252171 0.135927 0.0117189
0.269169 0.137469 0.0102693
0.285969 0.13901 0.00885023
0.305287 0.141543 0.00756847
0.325795 0.144335 0.00671397
0.345953 0.147082 0.00619516
0.367193 0.149477 0.00392157
0.388556 0.151827 0.00164797
0.409613 0.154376 0.00157168
0.431647 0.157061 0.00117494
0.453834 0.159808 0.00062562
0.475639 0.16257 0.000106813
0.49839 0.165438 0
0.521767 0.168536 6.10361e-05
0.544747 0.17171 0.000122072
0.567254 0.17496 0.000183108
0.588602 0.179019 0.000137331
0.609705 0.18294 0.00015259
0.630564 0.186801 0.000183108
0.649943 0.189975 0.000183108
0.667826 0.192462 0.000122072
0.685405 0.194965 6.10361e-05
0.702739 0.197482 1.5259e-05
0.718074 0.200763 3.0518e-05
0.732174 0.20444 9.15541e-05
0.746044 0.208133 0.000167849
0.759701 0.21181 0.000228885
0.771771 0.21529 0.000198367
0.782818 0.218631 0.000122072
0.793713 0.221988 4.57771e-05
0.80441 0.225345 0
0.813977 0.228656 0.000137331
0.8215 0.231922 0.000946059
0.82887 0.235294 0.00222782
0.836179 0.238727 0.00442512
0.843412 0.242191 0.00695811
0.849546 0.245914 0.00950637
0.855238 0.249744 0.0120699
0.861097 0.253437 0.0146181
0.866911 0.25713 0.0171664
0.872465 0.260807 0.0197452
0.877379 0.264256 0.0226596
0.881971 0.268086 0.0256809
0.0143282 0.125093 0.0474403
0.0442817 0.126024 0.0406043
0.053727 0.125582 0.0387274
0.0597238 0.126192 0.0377203
0.0670481 0.127184 0.0363012
0.0748913 0.128283 0.0349279
0.0814984 0.12903 0.0338598
0.089189 0.12932 0.0328069
0.0965591 0.129717 0.0315099
0.104433 0.130495 0.0302434
0.112749 0.131258 0.0297704
0.121752 0.131823 0.0287175
0.131579 0.132296 0.0261997
0.141299 0.13283 0.0238346
0.151156 0.133745 0.0233005
0.161746 0.134829 0.0228428
0.172381 0.136019 0.0222934
0.184222 0.137728 0.0214389
0.195972 0.139437 0.0206455
0.209369 0.140871 0.0196231
0.223804 0.142458 0.0183566
0.238025 0.144091 0.0171359
0.254093 0.145602 0.0160372
0.271077 0.147189 0.0147402
0.287678 0.148623 0.0132906
0.307744 0.151446 0.0121004
0.327245 0.15404 0.0110475
0.346593 0.156435 0.0102846
0.368002 0.158587 0.0074464
0.388983 0.16083 0.00476081
0.4094 0.163806 0.0031281
0.43238 0.166354 0.00192264
0.454536 0.1691 0.00163272
0.476158 0.172152 0.00184634
0.498924 0.174929 0.000534066
0.522393 0.178241 0.000213626
0.545296 0.181308 0.000244144
0.567544 0.184604 0.000274662
0.588785 0.18851 0.000228885
0.609598 0.192401 0.000213626
0.629709 0.196201 0.000259403
0.648692 0.199268 0.000244144
0.666941 0.201892 0.000167849
0.684901 0.204547 9.15541e-05
0.702541 0.207309 0.000411994
0.717601 0.210681 0.000122072
0.732006 0.214237 0.000244144
0.74609 0.217807 0.000350958
0.759716 0.221347 0.000411994
0.77145 0.224613 0.000366217
0.782467 0.227817 0.000274662
0.793347 0.23125 0.000854505
0.804074 0.23476 0.00170901
0.813352 0.238087 0.00265507
0.820874 0.241169 0.00370794
0.828321 0.244373 0.00605783
0.835645 0.247684 0.00852979
0.842863 0.250996 0.011017
0.848829 0.254627 0.0135042
0.85452 0.25832 0.0159915
0.860166 0.262074 0.0184787
0.866239 0.266163 0.0210269
0.872251 0.270268 0.0235599
0.876844 0.274006 0.0265202
0.881331 0.277745 0.0294804
0.0167697 0.135775 0.0518807
0.0444953 0.137362 0.044831
0.0538491 0.137087 0.0430304
0.0610971 0.137392 0.0413214
0.0685588 0.138415 0.0399176
0.0762646 0.139437 0.0388037
0.0834821 0.140169 0.0381018
0.0907912 0.140444 0.0371862
0.0979171 0.140642 0.036286
0.105974 0.141039 0.0350042
0.113985 0.141787 0.0343938
0.122957 0.142657 0.0330358
0.132418 0.143389 0.0312047
0.14197 0.143893 0.0289158
0.152728 0.144183 0.0275731
0.163104 0.144884 0.0268101
0.173938 0.146166 0.0262455
0.185168 0.147967 0.025391
0.19649 0.149691 0.0245823
0.211353 0.150652 0.0233616
0.225666 0.152087 0.0220951
0.239872 0.153597 0.0208743
0.256336 0.155001 0.019791
0.272969 0.156817 0.0187076
0.289937 0.158709 0.0176547
0.309071 0.161288 0.0166476
0.328237 0.164065 0.0156252
0.346807 0.166339 0.014374
0.367285 0.169314 0.0120546
0.387869 0.17171 0.00958267
0.408652 0.174182 0.00738537
0.43212 0.176715 0.00587472
0.455177 0.179294 0.00445563
0.476936 0.182116 0.00425727
0.499901 0.184558 0.00210575
0.523003 0.187442 0.00102235
0.545846 0.190921 0.00132753
0.567697 0.19443 0.000610361
0.588571 0.198322 0.000579843
0.60911 0.202213 0.000640879
0.629068 0.206043 0.000762951
0.648173 0.209018 0.000549325
0.666896 0.211872 0.000457771
0.685039 0.214755 0.000976577
0.702571 0.217456 0.0016022
0.717083 0.220661 0.000488289
0.731411 0.224033 0.000289921
0.745617 0.227573 0.000854505
0.75967 0.23122 0.0018616
0.771221 0.234714 0.00265507
0.782269 0.238087 0.00343328
0.793118 0.241443 0.00421149
0.803815 0.244816 0.00500496
0.812711 0.247944 0.00634775
0.820264 0.250935 0.00854505
0.827726 0.253941 0.0107576
0.835096 0.256947 0.0129854
0.842374 0.260075 0.0151827
0.848463 0.264118 0.0176394
0.854414 0.268208 0.0201114
0.860273 0.272297 0.0225834
0.866087 0.276371 0.0250553
0.871992 0.280278 0.0275731
0.876539 0.283848 0.0304875
0.881285 0.287297 0.0333867
0.0177005 0.14844 0.0561379
0.0483101 0.148791 0.0503853
0.0573281 0.148745 0.0482032
0.06421 0.148867 0.0462501
0.0712291 0.149355 0.0445411
0.0780804 0.150164 0.0437781
0.0848554 0.150912 0.0431983
0.0918288 0.151553 0.0425574
0.0995193 0.15169 0.0412604
0.107362 0.151873 0.039826
0.115434 0.152285 0.0386206
0.124636 0.153094 0.0372168
0.133806 0.154009 0.0359197
0.143313 0.154864 0.0343481
0.153857 0.155291 0.0331121
0.164492 0.155749 0.0320439
0.176104 0.156954 0.0315557
0.187289 0.158831 0.0310674
0.198703 0.160647 0.0302739
0.212253 0.161868 0.028336
0.226413 0.163302 0.0272679
0.241642 0.164965 0.0259098
0.258946 0.166598 0.024155
0.275181 0.168246 0.0230869
0.292302 0.16997 0.0221256
0.309743 0.171664 0.0213779
0.327504 0.173709 0.0205539
0.347112 0.17641 0.0188144
0.367224 0.179217 0.0165408
0.387015 0.18204 0.0143435
0.408377 0.184909 0.0125429
0.431952 0.187549 0.0111238
0.455192 0.190066 0.00967422
0.478065 0.192706 0.0083772
0.50074 0.196048 0.00762951
0.523262 0.198825 0.00633249
0.545907 0.202304 0.00688182
0.567361 0.205615 0.00552377
0.588098 0.208865 0.00331121
0.608499 0.212146 0.00120546
0.628626 0.215885 0.00137331
0.647471 0.218753 0.00173953
0.666056 0.221622 0.00213626
0.68452 0.224903 0.00315862
0.702235 0.228229 0.00407416
0.717128 0.231327 0.00376898
0.731472 0.234623 0.00352483
0.745708 0.238117 0.00448615
0.759548 0.241611 0.00543221
0.770825 0.244938 0.00614939
0.781949 0.24828 0.00686656
0.792905 0.251621 0.00759899
0.803693 0.254978 0.009308
0.812177 0.257939 0.011368
0.819837 0.261097 0.0134127
0.827436 0.264393 0.0154421
0.834928 0.267704 0.0174716
0.842206 0.271092 0.0195621
0.848356 0.274937 0.0219577
0.854444 0.278782 0.0243687
0.860441 0.282643 0.0267796
0.866224 0.28658 0.0292058
0.871763 0.290394 0.031693
0.87657 0.29369 0.0345464
0.881315 0.297093 0.0373846
0.0201267 0.160952 0.0612497
0.0515908 0.161028 0.0556039
0.0603952 0.161212 0.0535744
0.0669108 0.161395 0.0517433
0.0738384 0.161883 0.0505837
0.0803998 0.162448 0.0498207
0.0869459 0.163317 0.0493935
0.0938277 0.163684 0.0478523
0.101167 0.164111 0.0464332
0.108705 0.164385 0.0449989
0.117006 0.164675 0.0443732
0.125841 0.165255 0.0431525
0.134859 0.166186 0.0419623
