assets/luts/CN.cube
TITLE "Generated by Resolve"
LUT_3D_SIZE 9
0 0 0
0.0746319 0.00737011 0.000183108
0.146426 0.0184024 0.000503548
0.263218 0.0346532 0.000137331
0.469154 0.0614328 0
0.654047 0.0957961 1.5259e-05
0.772946 0.128069 1.5259e-05
0.842496 0.158572 1.5259e-05
0.885908 0.187579 0.00134279
0.0103914 0.10399 0.0381018
0.0926375 0.109026 0.0229038
0.170459 0.1149 0.0125734
0.285496 0.129519 0.00424201
0.453849 0.151278 0
0.631693 0.177188 4.57771e-05
0.760204 0.202579 6.10361e-05
0.836774 0.23006 0.00143435
0.882353 0.259419 0.0221714
0.0305028 0.202075 0.0801404
0.110201 0.203311 0.0644388
0.184405 0.208881 0.0551461
0.299107 0.220951 0.0442359
0.460319 0.238056 0.03093
0.631739 0.262715 0.0236362
0.759869 0.287648 0.0258335
0.834043 0.315007 0.0369421
0.881209 0.343633 0.0557412
0.0675669 0.341222 0.141299
0.136004 0.340444 0.127459
0.211505 0.342428 0.116838
0.327764 0.35053 0.104646
0.484031 0.366506 0.0898299
0.646967 0.388113 0.0799878
0.764858 0.40914 0.0787823
0.837446 0.43151 0.0873732
0.882673 0.455207 0.103822
0.110765 0.505974 0.215641
0.171466 0.50341 0.203311
0.247623 0.5037 0.191302
0.364263 0.50837 0.176486
0.519692 0.518746 0.159792
0.667781 0.531548 0.147265
0.774929 0.547845 0.145083
0.841611 0.561059 0.15021
0.884321 0.575525 0.160861
0.157519 0.651118 0.298222
0.218418 0.648096 0.285267
0.29601 0.648249 0.271626
0.409796 0.650919 0.254673
0.554009 0.656992 0.236683
0.68864 0.665431 0.224323
0.785245 0.672862 0.218097
0.847028 0.679835 0.22005
0.886824 0.686748 0.228595
0.206165 0.749813 0.378622
0.265064 0.749828 0.367285
0.340002 0.750027 0.353155
0.451209 0.753201 0.334844
0.582834 0.758175 0.315709
0.704204 0.7626 0.301808
0.791836 0.766308 0.293492
0.849485 0.768353 0.292576
0.887953 0.772137 0.295583
0.25658 0.813504 0.453651
0.312932 0.814435 0.442069
0.385855 0.816846 0.428412
0.488136 0.819974 0.411109
0.607706 0.823392 0.392279
0.715831 0.827176 0.376806
0.797711 0.829511 0.367025
0.852094 0.829999 0.36585
0.889311 0.830259 0.367376
0.303975 0.859052 0.517922
0.361135 0.860578 0.507118
0.428092 0.862898 0.495445
0.524071 0.866819 0.479667
0.631937 0.868925 0.46392
0.727703 0.87216 0.45069
0.801465 0.873899 0.439704
0.853315 0.875227 0.436103
0.889448 0.87425 0.434852
0.00717174 0.00955215 0.0518807
0.101564 0.0241245 0.0529335
0.188357 0.0359808 0.05243
0.339071 0.0562142 0.0464942
0.549859 0.0857099 0.0362554
0.706813 0.116365 0.0328374
0.806745 0.146304 0.0434272
0.864057 0.174823 0.0607156
0.902266 0.203449 0.0857252
0.0253605 0.132631 0.142519
0.1187 0.134722 0.122683
0.206531 0.142443 0.108827
0.33994 0.154223 0.0967269
0.517678 0.175174 0.0814679
0.68481 0.198886 0.0725414
0.794858 0.223758 0.0775616
0.856107 0.250355 0.0910811
0.896468 0.277913 0.112383
0.0510719 0.237781 0.195361
0.132052 0.234913 0.175219
0.217594 0.238392 0.159854
0.345037 0.249393 0.142931
0.517617 0.265904 0.125612
0.679255 0.289143 0.116365
0.790417 0.310552 0.116533
0.854093 0.335851 0.127825
0.893736 0.362661 0.147402
0.089128 0.379568 0.260273
0.158862 0.375921 0.240467
0.241901 0.37554 0.224704
0.36849 0.381537 0.204959
0.530953 0.395087 0.185611
0.684581 0.412497 0.173846
0.78999 0.431815 0.172946
0.852033 0.451209 0.181262
0.893706 0.471229 0.196078
0.129961 0.535012 0.339422
0.19585 0.529671 0.320882
0.276402 0.529915 0.302251
0.401572 0.53286 0.281529
0.556817 0.541924 0.2589
0.695857 0.551949 0.244953
0.795483 0.564111 0.240284
0.854963 0.57586 0.243198
0.894591 0.58648 0.253529
0.175998 0.666438 0.4159
0.239414 0.664637 0.400031
0.320134 0.664454 0.383398
0.437675 0.666316 0.359335
0.582437 0.670542 0.337758
0.709209 0.676432 0.320333
0.80029 0.681712 0.311223
0.857191 0.686793 0.311604
0.894667 0.693355 0.31606
0.223835 0.756481 0.485161
0.283452 0.756344 0.471229
0.361776 0.757412 0.454017
0.474342 0.760266 0.433799
0.604868 0.764523 0.411322
0.720058 0.767346 0.391882
0.803601 0.770321 0.381872
0.858289 0.771878 0.375814
0.895689 0.773739 0.377295
0.270207 0.816556 0.54377
0.326925 0.817411 0.531289
0.403189 0.819821 0.515526
0.506523 0.822293 0.496193
0.624186 0.826444 0.474922
0.728496 0.82887 0.457633
0.806622 0.830869 0.44683
0.857954 0.831785 0.439841
0.894163 0.831403 0.439353
0.319722 0.859861 0.595422
0.37705 0.861845 0.584695
0.44477 0.864012 0.571939
0.540459 0.868086 0.553429
0.64538 0.871336 0.536934
0.738705 0.873838 0.521935
0.809796 0.875654 0.509743
0.858854 0.875822 0.503212
0.893767 0.875273 0.499382
0.0230564 0.0283665 0.10454
0.123735 0.042649 0.112108
0.226764 0.0600595 0.118853
0.408301 0.082414 0.118135
0.606989 0.1122 0.111711
0.748363 0.139971 0.114153
0.831296 0.166506 0.13051
0.880522 0.194202 0.154391
0.913191 0.223636 0.179751
0.0470588 0.161273 0.244053
0.141878 0.162112 0.218173
0.239551 0.166232 0.200977
0.387961 0.18172 0.182605
0.573678 0.201175 0.167147
0.725948 0.223957 0.163882
0.820127 0.247074 0.171405
0.87306 0.271931 0.189044
0.908507 0.2981 0.2112
0.0720378 0.273838 0.314611
0.157015 0.268727 0.286824
0.249149 0.271214 0.264317
0.390539 0.280858 0.243534
0.567056 0.29659 0.223087
0.718837 0.317266 0.214832
0.812131 0.337758 0.216342
0.868971 0.360891 0.229007
0.904967 0.383459 0.245945
0.110369 0.4177 0.390814
0.182986 0.412421 0.365423
0.271519 0.411276 0.341222
0.40734 0.414878 0.31487
0.574609 0.427161 0.293584
0.717067 0.441428 0.27863
0.810101 0.455467 0.275944
0.866941 0.471931 0.282246
0.90425 0.489418 0.295018
0.149035 0.564813 0.466514
0.217533 0.559991 0.444022
0.306706 0.557733 0.422553
0.435096 0.561044 0.395193
0.590478 0.566613 0.370077
0.722087 0.57409 0.352667
0.811734 0.583383 0.342123
0.865843 0.592645 0.341894
0.903334 0.601404 0.347799
0.194781 0.682445 0.533501
0.260227 0.681605 0.51368
0.342596 0.680079 0.493004
0.466514 0.681422 0.467231
0.607965 0.685222 0.440864
0.729702 0.689967 0.42063
0.814237 0.693736 0.409018
0.86688 0.696925 0.405035
0.901991 0.701564 0.404532
0.239719 0.763622 0.587793
0.301869 0.763699 0.572076
0.382391 0.765484 0.553429
0.494652 0.768185 0.527871
0.623468 0.771481 0.504646
0.735424 0.773785 0.482841
0.815106 0.77612 0.468742
0.866056 0.77641 0.462058
0.903288 0.778119 0.459113
0.285649 0.820722 0.632868
0.342702 0.821591 0.618585
0.419104 0.823316 0.60206
0.523613 0.826154 0.580926
0.63888 0.82974 0.559747
0.741817 0.831479 0.538415
0.815518 0.833585 0.525475
0.86424 0.833768 0.517113
0.898512 0.833585 0.513619
0.332525 0.861906 0.671321
0.39321 0.864012 0.660334
0.463584 0.866316 0.646738
0.55761 0.869444 0.627283
0.659632 0.872908 0.606683
0.749813 0.875746 0.591928
0.818112 0.875547 0.578958
0.864271 0.875669 0.568566
0.898253 0.875669 0.565164
0.0489509 0.0525063 0.168887
0.151629 0.0698405 0.190707
0.276677 0.0893568 0.208011
0.479286 0.115877 0.215427
0.66392 0.141131 0.215717
0.784695 0.167391 0.226978
0.85478 0.192798 0.247761
0.896925 0.220066 0.27425
0.927001 0.24892 0.299229
0.0741436 0.200488 0.385275
0.173175 0.19704 0.34905
0.285176 0.201724 0.326452
0.44889 0.215457 0.303868
0.632242 0.235492 0.288457
0.766766 0.255421 0.284611
0.843168 0.277455 0.294057
0.890043 0.300969 0.310857
0.920821 0.324926 0.329137
0.102739 0.321782 0.466026
0.18761 0.314824 0.432181
0.290623 0.314763 0.403677
0.446525 0.322332 0.376257
0.621744 0.336294 0.352819
0.756695 0.353475 0.341451
0.83624 0.37052 0.342748
0.884184 0.390539 0.350607
0.91754 0.411246 0.365835
0.133852 0.465568 0.543755
0.211856 0.456703 0.511894
0.311192 0.454719 0.484642
0.456672 0.457542 0.453422
0.622583 0.464958 0.425223
0.751369 0.475624 0.40708
0.831846 0.487114 0.399954
0.881071 0.500069 0.402792
0.914885 0.515114 0.410636
0.173495 0.598718 0.607965
0.245792 0.5935 0.583032
0.339818 0.590692 0.556573
0.475013 0.592767 0.525048
0.629496 0.596338 0.495277
0.749142 0.600641 0.473518
0.830381 0.606592 0.462257
0.880247 0.612696 0.457496
0.912566 0.62063 0.459754
0.215824 0.70341 0.65948
0.285176 0.700557 0.63917
0.370794 0.700175 0.615885
0.499275 0.701183 0.587091
0.638025 0.704555 0.55906
0.751537 0.706462 0.533776
0.828412 0.707973 0.5178
0.877592 0.710597 0.511772
0.910018 0.712688 0.508019
0.26038 0.774762 0.697047
0.324895 0.774853 0.679957
0.406104 0.775464 0.660319
0.52047 0.777584 0.635996
0.646723 0.780713 0.609171
0.751476 0.782589 0.586114
0.827115 0.784314 0.56994
0.874983 0.78471 0.559472
0.908782 0.78526 0.553216
0.304631 0.826246 0.726955
0.363806 0.827176 0.712871
0.441169 0.82884 0.695811
0.545983 0.831601 0.673777
0.657954 0.834958 0.651835
0.756237 0.836423 0.630671
0.825666 0.83798 0.61529
0.872526 0.837736 0.606165
0.906676 0.837308 0.598749
0.353246 0.865202 0.752239
0.412116 0.867124 0.740322
0.48188 0.869108 0.726146
0.576059 0.871626 0.707652
0.675898 0.875944 0.688579
0.762387 0.877485 0.670665
0.826703 0.878035 0.656016
0.870649 0.878004 0.64445
0.903212 0.876371 0.637919
0.0831922 0.0817426 0.261387
0.191775 0.101625 0.2972
0.341024 0.123751 0.328542
0.552453 0.150362 0.33991
0.718288 0.175753 0.342641
0.819348 0.200687 0.356619
0.877073 0.225925 0.378485
0.912306 0.250965 0.400656
0.938903 0.279011 0.422889
0.109911 0.245701 0.534371
0.213031 0.241733 0.495506
0.340124 0.246036 0.467964
0.518257 0.257267 0.440726
0.688228 0.276173 0.423545
0.801999 0.294682 0.421088
0.865385 0.314748 0.428275
0.905516 0.33611 0.438819
0.932677 0.358831 0.453285
0.132921 0.376043 0.618509
0.224918 0.367773 0.583276
0.341634 0.3664 0.551049
0.50724 0.372763 0.517937
0.673609 0.384146 0.49073
0.790051 0.395804 0.475593
0.857923 0.410285 0.474113
0.900404 0.426001 0.478325
0.928603 0.4421 0.485832
0.162127 0.513893 0.68716
0.247654 0.505913 0.656199
0.355261 0.502464 0.625803
0.509636 0.50367 0.590875
0.66601 0.508095 0.558618
0.782559 0.514595 0.538003
0.851881 0.521309 0.527489
0.895735 0.531441 0.525444
0.926284 0.541451 0.527459
0.199908 0.633585 0.736797
0.277409 0.628565 0.710903
0.377401 0.625956 0.683772
0.516793 0.62591 0.650645
0.663813 0.628229 0.618738
0.77554 0.631434 0.595468
0.847333 0.633143 0.580331
0.891875 0.637888 0.573358
0.922164 0.641382 0.570596
0.240284 0.723095 0.771588
0.31017 0.721477 0.748852
0.402502 0.721248 0.72639
0.530709 0.721187 0.697292
0.665385 0.723308 0.667674
0.772519 0.725032 0.643015
0.842908 0.725216 0.626642
0.887419 0.725734 0.615198
0.918898 0.726375 0.608637
0.281666 0.78526 0.793561
0.347387 0.786038 0.776837
0.432776 0.78732 0.755993
0.547845 0.789303 0.732006
0.670649 0.791394 0.705104
0.769619 0.793057 0.682475
0.838529 0.793042 0.664561
0.884855 0.793271 0.652461
0.915557 0.793118 0.646769
0.325536 0.833631 0.811444
0.386572 0.834669 0.79765
0.463447 0.835569 0.779232
0.568505 0.838972 0.758984
0.679561 0.841688 0.735851
0.770428 0.842527 0.716976
0.837125 0.843259 0.700771
0.880919 0.843336 0.689372
0.912596 0.841672 0.680735
0.37319 0.868467 0.823804
0.431281 0.870283 0.811658
0.500603 0.872572 0.797772
0.592538 0.875746 0.779293
0.690105 0.878981 0.76083
0.771435 0.880293 0.742962
0.834852 0.88101 0.728145
0.87631 0.879973 0.716335
0.907485 0.878721 0.70692
0.122118 0.114168 0.382864
0.245991 0.137758 0.430106
0.424079 0.164675 0.470161
0.623301 0.18999 0.469886
0.766842 0.215137 0.47425
0.847898 0.238605 0.487877
0.895949 0.26276 0.505302
0.927245 0.288487 0.524163
0.950011 0.315129 0.538598
0.149767 0.300145 0.672724
0.262684 0.294255 0.635203
0.401663 0.298741 0.604517
0.585321 0.309346 0.574105
0.739376 0.323064 0.557153
0.831586 0.339529 0.550088
0.884901 0.357107 0.552712
0.919936 0.376379 0.558831
0.944366 0.395224 0.568536
0.167498 0.433127 0.747158
0.270069 0.42327 0.713085
0.396399 0.421973 0.681102
0.565896 0.425162 0.645747
0.718959 0.432609 0.618265
0.819699 0.441596 0.600656
0.875715 0.451164 0.594232
0.914458 0.463783 0.593957
0.938964 0.477455 0.596796
0.194446 0.561959 0.798672
0.286763 0.553338 0.770443
0.401724 0.549111 0.739956
0.557412 0.549493 0.705882
0.70515 0.550927 0.673533
0.807248 0.555001 0.65182
0.867857 0.559197 0.638682
0.907454 0.564446 0.632563
0.934874 0.572183 0.630014
0.227619 0.664881 0.832273
0.311284 0.661357 0.808621
0.41651 0.659327 0.782193
0.558251 0.65922 0.750957
0.697139 0.660288 0.723033
0.798077 0.659998 0.69781
0.86067 0.660212 0.681392
0.902129 0.662348 0.671687
0.930327 0.663798 0.664286
0.264912 0.742214 0.852934
0.338674 0.740688 0.834302
0.436622 0.740688 0.812573
0.564477 0.741726 0.784497
0.692271 0.742245 0.755688
0.791363 0.74313 0.732967
0.856596 0.742794 0.717952
0.897765 0.742184 0.704799
0.92726 0.742351 0.695933
0.303746 0.797589 0.866361
0.373953 0.798596 0.850797
0.460441 0.799313 0.833097
0.574655 0.801297 0.809277
0.692424 0.803342 0.784741
0.785504 0.803922 0.762737
0.849897 0.804517 0.746181
0.892912 0.803143 0.73315
0.921538 0.803403 0.725155
0.345983 0.840833 0.875853
0.409506 0.842161 0.863005
0.487892 0.843976 0.848585
0.591501 0.845991 0.82739
0.697871 0.848157 0.805097
0.783902 0.849973 0.785809
0.845502 0.849577 0.77023
0.88777 0.84863 0.757671
0.917586 0.846647 0.747799
0.39263 0.871733 0.878614
0.450172 0.873793 0.867628
0.5196 0.87602 0.854414
0.610361 0.87892 0.837934
0.702159 0.881254 0.819074
0.782895 0.883741 0.802304
0.84062 0.883497 0.788602
0.881621 0.881956 0.775708
0.91165 0.880171 0.766751
0.170611 0.156588 0.525582
0.318074 0.184543 0.577157
0.512871 0.215366 0.60293
0.687083 0.237049 0.592844
0.80502 0.259815 0.591959
0.87013 0.283742 0.602502
0.911009 0.307073 0.613474
0.939239 0.330953 0.623224
0.959304 0.355398 0.633844
0.195361 0.358694 0.777859
0.319905 0.353216 0.745541
0.471366 0.356832 0.714244
0.645487 0.365515 0.68452
0.776593 0.37641 0.6654
0.854566 0.389319 0.656626
0.900786 0.402136 0.655787
0.931289 0.41854 0.657237
0.953292 0.434134 0.660456
0.208286 0.488151 0.836789
0.318853 0.479957 0.805417
0.455299 0.477592 0.776211
0.622049 0.479088 0.742901
0.75761 0.483574 0.714824
0.841581 0.487755 0.698772
0.891539 0.495125 0.689372
0.924987 0.502571 0.685893
0.948196 0.513252 0.685344
0.23093 0.604746 0.87512
0.32755 0.597635 0.849973
0.450111 0.594079 0.82118
0.6038 0.593133 0.789349
0.7393 0.593942 0.76025
0.828794 0.594156 0.73904
0.882918 0.595087 0.726757
0.917922 0.598138 0.718807
0.943023 0.602335 0.712978
0.260273 0.694362 0.898909
0.346548 0.690684 0.876829
0.454597 0.689525 0.85362
0.596063 0.689662 0.823468
0.724285 0.689403 0.795132
0.817472 0.687663 0.774517
0.874342 0.687251 0.758923
0.912718 0.686427 0.748653
0.938888 0.686885 0.740047
0.294057 0.760815 0.912734
0.372915 0.760006 0.894621
0.46952 0.760098 0.874342
0.59469 0.760754 0.848371
0.716533 0.761746 0.823331
0.808209 0.761486 0.80264
0.867216 0.759472 0.785977
0.905333 0.758389 0.773297
0.933974 0.756924 0.765637
0.32903 0.809522 0.920897
0.399496 0.810468 0.906218
0.487709 0.811994 0.88922
0.600015 0.814038 0.867384
0.711742 0.815717 0.843503
0.800977 0.815869 0.82266
0.859922 0.814542 0.807263
0.899733 0.813092 0.795743
0.927169 0.812818 0.785183
0.368124 0.847257 0.923812
0.433066 0.848966 0.910536
0.51107 0.850919 0.89543
0.611551 0.853712 0.876539
0.712047 0.855268 0.855802
0.794705 0.855634 0.837766
0.853284 0.854383 0.823926
0.89221 0.853742 0.811627
0.921141 0.85211 0.801144
0.411337 0.875242 0.921202
0.467948 0.877211 0.910399
0.536492 0.879438 0.897322
0.622629 0.881956 0.880796
0.712627 0.883894 0.86389
0.787762 0.886229 0.847852
0.845136 0.88484 0.834226
0.884153 0.883543 0.82182
0.914885 0.881407 0.813733
0.238468 0.212558 0.67303
0.410803 0.249134 0.707942
0.588235 0.271916 0.701274
0.738231 0.289677 0.689937
0.834989 0.311528 0.686748
0.888014 0.331502 0.690181
0.923278 0.353521 0.695933
0.948745 0.376043 0.702419
0.96643 0.39791 0.707057
0.249851 0.418418 0.85008
0.38439 0.414755 0.820935
0.535836 0.416663 0.792584
0.697795 0.421851 0.764263
0.809659 0.430045 0.745937
0.872999 0.438773 0.736568
0.913252 0.449088 0.732235
0.94052 0.460761 0.730968
0.960998 0.474556 0.730205
0.254154 0.540169 0.89955
0.369665 0.534447 0.870298
0.513252 0.531624 0.841962
0.671672 0.531151 0.81117
0.788388 0.532555 0.786252
0.860212 0.534051 0.771664
0.90425 0.536797 0.760159
0.933654 0.542458 0.755886
0.956161 0.549874 0.752178
0.269139 0.642435 0.928862
0.373861 0.637461 0.904509
0.496559 0.636179 0.878889
0.646311 0.633127 0.848081
0.767514 0.632105 0.822614
0.845716 0.630076 0.803113
0.894835 0.629099 0.791089
0.927245 0.630671 0.782254
0.950912 0.632578 0.77499
0.292912 0.720302 0.945968
0.383993 0.717922 0.927413
0.495567 0.716991 0.904005
0.632166 0.717662 0.877226
0.74934 0.715663 0.851484
0.833158 0.714 0.830121
0.88481 0.712062 0.816922
0.921126 0.70985 0.80676
0.944884 0.709239 0.797269
0.324086 0.777081 0.956863
0.404898 0.777523 0.939437
0.502358 0.778576 0.919951
0.624949 0.778683 0.895888
0.738445 0.779477 0.873045
0.822065 0.779202 0.853986
0.875731 0.776547 0.838148
0.913207 0.774609 0.827665
0.939391 0.772137 0.817777
0.355993 0.820447 0.96051
0.42829 0.820935 0.945708
0.514443 0.822599 0.929747
0.623148 0.824247 0.908766
0.729854 0.825467 0.887694
0.812116 0.826001 0.86952
0.867903 0.825345 0.85391
0.904952 0.822873 0.842847
0.932525 0.820356 0.832578
0.388785 0.852583 0.958419
0.455528 0.854322 0.94696
0.53167 0.856046 0.932631
0.628733 0.858824 0.915022
0.724437 0.860304 0.895933
0.803784 0.861067 0.879652
0.858701 0.859373 0.865232
0.896101 0.858442 0.852842
0.925261 0.855848 0.843137
0.427756 0.877882 0.953201
0.483894 0.879728 0.943603
0.551339 0.881559 0.932387
0.634623 0.884306 0.916686
0.720745 0.88661 0.900359
0.794598 0.887343 0.8851
0.848951 0.887694 0.871275
0.887953 0.885649 0.861433
0.916793 0.88397 0.851286
0.326726 0.290501 0.788128
0.502998 0.318883 0.790494
0.654704 0.332769 0.772152
0.781064 0.349523 0.759045
0.856504 0.365911 0.755596
0.90248 0.384237 0.755138
0.933455 0.403723 0.758038
0.955596 0.423087 0.762112
0.970596 0.441321 0.764508
0.310079 0.476326 0.902052
0.451911 0.473869 0.872801
0.599893 0.475257 0.846922
0.740276 0.478035 0.82211
0.832959 0.482444 0.805707
0.888212 0.486915 0.795392
0.922789 0.496239 0.789242
0.947875 0.504448 0.786725
0.967315 0.515709 0.785092
0.305806 0.586679 0.940002
0.427497 0.581674 0.915953
0.567391 0.580865 0.889937
0.707347 0.579095 0.862272
0.811704 0.57818 0.839841
0.874098 0.576638 0.824353
0.914244 0.578378 0.815274
0.942245 0.580789 0.808637
0.961975 0.586587 0.804639
0.313573 0.675746 0.966506
0.418738 0.672892 0.944106
0.544518 0.67039 0.920073
0.681895 0.670008 0.892836
0.790845 0.667308 0.86978
0.86009 0.664118 0.853391
0.90457 0.662547 0.841718
0.933883 0.66186 0.831342
0.956954 0.662501 0.825513
0.331716 0.742977 0.980285
0.424353 0.742687 0.963058
0.534112 0.742107 0.942092
0.664271 0.742153 0.915908
0.772519 0.740368 0.894484
0.84715 0.737728 0.875624
0.893294 0.735073 0.862852
0.926696 0.731273 0.852216
0.950195 0.730419 0.844038
0.35378 0.79237 0.98706
0.43856 0.792493 0.971069
0.535454 0.79411 0.953429
0.653117 0.79527 0.931823
0.758129 0.795468 0.911101
0.834623 0.79472 0.893874
0.882948 0.791302 0.879347
0.917647 0.787854 0.868833
0.941985 0.785382 0.858473
0.381888 0.82771 0.988479
0.453773 0.829267 0.974868
0.538705 0.830869 0.959594
0.644144 0.834348 0.940764
0.744259 0.835355 0.921553
0.821164 0.83418 0.903716
0.872679 0.832975 0.889769
0.90811 0.830488 0.879255
0.93492 0.826749 0.869383
0.410437 0.857359 0.985473
0.474907 0.859159 0.973983
0.549523 0.861128 0.96054
0.643214 0.863294 0.944228
0.734478 0.864836 0.926253
0.809186 0.865553 0.910979
0.862272 0.864256 0.897551
0.899001 0.861311 0.886473
0.926009 0.860288 0.876799
0.446174 0.880232 0.979889
0.501152 0.882185 0.970123
0.566217 0.884306 0.959075
0.645701 0.886778 0.944869
0.727932 0.889097 0.92874
0.797482 0.889174 0.914473
0.851911 0.88925 0.902495
0.889921 0.886854 0.891447
0.918471 0.884962 0.882597
