assets/luts/CN.cube
TITLE "Generated by Resolve"
LUT_3D_SIZE 5
0 0 0
0.146426 0.0184024 0.000503548
0.469154 0.0614328 0
0.772946 0.128069 1.5259e-05
0.885908 0.187579 0.00134279
0.0305028 0.202075 0.0801404
0.184405 0.208881 0.0551461
0.460319 0.238056 0.03093
0.759869 0.287648 0.0258335
0.881209 0.343633 0.0557412
0.110765 0.505974 0.215641
0.247623 0.5037 0.191302
0.519692 0.518746 0.159792
0.774929 0.547845 0.145083
0.884321 0.575525 0.160861
0.206165 0.749813 0.378622
0.340002 0.750027 0.353155
0.582834 0.758175 0.315709
0.791836 0.766308 0.293492
0.887953 0.772137 0.295583
0.303975 0.859052 0.517922
0.428092 0.862898 0.495445
0.631937 0.868925 0.46392
0.801465 0.873899 0.439704
0.889448 0.87425 0.434852
0.0230564 0.0283665 0.10454
0.226764 0.0600595 0.118853
0.606989 0.1122 0.111711
0.831296 0.166506 0.13051
0.913191 0.223636 0.179751
0.0720378 0.273838 0.314611
0.249149 0.271214 0.264317
0.567056 0.29659 0.223087
0.812131 0.337758 0.216342
0.904967 0.383459 0.245945
0.149035 0.564813 0.466514
0.306706 0.557733 0.422553
0.590478 0.566613 0.370077
0.811734 0.583383 0.342123
0.903334 0.601404 0.347799
0.239719 0.763622 0.587793
0.382391 0.765484 0.553429
0.623468 0.771481 0.504646
0.815106 0.77612 0.468742
0.903288 0.778119 0.459113
0.332525 0.861906 0.671321
0.463584 0.866316 0.646738
0.659632 0.872908 0.606683
0.818112 0.875547 0.578958
0.898253 0.875669 0.565164
0.0831922 0.0817426 0.261387
0.341024 0.123751 0.328542
0.718288 0.175753 0.342641
0.877073 0.225925 0.378485
0.938903 0.279011 0.422889
0.132921 0.376043 0.618509
0.341634 0.3664 0.551049
0.673609 0.384146 0.49073
0.857923 0.410285 0.474113
0.928603 0.4421 0.485832
0.199908 0.633585 0.736797
0.377401 0.625956 0.683772
0.663813 0.628229 0.618738
0.847333 0.633143 0.580331
0.922164 0.641382 0.570596
0.281666 0.78526 0.793561
0.432776 0.78732 0.755993
0.670649 0.791394 0.705104
0.838529 0.793042 0.664561
0.915557 0.793118 0.646769
0.37319 0.868467 0.823804
0.500603 0.872572 0.797772
0.690105 0.878981 0.76083
0.834852 0.88101 0.728145
0.907485 0.878721 0.70692
0.170611 0.156588 0.525582
0.512871 0.215366 0.60293
0.80502 0.259815 0.591959
0.911009 0.307073 0.613474
0.959304 0.355398 0.633844
0.208286 0.488151 0.836789
0.455299 0.477592 0.776211
0.75761 0.483574 0.714824
0.891539 0.495125 0.689372
0.948196 0.513252 0.685344
0.260273 0.694362 0.898909
0.454597 0.689525 0.85362
0.724285 0.689403 0.795132
0.874342 0.687251 0.758923
0.938888 0.686885 0.740047
0.32903 0.809522 0.920897
0.487709 0.811994 0.88922
0.711742 0.815717 0.843503
0.859922 0.814542 0.807263
0.927169 0.812818 0.785183
0.411337 0.875242 0.921202
0.536492 0.879438 0.897322
0.712627 0.883894 0.86389
0.845136 0.88484 0.834226
0.914885 0.881407 0.813733
0.326726 0.290501 0.788128
0.654704 0.332769 0.772152
0.856504 0.365911 0.755596
0.933455 0.403723 0.758038
0.970596 0.441321 0.764508
0.305806 0.586679 0.940002
0.567391 0.580865 0.889937
0.811704 0.57818 0.839841
0.914244 0.578378 0.815274
0.961975 0.586587 0.804639
0.331716 0.742977 0.980285
0.534112 0.742107 0.942092
0.772519 0.740368 0.894484
0.893294 0.735073 0.862852
0.950195 0.730419 0.844038
0.381888 0.82771 0.988479
0.538705 0.830869 0.959594
0.744259 0.835355 0.921553
0.872679 0.832975 0.889769
0.93492 0.826749 0.869383
0.446174 0.880232 0.979889
0.566217 0.884306 0.959075
0.727932 0.889097 0.92874
0.851911 0.88925 0.902495
0.918471 0.884962 0.882597
