assets/luts/ETERNA.cube
TITLE "Generated by Resolve"
LUT_3D_SIZE 5
0.00585946 0.00585946 0.00585946
0.216403 0.0399176 0.0297093
0.46157 0.0979324 0.0567636
0.668009 0.165011 0.0751202
0.820844 0.236606 0.0859236
0.118486 0.272358 0.0596933
0.278416 0.275502 0.041062
0.471656 0.294484 0.0291447
0.659342 0.33196 0.0466316
0.805493 0.386404 0.0582132
0.247059 0.534325 0.12549
0.370443 0.529061 0.122957
0.532799 0.532509 0.122103
0.68162 0.549371 0.118807
0.799283 0.571359 0.105974
0.390433 0.733303 0.214801
0.47953 0.727504 0.214832
0.595407 0.723033 0.212238
0.709026 0.722087 0.211917
0.805753 0.72604 0.210498
0.5075 0.847807 0.306386
0.565606 0.843839 0.3066
0.646113 0.838422 0.306447
0.732509 0.832441 0.304845
0.812543 0.830503 0.300847
0.0200656 0.0445563 0.186267
0.277867 0.0817121 0.241291
0.53547 0.127855 0.281544
0.726879 0.189258 0.294377
0.868437 0.258595 0.293034
0.109224 0.317159 0.316945
0.311208 0.311208 0.311208
0.523995 0.325841 0.312169
0.706188 0.35787 0.315099
0.839673 0.404303 0.309514
0.248814 0.562966 0.368093
0.38674 0.554025 0.360082
0.557565 0.552743 0.352865
0.705837 0.561288 0.34728
0.821256 0.57882 0.340246
0.388052 0.735943 0.416281
0.482277 0.730632 0.413031
0.603479 0.723964 0.405615
0.720409 0.72163 0.396307
0.816846 0.723476 0.386099
0.504433 0.841871 0.462257
0.564965 0.838697 0.460838
0.650187 0.833249 0.456962
0.737881 0.829297 0.450736
0.818677 0.825223 0.443488
0.0535286 0.0981155 0.342061
0.338293 0.132082 0.448829
0.600504 0.175631 0.50454
0.780621 0.230167 0.529519
0.904997 0.292729 0.530571
0.0860151 0.381018 0.553124
0.340124 0.369726 0.552773
0.571084 0.375937 0.553979
0.744411 0.399451 0.54905
0.866697 0.435798 0.541222
0.236622 0.598825 0.588571
0.395056 0.588037 0.581888
0.579171 0.579171 0.579171
0.72784 0.584222 0.569665
0.84097 0.5953 0.556405
0.373175 0.743511 0.60058
0.477272 0.737041 0.598871
0.609049 0.730007 0.596094
0.730037 0.726833 0.587243
0.827985 0.726574 0.57586
0.49041 0.838697 0.612451
0.5579 0.834073 0.612177
0.647486 0.829908 0.609689
0.739132 0.825055 0.604517
0.821424 0.819883 0.594781
0.117296 0.161151 0.564965
0.410834 0.19762 0.681804
0.65565 0.23328 0.712062
0.821164 0.284031 0.729793
0.927626 0.340581 0.726406
0.0534829 0.446708 0.719234
0.358389 0.433921 0.735454
0.602136 0.433768 0.740337
0.771572 0.448981 0.736797
0.886809 0.47422 0.726329
0.208026 0.631739 0.736049
0.387076 0.620096 0.739345
0.587442 0.612085 0.741039
0.742718 0.609751 0.734432
0.853956 0.615412 0.723949
0.343008 0.754299 0.732235
0.459297 0.748486 0.736309
0.603952 0.741619 0.737545
0.73521 0.73521 0.73521
0.834165 0.733974 0.724239
0.460243 0.833005 0.723781
0.533257 0.829969 0.725521
0.634134 0.82533 0.728161
0.731533 0.819654 0.724208
0.817716 0.815213 0.719066
0.180941 0.249363 0.780987
0.4598 0.27274 0.834134
0.692454 0.301381 0.859205
0.840558 0.345541 0.863767
0.939895 0.39263 0.856504
0.0658122 0.501549 0.835538
0.365988 0.49102 0.856458
0.616541 0.488258 0.861128
0.78407 0.496071 0.859022
0.897719 0.513008 0.849378
0.154665 0.657115 0.832547
0.368246 0.647837 0.842741
0.584939 0.639139 0.849912
0.74638 0.636469 0.849088
0.860609 0.637613 0.841443
0.301137 0.758175 0.82211
0.426017 0.753399 0.827054
0.585931 0.747555 0.833906
0.725628 0.741909 0.831968
0.829328 0.737881 0.825376
0.419669 0.825895 0.80354
0.500618 0.823026 0.807843
0.607782 0.819211 0.811719
0.716945 0.813748 0.810605
0.808743 0.808743 0.808743
