assets/luts/ETERNA-BB.cube
TITLE "Generated by Resolve"
LUT_3D_SIZE 65
0 0 0
0.029099 0.00604257 0.00523384
0.0370336 0.00830091 0.00697337
0.0425116 0.00909438 0.00790417
0.049012 0.00958267 0.00996414
0.0538033 0.0108186 0.0111543
0.0571908 0.0124208 0.011841
0.0629587 0.0142519 0.0123293
0.0687266 0.0153201 0.0129397
0.0745708 0.016968 0.0143282
0.0797589 0.0193332 0.0157931
0.0844739 0.0215915 0.0171664
0.0914778 0.0233921 0.019028
0.0979477 0.0256809 0.0209201
0.103319 0.0286717 0.0218967
0.109743 0.0316625 0.0234989
0.118486 0.0343328 0.0252384
0.127565 0.0372778 0.0275273
0.136004 0.0396277 0.0301671
0.144701 0.0420691 0.0329595
0.153994 0.0450446 0.0356146
0.163561 0.0480049 0.0374914
0.17528 0.0502022 0.0390478
0.187884 0.0521096 0.0408637
0.201007 0.0543374 0.0425269
0.21529 0.0569162 0.0447242
0.230426 0.0598306 0.0468757
0.245518 0.0623331 0.0486
0.26038 0.0645609 0.0501411
0.274891 0.0668193 0.0516823
0.290486 0.0686656 0.0543832
0.305974 0.0702678 0.057084
0.321172 0.0718547 0.0597238
0.334661 0.0745098 0.0631723
0.346838 0.0757305 0.0650492
0.358038 0.0767681 0.066331
0.369329 0.0792706 0.0686656
0.380423 0.082063 0.0711223
0.391241 0.0851148 0.073579
0.401358 0.0875563 0.0754864
0.410971 0.0899062 0.0767071
0.420386 0.0922408 0.077821
0.429725 0.0945602 0.0790723
0.43917 0.0972305 0.0817426
0.447929 0.100664 0.0849775
0.45655 0.104067 0.0881819
0.465263 0.1075 0.091249
0.47422 0.110994 0.0941787
0.483162 0.114656 0.0972305
0.491981 0.118273 0.100038
0.499992 0.122805 0.103655
0.507149 0.128313 0.108156
0.514275 0.13341 0.112184
0.521782 0.138247 0.115831
0.529564 0.142962 0.119234
0.536706 0.148104 0.123049
0.54374 0.153185 0.126802
0.550744 0.158267 0.130587
0.557748 0.163394 0.134432
0.564218 0.168688 0.138201
0.570336 0.173892 0.141833
0.576516 0.179095 0.145464
0.582773 0.184375 0.149111
0.588937 0.189593 0.152712
0.594873 0.196399 0.157122
0.0198215 0.0431678 0.0211032
0.0493629 0.0496834 0.0259861
0.0555276 0.0525368 0.0246891
0.0601968 0.0537575 0.0244602
0.0658579 0.0548867 0.025864
0.0700542 0.0557717 0.0256352
0.0742351 0.0558022 0.0255436
0.0791333 0.0575418 0.0270848
0.08365 0.0587015 0.028397
0.090013 0.0599832 0.0298161
0.0961471 0.0615549 0.0306554
0.100816 0.0629435 0.0315099
0.104784 0.0638437 0.0311589
0.112474 0.0649882 0.0326696
0.120241 0.0666056 0.0343786
0.12813 0.067689 0.035111
0.135576 0.0681163 0.0371099
0.144411 0.0696117 0.0388952
0.152865 0.0711376 0.0412757
0.162417 0.0728923 0.0426184
0.172686 0.0748608 0.043534
0.183673 0.0765393 0.0445411
0.196307 0.0778821 0.0459449
0.209079 0.0793011 0.0475166
0.22295 0.0808118 0.0501106
0.237156 0.0821546 0.0529793
0.25095 0.0836194 0.0556344
0.264012 0.0855421 0.0571298
0.277134 0.0873121 0.0586099
0.289601 0.0889143 0.0598306
0.301076 0.0902571 0.0605936
0.312352 0.0915999 0.0613565
0.323964 0.0929732 0.0631266
0.335561 0.0951095 0.0661021
0.347036 0.0974899 0.0690471
0.358343 0.099733 0.0718242
0.369512 0.101656 0.0741894
0.380468 0.103578 0.076524
0.391333 0.105852 0.0786603
0.401648 0.108217 0.0811017
0.411872 0.110597 0.0831769
0.421805 0.112902 0.0848859
0.431601 0.115785 0.0869917
0.44126 0.119249 0.0894636
0.450767 0.122683 0.0918898
0.46006 0.126055 0.094789
0.469352 0.129686 0.0977798
0.478386 0.133288 0.101167
0.487129 0.136812 0.104707
0.495735 0.140322 0.108186
0.503807 0.144625 0.111666
0.511757 0.149172 0.115373
0.519814 0.153826 0.119631
0.527764 0.158434 0.123827
0.53547 0.163348 0.127947
0.542916 0.168582 0.131991
0.550271 0.17377 0.135988
0.557534 0.178897 0.139956
0.564797 0.185107 0.14435
0.571206 0.191363 0.148501
0.577523 0.197559 0.152605
0.583734 0.203647 0.156649
0.589822 0.209522 0.160616
0.596033 0.215778 0.165194
0.602823 0.223102 0.170443
0.0278325 0.0559091 0.0267948
0.0545663 0.0608682 0.0323491
0.0607156 0.0623484 0.0316167
0.0652628 0.0635233 0.0310674
0.0695048 0.0644999 0.030396
0.0734569 0.0651102 0.0298161
0.07776 0.0656138 0.0298314
0.0823987 0.0664378 0.0317082
0.0872206 0.0675975 0.0331426
0.0927749 0.0690623 0.0323796
0.098497 0.0701915 0.0328527
0.103822 0.0714275 0.0338598
0.109789 0.0723278 0.0351263
0.117113 0.0728771 0.035996
0.124269 0.0737469 0.0366674
0.131563 0.0751659 0.0373846
0.139376 0.0767529 0.0388037
0.148699 0.0776379 0.0395056
0.156939 0.0788891 0.0413825
0.166979 0.0806744 0.0436408
0.177356 0.0826581 0.0459449
0.188678 0.0841535 0.0473335
0.2009 0.0853285 0.0484474
0.212818 0.0865034 0.0494087
0.22591 0.0882277 0.0518654
0.239384 0.0898604 0.05449
0.252949 0.0913558 0.0568551
0.266529 0.0927291 0.0586862
0.279606 0.093904 0.0602884
0.291585 0.0953078 0.0615854
0.302693 0.096849 0.0624552
0.313588 0.0984054 0.0633249
0.325002 0.100664 0.0652476
0.336736 0.10341 0.0679332
0.348287 0.105913 0.0706645
0.359533 0.108141 0.0730144
0.370596 0.109178 0.0753796
0.381476 0.11017 0.07776
0.392157 0.111421 0.0800641
0.402686 0.113985 0.0821698
0.413016 0.116533 0.0842298
0.423102 0.118715 0.0859998
0.432761 0.121721 0.0885023
0.4421 0.125307 0.0916152
0.451408 0.128649 0.0948806
0.460624 0.131868 0.0981918
0.469917 0.135424 0.100923
0.479103 0.138949 0.103853
0.488136 0.142397 0.106935
0.497154 0.146914 0.110201
0.505837 0.151034 0.114336
0.514321 0.155138 0.118547
0.522301 0.15964 0.122728
0.530205 0.164309 0.127092
0.537667 0.169223 0.131044
0.545068 0.17464 0.135103
0.552483 0.180774 0.139513
0.559808 0.186862 0.143877
0.566949 0.19292 0.148165
0.573312 0.198993 0.152224
0.579583 0.20502 0.156252
0.585779 0.211002 0.16025
0.592569 0.217639 0.165072
0.599863 0.224994 0.170687
0.606821 0.232731 0.175921
0.0323796 0.0625772 0.0323186
0.0585641 0.066804 0.0359045
0.0638895 0.0683299 0.0361334
0.0685435 0.0698253 0.0359808
0.0727398 0.0705425 0.0353246
0.0765545 0.0711681 0.0343938
0.0805371 0.0721141 0.0344244
0.0847639 0.0729534 0.0364843
0.0903487 0.0741894 0.036408
0.0959182 0.0758831 0.0355077
0.10193 0.0770428 0.0364233
0.107515 0.0779583 0.0376898
0.113542 0.0787366 0.0374304
0.119753 0.0794385 0.0373846
0.126696 0.080354 0.0382544
0.13344 0.0816815 0.0393988
0.141238 0.0835126 0.0413214
0.150759 0.0843366 0.041886
0.15996 0.0852522 0.0426947
0.170642 0.0867323 0.0441291
0.181018 0.0885634 0.0462348
0.192416 0.0898604 0.0479438
0.204425 0.0908217 0.0493629
0.216342 0.0919051 0.0505684
0.229297 0.0934768 0.0530251
0.241794 0.0953994 0.0557565
0.254658 0.0968643 0.0577554
0.268086 0.0979782 0.0593576
0.280964 0.0989395 0.0608072
0.292638 0.100404 0.0622263
0.303593 0.102098 0.0636149
0.314366 0.103792 0.0649271
0.325872 0.10605 0.0671092
0.337514 0.1084 0.0700847
0.348959 0.110719 0.0730297
0.360174 0.112337 0.0751202
0.371252 0.113558 0.0766918
0.382162 0.114748 0.078584
0.392798 0.116121 0.0808118
0.403281 0.118593 0.0829328
0.413474 0.121492 0.0855116
0.423453 0.124208 0.0879377
0.433036 0.127199 0.090837
0.442527 0.13022 0.0941634
0.451926 0.13312 0.0975357
0.461112 0.136233 0.100786
0.47042 0.139879 0.103441
0.479698 0.144457 0.106249
0.488823 0.148928 0.109499
0.497826 0.153368 0.112718
0.506462 0.157321 0.116884
0.514961 0.161242 0.121035
0.523339 0.165225 0.125261
0.531716 0.16965 0.12987
0.539574 0.175113 0.134157
0.546929 0.181003 0.138262
0.554299 0.187015 0.14258
0.561547 0.19295 0.146731
0.568566 0.198871 0.150805
0.574838 0.204807 0.154665
0.581308 0.211032 0.158785
0.588632 0.218326 0.164034
0.596017 0.225406 0.169726
0.60322 0.232654 0.175219
0.610101 0.240238 0.180362
0.0372473 0.0700236 0.0370489
0.0631418 0.074403 0.041001
0.0672923 0.0754864 0.0403449
0.0718242 0.0766613 0.0403143
0.0760815 0.077409 0.0405432
0.079881 0.0782788 0.040177
0.0836652 0.0795911 0.0400854
0.0880446 0.0806134 0.0406195
0.0940414 0.0818799 0.0396887
0.0998856 0.0830243 0.0388647
0.105684 0.0838636 0.0397498
0.110735 0.0841077 0.0396887
0.11722 0.0851911 0.0393988
0.123201 0.0861067 0.0393988
0.130831 0.0869459 0.0405585
0.138186 0.0880903 0.0416266
0.14612 0.089662 0.0429389
0.154559 0.0908675 0.0434882
0.163943 0.0918441 0.0442664
0.174456 0.0932174 0.0458076
0.184695 0.0944686 0.0474861
0.195529 0.0956283 0.0489815
0.206943 0.0966049 0.0509499
0.218494 0.0978103 0.0529335
0.230701 0.099443 0.054963
0.242939 0.101274 0.0576791
0.255924 0.102419 0.0593271
0.269276 0.103151 0.0603647
0.282063 0.10428 0.0618601
0.293782 0.105898 0.0637217
0.305196 0.107607 0.0656596
0.31635 0.109392 0.067689
0.327398 0.111131 0.0702678
0.338186 0.112886 0.0729534
0.349554 0.115099 0.0758221
0.360708 0.116487 0.0776684
0.371664 0.117525 0.079118
0.38262 0.119402 0.0806439
0.393301 0.121614 0.0825513
0.403647 0.124392 0.0851148
0.413809 0.127153 0.0876326
0.423789 0.129915 0.090135
0.433463 0.132708 0.0933089
0.442985 0.1355 0.0966659
0.452705 0.138552 0.0998093
0.462486 0.141863 0.1028
0.471489 0.146624 0.106065
0.480476 0.151263 0.109163
0.48957 0.155642 0.112123
0.498527 0.159915 0.115343
0.507149 0.163684 0.119478
0.515785 0.167712 0.12372
0.524605 0.172396 0.128466
0.533303 0.177035 0.133165
0.54107 0.182467 0.137377
0.548531 0.188083 0.141436
0.555886 0.193668 0.145327
0.563165 0.199252 0.149126
0.570199 0.205051 0.153109
0.577585 0.212299 0.158267
0.584909 0.219486 0.163378
0.592264 0.22649 0.168933
0.599573 0.233402 0.174533
0.606668 0.240513 0.179904
0.613489 0.247929 0.184939
0.0424506 0.0781415 0.0416419
0.0679179 0.0821393 0.0458686
0.0718242 0.0832074 0.0446174
0.0753338 0.0836194 0.0442969
0.0793011 0.0843977 0.0444343
0.0835737 0.0856794 0.044358
0.0877394 0.0868849 0.0443275
0.0919661 0.0874342 0.0442817
0.0965438 0.0878309 0.0439612
0.102205 0.0889754 0.0428168
0.107836 0.0902419 0.0412604
0.11342 0.0910353 0.0408026
0.12015 0.0923781 0.0411536
0.126802 0.0934615 0.0420844
0.134524 0.0940108 0.0431525
0.142123 0.0946059 0.0442206
0.150332 0.0960861 0.0453193
0.15816 0.0973068 0.0464027
0.167407 0.0981308 0.0474098
0.177676 0.0988022 0.0489204
0.187716 0.0998856 0.0506142
0.198047 0.101595 0.0515602
0.20885 0.103212 0.053727
0.220554 0.104479 0.0556497
0.232715 0.106035 0.057496
0.244541 0.107149 0.0589609
0.256718 0.108186 0.0617227
0.269764 0.109026 0.0632334
0.282399 0.110079 0.0649729
0.295262 0.111727 0.0669261
0.307683 0.113542 0.0691539
0.318669 0.115373 0.071397
0.329992 0.116854 0.0737621
0.340627 0.118547 0.0762798
0.350988 0.120348 0.0786603
0.361517 0.122133 0.0801404
0.372305 0.123751 0.0814374
0.383169 0.125475 0.0828717
0.393774 0.127687 0.0848554
0.404074 0.130327 0.0873579
0.414206 0.132982 0.0898451
0.424445 0.135866 0.0927749
0.434836 0.138872 0.0955673
0.444877 0.141955 0.0986648
0.45478 0.145037 0.101747
0.464424 0.148363 0.104845
0.473396 0.152956 0.108156
0.482231 0.157534 0.111437
0.490944 0.162066 0.114687
0.500053 0.166155 0.118395
0.508782 0.171344 0.122728
0.517662 0.175875 0.127428
0.526436 0.180377 0.132097
0.535088 0.184878 0.136721
0.542718 0.190234 0.14081
0.550149 0.195682 0.144808
0.55761 0.201236 0.148943
0.565606 0.207385 0.153674
0.573434 0.213886 0.158465
0.581018 0.221103 0.163394
0.588602 0.228153 0.168658
0.596094 0.23505 0.174105
0.603326 0.241794 0.179614
0.61033 0.248798 0.184848
0.617136 0.256138 0.189746
0.0495308 0.0858015 0.0468452
0.0709392 0.0887312 0.0485389
0.0756542 0.0894789 0.0483864
0.0790417 0.0899367 0.0481575
0.0831464 0.0912642 0.0480201
0.0873426 0.0926528 0.0479286
0.091371 0.0936294 0.0484321
0.0956588 0.0941024 0.0480354
0.0997635 0.0945907 0.0476997
0.104723 0.0959793 0.0468147
0.110323 0.0973068 0.0452888
0.116808 0.097673 0.0440223
0.123583 0.0981613 0.0436866
0.130312 0.0992294 0.0446937
0.136965 0.100175 0.0466316
0.14432 0.100771 0.0480049
0.152377 0.10219 0.0490578
0.160739 0.104097 0.0501564
0.170748 0.104616 0.0509957
0.180713 0.10515 0.0523079
0.190768 0.105653 0.0532998
0.2009 0.106966 0.0538033
0.211398 0.108415 0.0557259
0.223377 0.11017 0.0564126
0.235737 0.111879 0.0569314
0.247501 0.113008 0.0583352
0.259312 0.114015 0.0619974
0.270909 0.115038 0.0655833
0.282795 0.116136 0.0684367
0.295628 0.117906 0.0708019
0.308446 0.119722 0.0732433
0.320851 0.121492 0.0755016
0.332097 0.123049 0.0766766
0.342641 0.124743 0.0788586
0.352926 0.126436 0.0811017
0.363439 0.128145 0.0822766
0.3738 0.129854 0.0834363
0.384085 0.131655 0.0849012
0.394705 0.134051 0.0874647
0.40531 0.136706 0.0901503
0.415854 0.13962 0.0931716
0.426246 0.142519 0.0961318
0.436835 0.145327 0.0986496
0.446998 0.148425 0.101534
0.456977 0.151553 0.104448
0.466499 0.15494 0.107515
0.475471 0.159426 0.11107
0.484367 0.163912 0.114855
0.493156 0.168353 0.118608
0.50193 0.17293 0.122484
0.510872 0.178088 0.127001
0.519677 0.183215 0.131502
0.528374 0.188296 0.135958
0.536965 0.192996 0.140444
0.544869 0.198672 0.14493
0.552987 0.204669 0.149798
0.561013 0.210636 0.15465
0.568948 0.216587 0.159411
0.576684 0.223011 0.164111
0.584268 0.229953 0.169223
0.591836 0.236759 0.174578
0.599329 0.243534 0.179889
0.606973 0.250843 0.185367
0.614252 0.258106 0.19028
0.621134 0.265034 0.194705
0.0547646 0.0931716 0.052079
0.0740673 0.096437 0.0531777
0.0790265 0.0965133 0.0528115
0.0825971 0.0971084 0.0526131
0.0865339 0.0983597 0.0524758
0.0905623 0.0996719 0.052369
0.0947127 0.100481 0.0521706
0.0990768 0.101198 0.0515908
0.103548 0.102052 0.0510567
0.108476 0.103502 0.0503395
0.113497 0.104891 0.0496681
0.120302 0.104875 0.0487526
0.127092 0.104784 0.0478218
0.133913 0.105562 0.0481575
0.140307 0.1066 0.0501106
0.147387 0.107424 0.0513771
0.155657 0.108721 0.0521553
0.16408 0.110628 0.0531167
0.173083 0.111482 0.0543984
0.182666 0.112184 0.0559548
0.192874 0.112505 0.0565805
0.203418 0.112749 0.0566262
0.213672 0.113664 0.057908
0.226001 0.115496 0.0581979
0.238193 0.117571 0.0586557
0.250355 0.119295 0.0595102
0.262684 0.120394 0.0631571
0.274464 0.121569 0.0676127
0.286046 0.122896 0.0714122
0.297444 0.124529 0.0737316
0.309438 0.126238 0.0759289
0.321462 0.127871 0.0777447
0.332555 0.12932 0.0787823
0.343694 0.130953 0.0804608
0.355062 0.133059 0.082887
0.365698 0.135195 0.0850385
0.376104 0.137301 0.0869764
0.386343 0.139437 0.0889296
0.396902 0.141695 0.0914168
0.407446 0.14403 0.0940566
0.417853 0.146487 0.0967727
0.428244 0.149248 0.0996109
0.438758 0.151934 0.102052
0.448936 0.155154 0.10486
0.458701 0.158755 0.108064
0.468299 0.162478 0.111513
0.477684 0.166415 0.115343
0.486778 0.170489 0.119097
0.495598 0.174975 0.12311
0.504341 0.179782 0.127398
0.513069 0.18471 0.131487
0.521981 0.189929 0.136034
0.531273 0.195834 0.141024
0.540398 0.201755 0.145968
0.548547 0.208072 0.150881
0.556603 0.214359 0.155764
0.564569 0.22034 0.160555
0.572427 0.226093 0.16527
0.580148 0.232349 0.170245
0.587732 0.239033 0.175509
0.595575 0.246555 0.181003
0.603357 0.254108 0.186496
0.611078 0.261616 0.191959
0.618219 0.268635 0.196674
0.62501 0.275364 0.200977
0.0612345 0.10164 0.0569162
0.0783246 0.10396 0.0576181
0.0831769 0.104067 0.0573434
0.086717 0.10457 0.0573892
0.0905165 0.105714 0.0573587
0.0943923 0.106935 0.0570382
0.0978256 0.107622 0.0556954
0.102052 0.108324 0.0552071
0.107332 0.109316 0.0552529
0.112535 0.110597 0.0550698
0.117937 0.11162 0.0544289
0.124025 0.111742 0.054078
0.130617 0.111833 0.0533913
0.137331 0.112993 0.0531014
0.143587 0.114488 0.0522774
0.151141 0.115053 0.0529946
0.158892 0.115679 0.0541543
0.166949 0.116732 0.0561227
0.175875 0.117922 0.0575113
0.185275 0.11931 0.0595865
0.195605 0.120363 0.0602121
0.205997 0.120912 0.0601663
0.216464 0.121813 0.0608225
0.228168 0.123003 0.0622568
0.240238 0.125017 0.0637064
0.252735 0.126696 0.0653544
0.265629 0.12755 0.0679637
0.278309 0.12845 0.0705882
0.289815 0.129747 0.0738842
0.300984 0.131441 0.0763409
0.311879 0.133425 0.0784924
0.323049 0.135317 0.0800488
0.334462 0.137133 0.0811017
0.345708 0.138979 0.0822614
0.357046 0.141115 0.0848554
0.367926 0.143282 0.0881208
0.378637 0.145464 0.0914321
0.388968 0.14757 0.093843
0.39939 0.149905 0.095964
0.409964 0.152117 0.0985733
0.420523 0.154376 0.101228
0.430716 0.157031 0.103899
0.440391 0.160479 0.1066
0.450523 0.163622 0.109285
0.460319 0.166979 0.112276
0.469856 0.170626 0.11574
0.479194 0.174411 0.119493
0.488563 0.1785 0.123903
0.498116 0.182971 0.128801
0.507759 0.188083 0.133486
0.516777 0.193515 0.137407
0.526101 0.199283 0.142306
0.535317 0.205035 0.147189
0.544244 0.210849 0.152026
0.552316 0.216999 0.156832
0.560311 0.223117 0.161608
0.5682 0.229206 0.166354
0.576226 0.235798 0.171618
0.584283 0.243137 0.177172
0.592187 0.250492 0.182605
0.59997 0.257801 0.187961
0.607675 0.265064 0.193301
0.615305 0.272297 0.198611
0.622278 0.27895 0.203067
0.628992 0.285405 0.207218
0.06804 0.110216 0.0621805
0.0835584 0.11194 0.0624704
0.088426 0.111879 0.062211
0.0917525 0.112535 0.0623636
0.0951095 0.113237 0.0625467
0.0984817 0.114275 0.0614328
0.10164 0.115099 0.0599374
0.105592 0.115831 0.0593576
0.110933 0.116945 0.059678
0.116503 0.118288 0.0602121
0.122164 0.119493 0.0598917
0.128023 0.119829 0.059678
0.134234 0.120058 0.0586862
0.140749 0.12105 0.0580453
0.147097 0.122606 0.0569619
0.154635 0.123827 0.0574197
0.162173 0.124559 0.0586404
0.170565 0.125582 0.0602731
0.179324 0.12668 0.0616007
0.188434 0.127855 0.0630808
0.198688 0.128786 0.0632944
0.209033 0.129824 0.0639658
0.219959 0.130816 0.0650034
0.231739 0.132113 0.0670787
0.243427 0.13344 0.0691844
0.255634 0.134905 0.0711376
0.268513 0.13608 0.0733501
0.281193 0.13727 0.0757
0.292699 0.138705 0.0773632
0.303716 0.140276 0.0790723
0.314504 0.142138 0.0812238
0.325734 0.143862 0.082536
0.337041 0.145556 0.0835431
0.348165 0.147265 0.0845655
0.359182 0.149187 0.0869001
0.370199 0.1514 0.0906539
0.381079 0.153658 0.0944228
0.391836 0.155932 0.098085
0.402777 0.15819 0.100832
0.413397 0.160403 0.103456
0.423835 0.162539 0.10602
0.433829 0.165286 0.108614
0.443397 0.168612 0.111208
0.452811 0.171954 0.113802
0.462165 0.175265 0.116457
0.472099 0.179324 0.120241
0.482246 0.183978 0.125002
0.492287 0.188647 0.129778
0.50219 0.193301 0.134508
0.511727 0.198367 0.139116
0.520974 0.203647 0.143633
0.530144 0.209033 0.14815
0.539254 0.214679 0.152682
0.547982 0.220401 0.157366
0.556085 0.226627 0.162188
0.564263 0.233097 0.167239
0.572427 0.239918 0.172671
0.580545 0.24683 0.178241
0.58851 0.254017 0.183658
0.596384 0.261295 0.189014
0.604212 0.268345 0.194415
0.611963 0.275349 0.199802
0.619562 0.282353 0.205081
0.626673 0.289158 0.209522
0.634241 0.296681 0.214282
0.0730144 0.119188 0.0670787
0.0876783 0.121248 0.0666361
0.0920882 0.121462 0.0658732
0.0951858 0.122194 0.0659648
0.0989548 0.12311 0.0658732
0.102937 0.124285 0.0657206
0.106111 0.124987 0.0645304
0.110674 0.125246 0.065507
0.115267 0.125551 0.0661631
0.120638 0.126879 0.0662852
0.126055 0.128313 0.0661479
0.131655 0.129183 0.0656596
0.137911 0.129366 0.0641031
0.144137 0.12961 0.0626383
0.150988 0.130648 0.0626078
0.158389 0.13196 0.0630655
0.165774 0.133227 0.063447
0.174578 0.134249 0.06421
0.183215 0.135286 0.0656291
0.192798 0.136446 0.0668956
0.203311 0.13753 0.0678416
0.213581 0.138582 0.0684977
0.22501 0.139712 0.0701915
0.236683 0.140978 0.0719005
0.248203 0.142199 0.07393
0.260334 0.143664 0.0757153
0.272084 0.145113 0.0775921
0.284016 0.146304 0.0797284
0.295109 0.147677 0.0811017
0.306081 0.149065 0.0825055
0.317357 0.150561 0.0848096
0.328756 0.1523 0.0864729
0.340063 0.153964 0.0877089
0.351324 0.155718 0.0893873
0.362219 0.157595 0.0915999
0.373449 0.159625 0.0949874
0.384253 0.161746 0.0986648
0.394995 0.163882 0.102083
0.405844 0.166033 0.104768
0.416464 0.168276 0.107469
0.426688 0.170886 0.110307
0.436728 0.174395 0.113375
0.446555 0.178134 0.116381
0.456245 0.181888 0.119387
0.465873 0.18584 0.12282
0.476188 0.190326 0.126986
0.486595 0.194919 0.131563
0.496803 0.199481 0.136141
0.506615 0.203967 0.14078
0.515999 0.208942 0.145266
0.52517 0.214054 0.149691
0.534432 0.219821 0.154589
0.543709 0.226032 0.159686
0.552499 0.232197 0.164492
0.560647 0.238056 0.168902
0.568841 0.244587 0.174105
0.576959 0.251347 0.179583
0.584985 0.258076 0.185031
0.592874 0.265141 0.190326
0.600656 0.272221 0.195575
0.608423 0.279377 0.200839
0.616678 0.287053 0.20647
0.624857 0.294713 0.212085
0.632761 0.30222 0.217151
0.640604 0.309682 0.222187
0.07776 0.128847 0.0710613
0.091722 0.131136 0.0703899
0.0962234 0.131197 0.0702831
0.0998856 0.13138 0.0700999
0.103731 0.132342 0.0700389
0.107637 0.133684 0.0701915
0.111742 0.134493 0.0711986
0.116075 0.134722 0.0721294
0.120165 0.134722 0.0725414
0.12491 0.135607 0.0723125
0.130175 0.137087 0.0721599
0.135775 0.13846 0.0719463
0.141726 0.139254 0.0713512
0.147875 0.139498 0.0701152
0.155169 0.140261 0.0696422
0.162387 0.141299 0.0697185
0.170428 0.142168 0.0699474
0.17908 0.142885 0.0693065
0.18761 0.143755 0.0697185
0.197787 0.144915 0.0706645
0.208286 0.146059 0.0720226
0.218708 0.147173 0.0733196
0.230335 0.148257 0.075288
0.241703 0.149584 0.0770275
0.25304 0.150942 0.0784314
0.264775 0.152392 0.0800183
0.276402 0.153903 0.0817731
0.287495 0.155169 0.0835584
0.299062 0.156237 0.0849622
0.31014 0.157504 0.0863813
0.321172 0.158877 0.0880293
0.33254 0.160708 0.0906233
0.34374 0.16257 0.0932174
0.354864 0.164263 0.0950637
0.365469 0.166033 0.0971542
0.376318 0.16791 0.100023
0.387518 0.170214 0.103639
0.398383 0.172839 0.1066
0.409186 0.175509 0.109453
0.419852 0.17821 0.112352
0.430182 0.181186 0.115328
0.44036 0.184924 0.118807
0.450446 0.188891 0.122545
0.460349 0.193011 0.126619
0.469932 0.196979 0.130343
0.480232 0.201358 0.134112
0.490501 0.205768 0.138399
0.500816 0.210422 0.142947
0.511116 0.215305 0.147585
0.520958 0.221637 0.153048
0.530373 0.227558 0.158114
0.539605 0.233371 0.163073
0.548745 0.23917 0.168032
0.557336 0.245121 0.172793
0.565515 0.251255 0.17763
0.573602 0.257389 0.182467
0.581613 0.263508 0.187289
0.589654 0.269734 0.192142
0.598001 0.277424 0.197559
0.606256 0.285161 0.203037
0.614435 0.292882 0.208499
0.622553 0.300542 0.213931
0.63061 0.307973 0.219394
0.638437 0.315267 0.224353
0.646311 0.322393 0.229618
0.0830701 0.140154 0.0759136
0.0978256 0.141512 0.0771801
0.102266 0.141527 0.0767224
0.105699 0.141588 0.0760357
0.10927 0.142016 0.0756237
0.113069 0.14287 0.0763867
0.117006 0.143587 0.0775616
0.121126 0.144228 0.0787213
0.125444 0.144594 0.0787518
0.129839 0.145113 0.078584
0.1346 0.145922 0.0783551
0.140261 0.147051 0.0781415
0.145953 0.148241 0.0780957
0.152224 0.149432 0.0779126
0.15938 0.150256 0.0774395
0.166567 0.151095 0.0770123
0.174868 0.151934 0.0766308
0.183337 0.152819 0.076112
0.191943 0.153735 0.0757458
0.201724 0.154635 0.0764172
0.211826 0.155947 0.0778973
0.222751 0.157046 0.0794842
0.234882 0.157885 0.0809186
0.246098 0.15906 0.0827192
0.257389 0.160296 0.0839094
0.268742 0.161517 0.0848402
0.280034 0.162814 0.0860609
0.291432 0.163973 0.0876173
0.302754 0.164981 0.0890822
0.313924 0.166003 0.0905776
0.325246 0.167529 0.0925002
0.336599 0.169665 0.0951553
0.347662 0.171862 0.0979782
0.358709 0.174121 0.100954
0.370443 0.176638 0.104875
0.38117 0.178866 0.107515
0.39237 0.181231 0.111192
0.402991 0.183749 0.11368
0.413245 0.186358 0.115633
0.423362 0.188983 0.117632
0.433814 0.191623 0.120577
0.444022 0.195712 0.124804
0.454108 0.199802 0.129046
0.464454 0.204456 0.133654
0.474754 0.209171 0.138201
0.485069 0.213672 0.142153
0.495369 0.218326 0.146029
0.505699 0.223041 0.150576
0.515892 0.227863 0.155154
0.525597 0.23415 0.160586
0.53521 0.240406 0.165988
0.544701 0.246647 0.171359
0.553872 0.252827 0.176913
0.562371 0.258671 0.181796
0.570809 0.264988 0.186603
0.579278 0.271443 0.19144
0.587655 0.277882 0.196262
0.595972 0.284428 0.201114
0.604242 0.291829 0.20618
0.612451 0.299214 0.211246
0.620569 0.306569 0.216297
0.62858 0.314046 0.221622
0.636515 0.321401 0.226932
0.644373 0.328374 0.232105
0.652232 0.335393 0.237339
0.089189 0.15082 0.0816968
0.103685 0.152041 0.08336
0.107958 0.152209 0.0829023
0.111223 0.1523 0.0822766
0.114961 0.152407 0.0821698
0.1187 0.152972 0.082948
0.122515 0.15375 0.0840925
0.126513 0.154299 0.0847334
0.130785 0.154879 0.0848707
0.134997 0.155413 0.0846113
0.140215 0.156359 0.0849317
0.1458 0.157351 0.0846113
0.151415 0.158587 0.0846113
0.157839 0.159945 0.0849775
0.164279 0.1608 0.0849775
0.171572 0.161639 0.0844434
0.1794 0.162692 0.083772
0.187427 0.163851 0.0830549
0.196384 0.164584 0.0830701
0.205783 0.165255 0.0835279
