assets/luts/ETERNA-BB.cube
TITLE "Generated by Resolve"
LUT_3D_SIZE 9
0 0 0
0.0687266 0.0153201 0.0129397
0.118486 0.0343328 0.0252384
0.201007 0.0543374 0.0425269
0.321172 0.0718547 0.0597238
0.410971 0.0899062 0.0767071
0.483162 0.114656 0.0972305
0.54374 0.153185 0.126802
0.594873 0.196399 0.157122
0.0612345 0.10164 0.0569162
0.107332 0.109316 0.0552529
0.158892 0.115679 0.0541543
0.240238 0.125017 0.0637064
0.334462 0.137133 0.0811017
0.420523 0.154376 0.101228
0.498116 0.182971 0.128801
0.5682 0.229206 0.166354
0.628992 0.285405 0.207218
0.109682 0.188998 0.100374
0.149035 0.191287 0.103655
0.196933 0.200061 0.107866
0.27953 0.209598 0.114672
0.368261 0.222492 0.128313
0.456336 0.248997 0.156237
0.53872 0.289662 0.195285
0.615732 0.339803 0.234211
0.682857 0.395148 0.276219
0.183261 0.331716 0.16849
0.221439 0.333593 0.174655
0.273716 0.338033 0.185672
0.34931 0.351904 0.198413
0.432944 0.369726 0.21709
0.522896 0.399969 0.246708
0.607416 0.437552 0.280705
0.68278 0.480308 0.316426
0.743725 0.52488 0.353506
0.287251 0.487709 0.26041
0.329809 0.490883 0.268147
0.381842 0.497734 0.281315
0.448997 0.511421 0.299962
0.525521 0.532189 0.319783
0.60676 0.558923 0.34139
0.682689 0.588418 0.370077
0.744076 0.617212 0.3944
0.794263 0.642649 0.414298
0.405066 0.631647 0.35613
0.444968 0.635859 0.36318
0.490105 0.642527 0.373968
0.548592 0.653712 0.388128
0.612238 0.669093 0.406851
0.67718 0.687633 0.422034
0.739071 0.707546 0.433631
0.790616 0.724956 0.446281
0.829389 0.740459 0.456809
0.506401 0.739452 0.437446
0.539269 0.744808 0.44123
0.574914 0.750927 0.447974
0.623789 0.759228 0.455207
0.675959 0.769284 0.465019
0.73022 0.78088 0.476265
0.777584 0.791684 0.481971
0.817746 0.800839 0.487419
0.849546 0.810376 0.492149
0.583551 0.81236 0.50106
0.611215 0.817594 0.504509
0.640421 0.821653 0.506722
0.67834 0.827985 0.509896
0.721645 0.834318 0.514656
0.765225 0.840726 0.521248
0.803403 0.846571 0.526207
0.836316 0.851575 0.528481
0.864057 0.85684 0.529671
0.645365 0.861723 0.552438
0.666194 0.864912 0.553384
0.690303 0.868574 0.5552
0.722423 0.871366 0.556695
0.754757 0.87631 0.561456
0.791302 0.881468 0.564721
0.823758 0.884077 0.567346
0.851423 0.888106 0.569726
0.874571 0.890623 0.569009
0.0105745 0.0135653 0.0493324
0.0855573 0.0362249 0.073167
0.140826 0.053254 0.0910658
0.24683 0.0728466 0.11165
0.357809 0.0871443 0.128237
0.441428 0.106905 0.14493
0.514336 0.137072 0.171084
0.57258 0.177951 0.201709
0.622568 0.22594 0.236698
0.0737621 0.121721 0.119966
0.127581 0.127581 0.127581
0.185595 0.134401 0.132006
0.275547 0.143069 0.144045
0.37026 0.157473 0.160052
0.456367 0.178256 0.180331
0.533104 0.212146 0.209827
0.598596 0.261311 0.245914
0.659754 0.315541 0.281041
0.126589 0.218692 0.169619
0.168322 0.218387 0.170825
0.223011 0.225223 0.176349
0.312261 0.234958 0.185245
0.402991 0.250263 0.203159
0.491936 0.280034 0.231617
0.57258 0.320211 0.266926
0.648676 0.368429 0.302159
0.709651 0.420661 0.339086
0.206226 0.364584 0.243122
0.246662 0.364508 0.244175
0.303151 0.36878 0.253407
0.379187 0.379263 0.265461
0.466545 0.398993 0.28098
0.556176 0.426383 0.308293
0.639078 0.462943 0.342
0.710201 0.503304 0.376226
0.764691 0.542245 0.403861
0.309361 0.51368 0.33785
0.353155 0.515648 0.341482
0.405783 0.522881 0.349523
0.474601 0.534249 0.363806
0.551553 0.555047 0.380789
0.631769 0.578531 0.399176
0.704295 0.60415 0.422171
0.762387 0.629602 0.442618
0.807782 0.654292 0.457786
0.420233 0.647623 0.428367
0.462165 0.652949 0.436408
0.506493 0.657801 0.443229
0.563729 0.66836 0.453285
0.627619 0.682689 0.464881
0.692729 0.699916 0.4757
0.751873 0.715892 0.485695
0.802563 0.732479 0.493843
0.841108 0.746456 0.500771
0.515862 0.749233 0.504021
0.548806 0.754299 0.507881
0.585611 0.759686 0.510964
0.6327 0.766903 0.518395
0.686717 0.776165 0.525109
0.738994 0.786847 0.532677
0.786099 0.795834 0.536324
0.826047 0.805081 0.53695
0.859434 0.812482 0.539147
0.5879 0.81886 0.559014
0.614481 0.821759 0.560464
0.645441 0.826154 0.564233
0.684428 0.831907 0.567147
0.728237 0.837217 0.571511
0.770642 0.84303 0.575006
0.808255 0.849042 0.57847
0.841886 0.854566 0.578622
0.868208 0.858946 0.579492
0.648737 0.864912 0.60145
0.670268 0.867414 0.603998
0.694499 0.870481 0.606439
0.725704 0.875044 0.608972
0.75967 0.879271 0.612009
0.794522 0.882399 0.613931
0.827939 0.886503 0.614893
0.853986 0.888045 0.615763
0.878889 0.891051 0.615961
0.024445 0.0288701 0.0811475
0.100191 0.0500801 0.108629
0.165698 0.0702678 0.132662
0.281498 0.0878004 0.162036
0.386557 0.103624 0.179416
0.469108 0.12546 0.19884
0.539864 0.160784 0.226612
0.596613 0.204044 0.260121
0.645624 0.253529 0.294316
0.0874189 0.14136 0.184482
0.142748 0.146838 0.186374
0.203876 0.154726 0.191516
0.300145 0.166781 0.205844
0.39791 0.179431 0.220661
0.486458 0.204822 0.244587
0.562814 0.241886 0.274617
0.62797 0.290639 0.309728
0.687541 0.344457 0.345541
0.144793 0.250736 0.251911
0.190982 0.248936 0.247669
0.254337 0.254337 0.254337
0.343633 0.26508 0.260868
0.437537 0.282094 0.276127
0.526879 0.313451 0.305425
0.608225 0.352956 0.337453
0.677699 0.400443 0.371725
0.735424 0.446967 0.403937
0.231373 0.398062 0.333989
0.275486 0.397681 0.333059
0.334462 0.401419 0.337545
0.411276 0.412757 0.348363
0.501579 0.431373 0.362234
0.591409 0.458137 0.387732
0.672053 0.492592 0.416205
0.736873 0.527672 0.443702
0.788052 0.562051 0.468299
0.330617 0.541955 0.421469
0.377722 0.544045 0.425605
0.433112 0.549981 0.432609
0.50135 0.56228 0.444724
0.576318 0.57908 0.458244
0.656962 0.600259 0.472786
0.726497 0.62359 0.488869
0.783078 0.644327 0.504509
0.828046 0.667185 0.516594
0.436347 0.664775 0.503487
0.477592 0.66865 0.508843
0.523003 0.674952 0.514946
0.580575 0.685191 0.524285
0.645319 0.69807 0.53492
0.708797 0.712245 0.542611
0.767727 0.728923 0.545693
0.816983 0.740887 0.552605
0.853056 0.752377 0.557977
0.52311 0.759335 0.567468
0.556405 0.763256 0.571099
0.595087 0.768505 0.575631
0.642222 0.775906 0.580804
0.695262 0.783734 0.585641
0.748623 0.793393 0.593668
0.794491 0.801022 0.593606
0.834913 0.810162 0.592004
0.866651 0.815824 0.593149
0.59295 0.82298 0.613977
0.619821 0.826215 0.6168
0.649393 0.830579 0.620035
0.689219 0.836027 0.622599
0.73341 0.841367 0.626413
0.775723 0.846281 0.629664
0.814099 0.852338 0.632334
0.847349 0.85713 0.631144
0.874983 0.861357 0.629313
0.650111 0.867002 0.650507
0.673182 0.870085 0.65388
0.698573 0.873167 0.656703
0.728817 0.877012 0.658228
0.765347 0.880751 0.661662
0.800305 0.884169 0.662104
0.831144 0.88716 0.662028
0.859983 0.889769 0.663218
0.882506 0.891905 0.661524
0.0457771 0.0492256 0.124392
0.119966 0.0716869 0.160845
0.198657 0.0879988 0.195422
0.319219 0.109239 0.232029
0.418296 0.128054 0.256443
0.502983 0.156374 0.282948
0.573541 0.194354 0.315724
0.628229 0.238788 0.348333
0.679896 0.288518 0.382712
0.106264 0.168917 0.284321
0.167056 0.172473 0.279744
0.238285 0.181262 0.286213
0.335042 0.195102 0.296147
0.433661 0.216632 0.31667
0.521904 0.246067 0.340871
0.600412 0.286671 0.372473
0.666392 0.333242 0.405386
0.719768 0.382605 0.437797
0.173098 0.29247 0.35668
0.222187 0.290806 0.350134
0.289021 0.295369 0.353384
0.37998 0.308248 0.364767
0.472343 0.33019 0.383948
0.565423 0.360922 0.409735
0.647654 0.397742 0.439261
0.714565 0.440726 0.470649
0.766339 0.481529 0.497917
0.260471 0.438453 0.433478
0.307683 0.436957 0.432181
0.371206 0.44213 0.439353
0.45481 0.45481 0.45481
0.544488 0.470527 0.467948
0.630335 0.496529 0.489464
0.706142 0.527169 0.513787
0.764813 0.55668 0.534859
0.812787 0.58677 0.552529
0.354345 0.57171 0.51194
0.403754 0.574411 0.515969
0.459693 0.580652 0.52163
0.530449 0.591485 0.534188
0.605966 0.607889 0.546731
0.683742 0.625757 0.557687
0.752453 0.644038 0.572442
0.805859 0.662638 0.584115
0.847944 0.681773 0.594537
0.452934 0.684688 0.582986
0.493111 0.689189 0.586694
0.539406 0.695659 0.592645
0.599542 0.704097 0.601709
0.663554 0.715709 0.611978
0.725795 0.728344 0.616571
0.784207 0.740658 0.618463
0.831388 0.751156 0.623774
0.86595 0.759976 0.627466
0.530129 0.769436 0.634379
0.564935 0.773556 0.638376
0.603693 0.778347 0.643076
0.651499 0.785382 0.647715
0.705699 0.793027 0.655604
0.758297 0.800778 0.659739
0.803449 0.808377 0.659113
0.843748 0.815732 0.656138
0.876799 0.821286 0.654017
0.597086 0.828962 0.673716
0.625376 0.832441 0.67689
0.656535 0.836576 0.680064
0.695567 0.841108 0.683009
0.739788 0.845991 0.68809
0.782818 0.851743 0.690562
0.820996 0.855802 0.692012
0.853529 0.860609 0.689296
0.882261 0.863966 0.685771
0.654108 0.870741 0.706218
0.675258 0.873289 0.707454
0.699748 0.876081 0.70927
0.733455 0.880278 0.712306
0.768887 0.882734 0.715908
0.805066 0.887327 0.717327
0.836088 0.889464 0.717433
0.864912 0.8916 0.718257
0.886748 0.893141 0.713405
0.0745861 0.0728008 0.193225
0.146166 0.0912947 0.241367
0.240482 0.112657 0.287114
0.359915 0.134279 0.325475
0.459358 0.158587 0.349065
0.542901 0.192035 0.380911
0.610925 0.234607 0.415702
0.666056 0.278294 0.447532
0.717311 0.330602 0.482155
0.130907 0.201617 0.38114
0.194751 0.205188 0.3776
0.276982 0.215503 0.383688
0.378851 0.231617 0.398016
0.477333 0.257618 0.417273
0.56553 0.293141 0.445518
0.641718 0.334279 0.476143
0.703243 0.378988 0.506539
0.754894 0.427359 0.538125
0.201846 0.335897 0.452827
0.255879 0.335241 0.448951
0.33138 0.341604 0.454536
0.423865 0.356725 0.466209
0.519112 0.380133 0.48716
0.608118 0.409766 0.51339
0.683864 0.445731 0.541375
0.745571 0.483742 0.568338
0.792477 0.517617 0.587533
0.287144 0.476173 0.521706
0.338659 0.476432 0.523339
0.406729 0.482994 0.53225
0.488991 0.495308 0.546319
0.575525 0.51342 0.563653
0.659281 0.538048 0.586297
0.731517 0.563958 0.606912
0.790112 0.587381 0.622782
0.835065 0.609781 0.637751
0.375265 0.600992 0.590112
0.427375 0.603769 0.595407
0.486152 0.611414 0.605615
0.557916 0.621134 0.617884
0.634852 0.634852 0.634852
0.709682 0.651743 0.645899
0.775189 0.666697 0.656672
0.826429 0.682048 0.6663
0.863233 0.696193 0.671183
0.463279 0.704112 0.650294
0.508202 0.708614 0.65771
0.554437 0.716152 0.663569
0.614023 0.722911 0.673457
0.678859 0.732067 0.683177
0.740444 0.742916 0.689647
0.798566 0.752514 0.692561
0.842374 0.760678 0.695521
0.879301 0.768154 0.696986
0.536294 0.779675 0.694682
0.571603 0.78352 0.699809
0.611841 0.788342 0.705104
0.660349 0.795789 0.711849
0.714672 0.80174 0.71809
0.766812 0.809323 0.724254
0.8121 0.815915 0.724361
0.85362 0.821698 0.720119
0.884062 0.826139 0.719112
0.60058 0.834958 0.728038
0.628504 0.83856 0.731533
0.660639 0.841871 0.735012
0.699977 0.847425 0.739757
0.745647 0.851621 0.745388
0.790173 0.856535 0.748775
0.827893 0.860166 0.752041
0.859525 0.863859 0.749706
0.887755 0.866621 0.74374
0.654871 0.87303 0.753414
0.677363 0.875944 0.756161
0.702785 0.879133 0.759106
0.734783 0.883177 0.762524
0.772427 0.885924 0.765743
0.808118 0.888838 0.768643
0.839216 0.890639 0.768322
0.86746 0.892042 0.768032
0.890013 0.894026 0.764141
0.102144 0.095079 0.28098
0.179004 0.115908 0.336202
0.288487 0.139376 0.388373
0.401358 0.163088 0.414862
0.500313 0.194446 0.443763
0.58172 0.232624 0.47567
0.648814 0.274144 0.509529
0.703609 0.323445 0.541039
0.751568 0.375433 0.573953
0.160845 0.239689 0.465675
0.229114 0.243824 0.46772
0.318273 0.256672 0.476432
0.422568 0.277028 0.489113
0.521218 0.304921 0.510704
0.610574 0.341527 0.540459
0.682612 0.380819 0.570657
0.741329 0.425238 0.599924
0.786191 0.466651 0.625559
0.229618 0.379858 0.530083
0.289433 0.378973 0.529839
0.371511 0.387427 0.540246
0.465934 0.402228 0.556374
0.561028 0.424979 0.579004
0.649989 0.45687 0.605554
0.7196 0.488136 0.630304
0.775143 0.520607 0.652674
0.81828 0.550546 0.670314
0.310323 0.511833 0.592645
0.366079 0.513802 0.597971
0.437659 0.520378 0.609033
0.522179 0.533898 0.625635
0.610773 0.55111 0.646067
0.691844 0.574472 0.66833
0.758129 0.597116 0.686961
0.807401 0.615808 0.699809
0.847547 0.634623 0.710887
0.392065 0.626749 0.650965
0.447471 0.630533 0.658915
0.506828 0.637629 0.670985
0.579309 0.648814 0.68603
0.654429 0.66128 0.701961
0.726162 0.675258 0.716976
0.785519 0.687999 0.728511
0.835111 0.700603 0.737041
0.872206 0.711147 0.741527
0.472877 0.719203 0.702556
0.516182 0.72343 0.709621
0.56553 0.730343 0.719799
0.626841 0.737591 0.731044
0.691173 0.746654 0.741833
0.755413 0.755413 0.755413
0.809216 0.764111 0.758267
0.85388 0.770504 0.761929
0.887739 0.776791 0.761395
0.540276 0.789319 0.742092
0.576944 0.793439 0.748074
0.617411 0.798535 0.755825
0.666941 0.804562 0.763043
0.721965 0.810971 0.771634
0.774304 0.816419 0.77847
0.820386 0.823194 0.781567
0.859129 0.826871 0.779553
0.890257 0.830472 0.778424
0.59971 0.839902 0.770199
0.628901 0.843458 0.775128
0.661646 0.84744 0.781643
0.704021 0.851621 0.788006
0.749905 0.856565 0.793133
0.794339 0.860945 0.797772
0.832761 0.864134 0.801144
0.864851 0.866667 0.800351
0.892485 0.868803 0.793515
0.65095 0.873655 0.789563
0.675776 0.877104 0.794415
0.701686 0.879927 0.798032
0.734356 0.883406 0.801617
0.771817 0.886412 0.807111
0.808225 0.889525 0.809049
0.840513 0.891447 0.811383
0.870115 0.893675 0.811917
0.892058 0.894499 0.807065
0.133394 0.121767 0.379126
0.220279 0.146548 0.433158
0.336706 0.172671 0.476478
0.444907 0.198718 0.498436
0.538521 0.233066 0.522988
0.619974 0.274159 0.557626
0.686305 0.320241 0.590311
0.739544 0.3691 0.624445
0.783627 0.418097 0.653681
0.193072 0.28159 0.533486
0.266224 0.287861 0.53846
0.360708 0.30248 0.54963
0.463874 0.325154 0.566064
0.563867 0.352605 0.591959
0.652598 0.389364 0.623987
0.720836 0.428321 0.652888
0.774639 0.467704 0.677836
0.813336 0.503029 0.697978
0.258762 0.418631 0.585702
0.323919 0.42153 0.593408
0.406928 0.430625 0.60708
0.503838 0.446464 0.629068
0.60145 0.471656 0.655131
0.686076 0.499077 0.680568
0.752575 0.52813 0.703761
0.801877 0.55201 0.721386
0.839551 0.576303 0.73521
0.330297 0.543145 0.642939
0.391348 0.547112 0.653376
0.464393 0.554696 0.667765
0.55111 0.567941 0.687816
0.638254 0.58587 0.710506
0.718181 0.604578 0.732616
0.780438 0.622538 0.748898
0.827039 0.638483 0.760784
0.861845 0.654688 0.770123
0.406958 0.647211 0.694789
0.461769 0.652399 0.704936
0.521202 0.660014 0.718883
0.596857 0.67071 0.737514
0.672465 0.68278 0.755871
0.742824 0.695644 0.771405
0.800702 0.706798 0.782788
0.844877 0.716793 0.791501
0.877394 0.725856 0.796017
0.478141 0.732662 0.740185
0.523522 0.737255 0.750225
0.574548 0.742901 0.762417
0.635248 0.751308 0.773587
0.701167 0.759411 0.788067
0.762798 0.768185 0.798962
0.814908 0.775769 0.808301
0.855741 0.78204 0.813153
0.889158 0.787442 0.814817
0.542641 0.796262 0.776791
0.579232 0.800305 0.783383
0.620264 0.80618 0.791501
0.670802 0.811627 0.800992
0.727764 0.818555 0.811566
0.781064 0.824186 0.818952
0.828687 0.828687 0.828687
0.865003 0.832425 0.827939
0.896025 0.834302 0.827329
0.598138 0.841489 0.800122
0.628428 0.844877 0.805371
0.662501 0.848829 0.811322
0.704524 0.854063 0.819577
0.75021 0.8589 0.82678
0.795392 0.862852 0.833387
0.835569 0.866148 0.837613
0.866804 0.868299 0.838865
0.893263 0.86978 0.834028
0.646708 0.873243 0.815641
0.669932 0.876478 0.818982
0.696803 0.879164 0.823987
0.73138 0.882506 0.830335
0.769512 0.885466 0.836439
0.805859 0.889281 0.840177
0.840223 0.891737 0.843702
0.869062 0.892973 0.844343
0.893355 0.89398 0.843366
0.169131 0.154025 0.472892
0.270802 0.183841 0.519188
0.37998 0.209567 0.54284
0.48336 0.238285 0.566033
0.576898 0.276051 0.592248
0.657008 0.317784 0.627756
0.722316 0.365393 0.661234
0.770336 0.412741 0.690898
0.810559 0.456641 0.715541
0.224537 0.323598 0.581277
0.303532 0.332906 0.589975
0.400626 0.348333 0.603494
0.504387 0.370306 0.628443
0.605417 0.401892 0.660731
0.690257 0.436622 0.691569
0.752682 0.470176 0.715831
0.799008 0.504204 0.736492
0.835889 0.532784 0.754223
0.284489 0.453422 0.627619
0.353002 0.459068 0.640345
0.439612 0.4701 0.660273
0.538399 0.486412 0.683787
0.633371 0.512184 0.71191
0.714015 0.536538 0.736812
0.777646 0.558892 0.75877
0.82266 0.580514 0.775235
0.857908 0.601038 0.787778
0.347845 0.568627 0.679438
0.413184 0.574166 0.692836
0.486 0.583871 0.709041
0.574533 0.596826 0.732219
0.661112 0.612909 0.757183
0.737224 0.62884 0.778775
0.796796 0.643977 0.794873
0.841962 0.658885 0.807385
0.874403 0.672618 0.814176
0.417029 0.664408 0.724788
0.472892 0.671031 0.738033
0.534569 0.678874 0.75491
0.610101 0.688991 0.774517
0.685786 0.700008 0.79292
0.75552 0.712062 0.811154
0.81181 0.721431 0.823499
0.854398 0.730129 0.831479
0.885771 0.739162 0.835966
0.481621 0.742596 0.767071
0.527962 0.747875 0.779126
0.580301 0.75465 0.791257
0.642786 0.762753 0.805676
0.709682 0.772152 0.821576
0.770443 0.778744 0.834134
0.822354 0.786145 0.845045
0.861936 0.790921 0.848981
0.892271 0.795972 0.851453
0.541451 0.800656 0.798184
0.578531 0.805417 0.807477
0.619898 0.809918 0.81622
0.672053 0.81651 0.827573
0.729412 0.823529 0.839582
0.782818 0.828656 0.847959
0.828611 0.832654 0.855833
0.866148 0.836423 0.861311
0.893431 0.838453 0.862226
0.593805 0.84094 0.819013
0.624582 0.844724 0.826673
0.658335 0.849088 0.833524
0.700481 0.854307 0.841154
0.747326 0.859297 0.850584
0.793713 0.863462 0.85716
0.834913 0.86656 0.865034
0.868452 0.868452 0.868452
0.893736 0.869871 0.866484
0.638911 0.871229 0.833448
0.66276 0.874495 0.837949
0.690944 0.877928 0.843137
0.725811 0.881682 0.850202
0.765148 0.885084 0.858351
0.80383 0.888228 0.863493
0.838758 0.890669 0.86772
0.868223 0.892454 0.870268
0.892485 0.893599 0.870222
0.213092 0.197391 0.544152
0.319615 0.225788 0.575036
0.42034 0.250004 0.593347
0.521172 0.283299 0.617227
0.614862 0.321126 0.649927
0.690044 0.363943 0.684031
0.749722 0.410071 0.71577
0.794415 0.451835 0.740383
0.832197 0.49099 0.761807
0.257923 0.36643 0.615152
0.342809 0.376745 0.629862
0.438453 0.392523 0.650492
0.541588 0.41474 0.677592
0.639658 0.444984 0.710597
0.716625 0.475853 0.737423
0.775616 0.50695 0.762219
0.820813 0.53315 0.782055
0.856367 0.558831 0.797559
0.308782 0.484871 0.659403
0.380301 0.491661 0.675319
0.467323 0.50486 0.697841
0.565759 0.522255 0.724727
0.65684 0.544198 0.751766
0.736828 0.566003 0.778119
0.795438 0.58555 0.798459
0.83917 0.604379 0.812345
0.871763 0.622415 0.823041
0.36405 0.590143 0.705943
0.429099 0.597528 0.719646
0.506065 0.608011 0.7411
0.591714 0.621225 0.766033
0.677043 0.637079 0.790417
0.751995 0.651392 0.813214
0.810056 0.664225 0.829084
0.852995 0.677195 0.839963
0.885222 0.688243 0.84947
0.425803 0.678721 0.747509
0.482475 0.686336 0.763409
0.544289 0.695293 0.78088
0.618112 0.704952 0.799969
0.695933 0.716457 0.821729
0.765026 0.726726 0.839765
0.819821 0.735241 0.853162
0.861311 0.742641 0.861143
0.892226 0.749615 0.865614
0.484764 0.749889 0.786435
0.531029 0.755764 0.798215
0.581964 0.762798 0.811292
0.645899 0.770993 0.828199
0.713008 0.779873 0.843961
0.77496 0.787457 0.857954
0.82504 0.792813 0.86833
0.86479 0.798123 0.874784
0.895445 0.801007 0.877638
0.537133 0.800595 0.811963
0.574655 0.80621 0.821302
0.6168 0.812024 0.832746
0.670039 0.818769 0.846159
0.727214 0.825711 0.858045
0.781674 0.830915 0.869154
0.82887 0.834989 0.876646
0.865263 0.838773 0.883162
0.893599 0.839658 0.885161
0.585626 0.839139 0.832685
0.616831 0.843442 0.839155
0.65182 0.84741 0.847333
0.695247 0.852323 0.857343
0.743252 0.858289 0.867765
0.790204 0.86244 0.875242
0.83151 0.865415 0.882033
0.865019 0.868376 0.885878
0.891554 0.869535 0.887877
0.632074 0.868635 0.847105
0.657084 0.871916 0.852872
0.684611 0.875303 0.857923
0.719799 0.878981 0.86566
0.759609 0.882719 0.87396
0.799008 0.886 0.880476
0.834989 0.889128 0.885283
0.865919 0.891188 0.888914
0.892454 0.892454 0.892454
