assets/luts/ETERNA.cube
TITLE "Generated by Resolve"
LUT_3D_SIZE 9
0.00585946 0.00585946 0.00585946
0.133425 0.0194553 0.0211185
0.216403 0.0399176 0.0297093
0.323842 0.0666514 0.0412299
0.46157 0.0979324 0.0567636
0.573373 0.130434 0.066743
0.668009 0.165011 0.0751202
0.748302 0.200458 0.0810254
0.820844 0.236606 0.0859236
0.0626688 0.165469 0.0363012
0.169497 0.169314 0.017258
0.252338 0.174945 0.0146944
0.350118 0.186755 0.0251164
0.459663 0.203021 0.0378882
0.563516 0.222873 0.0495003
0.656611 0.247669 0.0597086
0.740215 0.277363 0.0671397
0.81117 0.308644 0.0719921
0.118486 0.272358 0.0596933
0.202579 0.272038 0.0501717
0.278416 0.275502 0.041062
0.370047 0.282933 0.034287
0.471656 0.294484 0.0291447
0.569268 0.311635 0.0362707
0.659342 0.33196 0.0466316
0.737392 0.357839 0.0521401
0.805493 0.386404 0.0582132
0.181079 0.398779 0.0901045
0.247898 0.396719 0.0865644
0.317876 0.396567 0.0834211
0.406577 0.400336 0.0822614
0.49807 0.409232 0.0790265
0.587488 0.422263 0.0690318
0.667765 0.439445 0.0559548
0.739361 0.458427 0.0462501
0.799298 0.48072 0.0466621
0.247059 0.534325 0.12549
0.306081 0.530922 0.123217
0.370443 0.529061 0.122957
0.44979 0.529366 0.122133
0.532799 0.532509 0.122103
0.610391 0.539803 0.118242
0.68162 0.549371 0.118807
0.743404 0.558373 0.113313
0.799283 0.571359 0.105974
0.319707 0.648524 0.166705
0.371054 0.644617 0.163912
0.426749 0.64155 0.165011
0.493507 0.638712 0.166384
0.564218 0.639078 0.165743
0.632746 0.640146 0.1673
0.694453 0.643656 0.169238
0.752056 0.649088 0.165545
0.802762 0.655283 0.163989
0.390433 0.733303 0.214801
0.433799 0.730053 0.215427
0.47953 0.727504 0.214832
0.535225 0.725246 0.21413
0.595407 0.723033 0.212238
0.654292 0.723033 0.213489
0.709026 0.722087 0.211917
0.759319 0.723247 0.212299
0.805753 0.72604 0.210498
0.454643 0.797971 0.262211
0.489281 0.795575 0.26331
0.525002 0.793301 0.262226
0.570138 0.790433 0.261494
0.620554 0.787976 0.260182
0.671626 0.785992 0.257038
0.721141 0.783841 0.258228
0.765621 0.783001 0.256458
0.807828 0.783032 0.256001
0.5075 0.847807 0.306386
0.535088 0.846036 0.30634
0.565606 0.843839 0.3066
0.603342 0.840955 0.306966
0.646113 0.838422 0.306447
0.688914 0.835401 0.304799
0.732509 0.832441 0.304845
0.773053 0.831907 0.302617
0.812543 0.830503 0.300847
0.0108644 0.0220035 0.121111
0.158312 0.0420386 0.14583
0.252033 0.0587778 0.159136
0.375463 0.0840314 0.170321
0.505562 0.11017 0.178546
0.60914 0.141161 0.180453
0.701228 0.175158 0.181262
0.777539 0.211032 0.17525
0.845838 0.247532 0.165103
0.0528572 0.185687 0.182345
0.185794 0.185794 0.185794
0.276417 0.191302 0.18468
0.383246 0.200168 0.189746
0.493614 0.215808 0.192599
0.597192 0.234485 0.194705
0.688045 0.259831 0.193698
0.765759 0.287709 0.18822
0.833555 0.319707 0.179294
0.116701 0.294484 0.205631
0.212848 0.290898 0.203555
0.296132 0.290517 0.202609
0.396551 0.29752 0.204196
0.502022 0.307774 0.207172
0.598947 0.323842 0.208057
0.6851 0.343252 0.207294
0.761059 0.367041 0.202396
0.825055 0.394034 0.197086
0.183062 0.421271 0.227512
0.256779 0.416724 0.223423
0.332097 0.414389 0.222858
0.425727 0.415656 0.223789
0.519615 0.421775 0.223636
0.609674 0.432563 0.222934
0.689006 0.447639 0.221271
0.757244 0.465431 0.218891
0.816327 0.483955 0.217411
0.24889 0.548486 0.254734
0.312367 0.54284 0.251286
0.379599 0.540276 0.248722
0.462257 0.53991 0.24387
0.546242 0.541909 0.245151
0.624918 0.545785 0.245365
0.694118 0.553277 0.244984
0.757183 0.562661 0.241657
0.811276 0.573648 0.23917
0.319142 0.654154 0.282841
0.37377 0.649927 0.281697
0.431388 0.646754 0.280308
0.500954 0.643442 0.278035
0.572778 0.642466 0.277241
0.641794 0.642634 0.275654
0.703441 0.644709 0.274189
0.761059 0.649256 0.271046
0.810315 0.65565 0.268055
0.390723 0.734371 0.318853
0.434775 0.73138 0.318227
0.483268 0.727687 0.316396
0.539376 0.725002 0.314122
0.600504 0.723323 0.312673
0.65922 0.721508 0.308812
0.714611 0.721767 0.306081
0.765225 0.722408 0.301518
0.810987 0.723445 0.299351
0.452888 0.79588 0.353475
0.487419 0.793622 0.352865
0.526253 0.790814 0.350988
0.572992 0.788312 0.348837
0.624949 0.785809 0.345602
0.675715 0.783536 0.343374
0.72491 0.781537 0.339483
0.769985 0.780987 0.337972
0.812116 0.781201 0.333288
0.507103 0.843595 0.386892
0.534936 0.842527 0.38674
0.565698 0.840879 0.385519
0.604044 0.837583 0.384161
0.647608 0.836088 0.382193
0.693111 0.832944 0.381369
0.735851 0.830732 0.378347
0.776287 0.828504 0.375631
0.815274 0.82739 0.372061
0.0200656 0.0445563 0.186267
0.17435 0.0612955 0.218906
0.277867 0.0817121 0.241291
0.412451 0.101335 0.266163
0.53547 0.127855 0.281544
0.638743 0.157656 0.28867
0.726879 0.189258 0.294377
0.803632 0.222644 0.297215
0.868437 0.258595 0.293034
0.0430457 0.206485 0.283619
0.194217 0.205417 0.286534
0.29247 0.207813 0.286503
0.405646 0.218601 0.290242
0.521141 0.231037 0.296971
0.625025 0.250324 0.302586
0.711757 0.274144 0.305974
0.788998 0.300633 0.306279
0.85272 0.329015 0.302174
0.109224 0.317159 0.316945
0.220035 0.311681 0.313664
0.311208 0.311208 0.311208
0.416434 0.315801 0.311635
0.523995 0.325841 0.312169
0.622599 0.340352 0.316457
0.706188 0.35787 0.315099
0.778607 0.380514 0.313924
0.839673 0.404303 0.309514
0.182559 0.442954 0.343954
0.263325 0.437949 0.338903
0.34255 0.433783 0.333791
0.439323 0.434394 0.331716
0.537881 0.439414 0.332174
0.627085 0.448844 0.329107
0.704097 0.460288 0.328313
0.770245 0.475242 0.32575
0.828733 0.491264 0.323842
0.248814 0.562966 0.368093
0.315541 0.557855 0.363043
0.38674 0.554025 0.360082
0.472023 0.552499 0.354635
0.557565 0.552743 0.352865
0.635813 0.555184 0.35111
0.705837 0.561288 0.34728
0.767651 0.568826 0.342046
0.821256 0.57882 0.340246
0.318929 0.660777 0.390906
0.374578 0.656718 0.388296
0.435401 0.652552 0.384588
0.50692 0.648798 0.383993
0.579767 0.647623 0.379889
0.649073 0.647349 0.376379
0.712703 0.649226 0.372396
0.76849 0.652323 0.366278
0.818982 0.656489 0.360845
0.388052 0.735943 0.416281
0.434302 0.732433 0.415045
0.482277 0.730632 0.413031
0.541451 0.726909 0.41033
0.603479 0.723964 0.405615
0.664118 0.722728 0.402136
0.720409 0.72163 0.396307
0.77203 0.722026 0.390341
0.816846 0.723476 0.386099
0.449393 0.794537 0.439918
0.485969 0.792432 0.438865
0.525734 0.78996 0.437293
0.573892 0.787182 0.435248
0.62678 0.785122 0.431571
0.679072 0.782422 0.426978
0.728222 0.780514 0.423453
0.774716 0.779782 0.41883
0.816663 0.779065 0.41416
0.504433 0.841871 0.462257
0.532876 0.840467 0.461692
0.564965 0.838697 0.460838
0.606439 0.836179 0.459022
0.650187 0.833249 0.456962
0.696208 0.830655 0.455146
0.737881 0.829297 0.450736
0.779812 0.826398 0.445289
0.818677 0.825223 0.443488
0.0317388 0.0725261 0.255604
0.19118 0.0886854 0.300587
0.306157 0.104051 0.335653
0.447501 0.126406 0.370489
0.567941 0.150225 0.386572
0.668727 0.178485 0.400076
0.753933 0.208164 0.407767
0.826978 0.241276 0.413413
0.888609 0.27422 0.412482
0.0339055 0.234028 0.402808
0.205295 0.230167 0.402869
0.313649 0.231968 0.402975
0.433173 0.24007 0.407568
0.550668 0.253986 0.412619
0.651682 0.27071 0.418753
0.737819 0.292882 0.421881
0.810559 0.317968 0.420981
0.86862 0.344869 0.418341
0.102449 0.347768 0.441321
0.228519 0.340627 0.437034
0.324758 0.338521 0.432685
0.439048 0.340764 0.433097
0.548272 0.348424 0.434302
0.645136 0.361074 0.433753
0.727153 0.376593 0.432349
0.795453 0.397162 0.430259
0.852827 0.419379 0.42475
0.176516 0.471321 0.469581
0.266102 0.462791 0.463172
0.353323 0.459098 0.45803
0.458106 0.458106 0.458106
0.556527 0.459495 0.453468
0.644419 0.465858 0.451209
0.718853 0.476555 0.444556
0.783688 0.488365 0.442741
0.84152 0.504219 0.436881
0.245655 0.579522 0.486473
0.316381 0.574365 0.481727
0.391577 0.569619 0.477791
0.480201 0.567102 0.473594
0.568444 0.56582 0.470222
0.64744 0.566796 0.466331
0.717205 0.571008 0.461997
0.778927 0.577569 0.455817
0.832364 0.58674 0.451225
0.313619 0.670237 0.500984
0.373724 0.664988 0.49781
0.435737 0.661799 0.495857
0.512459 0.658091 0.49366
0.587579 0.654963 0.488548
0.658305 0.654139 0.484077
0.7205 0.655436 0.478035
0.777066 0.656657 0.47274
0.826474 0.659907 0.466133
0.382864 0.739254 0.515221
0.430991 0.736416 0.512963
0.482536 0.733257 0.511238
0.543847 0.729122 0.5093
0.607797 0.726589 0.505867
0.669917 0.72433 0.500862
0.726101 0.723583 0.496178
0.776669 0.723171 0.489647
0.822034 0.724697 0.482826
0.443961 0.794873 0.527626
0.482872 0.792569 0.526864
0.524163 0.790127 0.524788
0.574609 0.787625 0.523308
0.627771 0.785245 0.521157
0.682277 0.781872 0.517815
0.732128 0.780224 0.513161
0.779385 0.77847 0.508339
0.821698 0.778058 0.502968
0.50016 0.840726 0.540078
0.5308 0.83859 0.540475
0.563912 0.836423 0.540459
0.605158 0.835004 0.539391
0.651072 0.831815 0.538781
0.695979 0.828962 0.534676
0.740551 0.826535 0.53077
0.781338 0.824933 0.525948
0.819806 0.823041 0.520333
0.0535286 0.0981155 0.342061
0.215198 0.113939 0.401236
0.338293 0.132082 0.448829
0.48191 0.152651 0.486061
0.600504 0.175631 0.50454
0.697871 0.201587 0.518349
0.780621 0.230167 0.529519
0.849088 0.261463 0.532036
0.904997 0.292729 0.530571
0.0400854 0.264515 0.520104
0.217197 0.260273 0.522286
0.333883 0.260365 0.524071
0.460639 0.265873 0.52932
0.578897 0.2795 0.535744
0.67744 0.295949 0.539376
0.760586 0.315038 0.542336
0.82884 0.338064 0.538903
0.883085 0.364065 0.536278
0.0860151 0.381018 0.553124
0.233097 0.373236 0.553964
0.340124 0.369726 0.552773
0.459556 0.370886 0.552529
0.571084 0.375937 0.553979
0.666117 0.384939 0.552254
0.744411 0.399451 0.54905
0.811566 0.416541 0.546426
0.866697 0.435798 0.541222
0.164569 0.498543 0.575967
0.267933 0.490089 0.57438
0.361196 0.485115 0.572717
0.468284 0.481605 0.570047
0.568948 0.48278 0.566796
0.657969 0.487053 0.563394
0.732906 0.494423 0.557992
0.796857 0.505425 0.554391
0.852766 0.516503 0.550484
0.236622 0.598825 0.588571
0.313649 0.592721 0.585382
0.395056 0.588037 0.581888
0.48661 0.583551 0.579019
0.579171 0.579171 0.579171
0.658946 0.581872 0.574807
0.72784 0.584222 0.569665
0.788952 0.589746 0.564126
0.84097 0.5953 0.556405
0.306996 0.680079 0.594781
0.368353 0.676005 0.591943
0.43534 0.67187 0.592844
0.514076 0.667048 0.590555
0.591196 0.66424 0.587045
0.664683 0.661906 0.583429
0.727489 0.661341 0.577874
0.783551 0.663539 0.572076
0.833127 0.665064 0.565286
0.373175 0.743511 0.60058
0.422461 0.740353 0.599603
0.477272 0.737041 0.598871
0.542275 0.734005 0.597925
0.609049 0.730007 0.596094
0.671092 0.727871 0.591806
0.730037 0.726833 0.587243
0.780941 0.72604 0.581888
0.827985 0.726574 0.57586
0.433921 0.796887 0.607065
0.473838 0.794217 0.607156
0.518868 0.791379 0.607614
0.570275 0.789227 0.60502
0.628946 0.785229 0.603204
0.683131 0.782834 0.601678
0.735027 0.78117 0.596643
0.781704 0.779522 0.591806
0.824811 0.778958 0.586831
0.49041 0.838697 0.612451
0.522484 0.836606 0.612268
0.5579 0.834073 0.612177
0.60087 0.832074 0.611887
0.647486 0.829908 0.609689
0.695186 0.82707 0.608698
0.739132 0.825055 0.604517
0.781903 0.822675 0.598733
0.821424 0.819883 0.594781
0.0880751 0.126253 0.449287
0.241581 0.144747 0.515312
0.375463 0.162295 0.571633
0.513985 0.181308 0.599237
0.629862 0.20415 0.616114
0.726131 0.228901 0.630106
0.803159 0.255177 0.638758
0.867063 0.284657 0.640131
0.917311 0.315999 0.637659
0.0488594 0.298665 0.621317
0.228885 0.29247 0.628763
0.3523 0.292714 0.631952
0.485283 0.298344 0.637812
0.603708 0.308263 0.644266
0.700771 0.322881 0.648692
0.779217 0.339757 0.648203
0.842847 0.361975 0.644877
0.89482 0.385473 0.640284
0.075227 0.415152 0.647684
0.236988 0.406058 0.653468
0.351858 0.401511 0.654307
0.474647 0.400717 0.655818
0.58819 0.40322 0.656413
0.684001 0.411902 0.656062
0.759457 0.423789 0.652476
0.824796 0.43859 0.650202
0.877913 0.455543 0.642924
0.14966 0.524269 0.664012
0.264378 0.516686 0.665736
0.36434 0.509804 0.666056
0.475593 0.506462 0.664759
0.580575 0.50547 0.663462
0.670069 0.508904 0.661219
0.745602 0.514519 0.657084
0.807889 0.522148 0.651514
0.863218 0.531136 0.64509
0.22179 0.617151 0.67013
0.307591 0.61059 0.669169
0.392294 0.605356 0.669444
0.491005 0.60029 0.668605
0.584649 0.596841 0.668513
0.6663 0.596048 0.66482
0.735058 0.597192 0.65948
0.795895 0.600748 0.654169
0.849393 0.604791 0.648493
0.294209 0.689479 0.670954
0.360113 0.685069 0.672908
0.429847 0.680812 0.672221
0.513313 0.675807 0.671519
0.593133 0.673014 0.669291
0.669703 0.669703 0.669703
0.731609 0.67068 0.662516
0.789792 0.670298 0.656886
0.839338 0.672023 0.652567
0.358862 0.74873 0.67245
0.412406 0.745693 0.67364
0.470253 0.742535 0.673884
0.537255 0.739773 0.673991
0.607263 0.735515 0.673335
0.673289 0.73286 0.670893
0.73254 0.731106 0.66685
0.785412 0.730434 0.663355
0.832059 0.730938 0.655894
0.4224 0.79881 0.673228
0.464912 0.796323 0.674052
0.510887 0.793332 0.676127
0.566354 0.790967 0.675654
0.62652 0.787091 0.674144
0.682795 0.784939 0.672953
0.735424 0.782589 0.669444
0.78349 0.780423 0.666056
0.826093 0.778775 0.661295
0.47657 0.835615 0.673091
0.510948 0.834195 0.67393
0.547997 0.832197 0.67454
0.593576 0.829786 0.673976
0.642008 0.827924 0.676112
0.691341 0.824506 0.673213
0.737408 0.821744 0.669444
0.781323 0.820142 0.666789
0.820539 0.817563 0.660105
0.117296 0.161151 0.564965
0.270878 0.179171 0.630854
0.410834 0.19762 0.681804
0.543404 0.213779 0.699565
0.65565 0.23328 0.712062
0.746624 0.257633 0.723369
0.821164 0.284031 0.729793
0.880644 0.312123 0.730129
0.927626 0.340581 0.726406
0.051667 0.332876 0.703807
0.240803 0.327688 0.715938
0.370947 0.327932 0.723018
0.504402 0.331502 0.728664
0.621149 0.338277 0.733959
0.717494 0.351171 0.736248
0.792279 0.368292 0.734417
0.853819 0.388342 0.732357
0.905425 0.409125 0.726635
0.0534829 0.446708 0.719234
0.238743 0.438437 0.731716
0.358389 0.433921 0.735454
0.486946 0.430747 0.740246
0.602136 0.433768 0.740337
0.695277 0.43888 0.739528
0.771572 0.448981 0.736797
0.833692 0.460914 0.73138
0.886809 0.47422 0.726329
0.127886 0.548257 0.732662
0.2598 0.541268 0.740047
0.364904 0.53489 0.740764
0.480888 0.530724 0.740368
0.589899 0.529107 0.741619
0.679347 0.529503 0.7393
0.754177 0.533425 0.73698
0.815686 0.538308 0.731533
0.86891 0.545647 0.72549
0.208026 0.631739 0.736049
0.299336 0.625193 0.737163
0.387076 0.620096 0.739345
0.489799 0.616724 0.738857
0.587442 0.612085 0.741039
0.669642 0.61033 0.73872
0.742718 0.609751 0.734432
0.802319 0.612558 0.731106
0.853956 0.615412 0.723949
0.278721 0.698787 0.734569
0.348119 0.693629 0.736889
0.421546 0.689677 0.737621
0.507637 0.685512 0.738384
0.592462 0.681971 0.738323
0.669429 0.679347 0.736614
0.736171 0.678111 0.733959
0.792477 0.67837 0.730144
0.843091 0.679927 0.723598
0.343008 0.754299 0.732235
0.398795 0.751415 0.73341
0.459297 0.748486 0.736309
0.531167 0.74435 0.737072
0.603952 0.741619 0.737545
0.671672 0.738628 0.736141
0.73521 0.73521 0.73521
0.787076 0.734417 0.730816
0.834165 0.733974 0.724239
0.404532 0.798993 0.728573
0.449653 0.79649 0.729946
0.498833 0.794629 0.731502
0.557076 0.791333 0.733928
0.618235 0.788525 0.733883
0.679515 0.785809 0.733272
0.733288 0.782528 0.730327
0.782223 0.780499 0.726589
0.825681 0.779141 0.72195
0.460243 0.833005 0.723781
0.494911 0.83212 0.723522
0.533257 0.829969 0.725521
0.58172 0.827192 0.727535
0.634134 0.82533 0.728161
0.683375 0.824155 0.725185
0.731533 0.819654 0.724208
0.775982 0.817151 0.722591
0.817716 0.815213 0.719066
0.1514 0.200351 0.678492
0.302098 0.22121 0.740795
0.437308 0.234623 0.766552
0.567254 0.249836 0.781155
0.676066 0.267918 0.793423
0.764019 0.2878 0.801633
0.8336 0.314809 0.803845
0.890318 0.340169 0.802945
0.934966 0.365988 0.799313
0.0587778 0.368643 0.770748
0.251194 0.364508 0.785718
0.383337 0.363058 0.793866
0.520531 0.364187 0.802029
0.637598 0.371557 0.806958
0.730144 0.382956 0.809491
0.803723 0.397665 0.805829
0.863767 0.413657 0.802655
0.912535 0.430991 0.79588
0.0634318 0.475807 0.783612
0.238285 0.468788 0.796765
0.36434 0.4636 0.803494
0.496635 0.46128 0.807538
0.611597 0.462318 0.807141
0.705974 0.465766 0.80618
0.779248 0.473594 0.803388
0.841794 0.482643 0.799481
0.892378 0.493935 0.793317
0.110887 0.568963 0.789502
0.251377 0.561547 0.798535
0.360342 0.557992 0.800534
0.483574 0.55256 0.802777
0.594141 0.549416 0.803098
0.685069 0.549157 0.802304
0.760021 0.55021 0.800626
0.821256 0.555627 0.794858
0.874174 0.561929 0.791104
0.187396 0.646036 0.790021
0.287678 0.638956 0.7935
0.380636 0.63415 0.795834
0.487083 0.629694 0.798215
0.587076 0.626093 0.800076
0.673442 0.623652 0.798154
0.744854 0.623575 0.796155
0.805371 0.624445 0.793591
0.858106 0.627482 0.786954
0.258961 0.706767 0.786633
0.332479 0.702586 0.790478
0.408316 0.699351 0.79118
0.499931 0.694972 0.794064
0.589548 0.691768 0.796185
0.668406 0.688304 0.7953
0.736629 0.686275 0.793256
0.794461 0.686717 0.788693
0.844862 0.686488 0.783978
0.324422 0.757977 0.782742
0.381399 0.755322 0.784009
0.444663 0.751339 0.78587
0.51989 0.748272 0.788952
0.597238 0.745449 0.790112
0.668086 0.742489 0.78967
0.731029 0.740108 0.786969
0.78529 0.738277 0.78439
0.832349 0.736339 0.779156
0.38378 0.797269 0.775113
0.430457 0.795621 0.777554
0.481727 0.793561 0.778622
0.544289 0.791165 0.781094
0.608743 0.788388 0.781109
0.670756 0.784588 0.780423
0.726314 0.782193 0.780011
0.778851 0.778851 0.778851
0.822553 0.776837 0.771878
0.441337 0.828962 0.766583
0.477699 0.828 0.767773
0.51751 0.826947 0.770504
0.567376 0.825055 0.771756
0.621073 0.822065 0.772351
0.674189 0.819379 0.77203
0.725917 0.816678 0.771435
0.771725 0.814588 0.76936
0.812619 0.812604 0.764828
0.180941 0.249363 0.780987
0.329198 0.26511 0.819684
0.4598 0.27274 0.834134
0.587045 0.285969 0.847639
0.692454 0.301381 0.859205
0.774868 0.322713 0.861845
0.840558 0.345541 0.863767
0.894804 0.368124 0.861631
0.939895 0.39263 0.856504
0.0809949 0.403632 0.829252
0.26186 0.399161 0.843885
0.395514 0.397391 0.853056
0.533165 0.39826 0.861738
0.647745 0.4047 0.865049
0.738613 0.411826 0.864683
0.808698 0.425818 0.862318
0.867887 0.438987 0.859007
0.917678 0.454154 0.854063
0.0658122 0.501549 0.835538
0.236515 0.495628 0.848341
0.365988 0.49102 0.856458
0.499702 0.488731 0.859693
0.616541 0.488258 0.861128
0.709377 0.490135 0.859922
0.78407 0.496071 0.859022
0.845472 0.503349 0.854856
0.897719 0.513008 0.849378
0.102831 0.587106 0.83711
0.242695 0.581476 0.845731
0.357946 0.575326 0.850477
0.48188 0.571252 0.852171
0.595117 0.567941 0.855787
0.687587 0.566659 0.856123
0.762936 0.568215 0.854261
0.824659 0.57145 0.851423
0.879606 0.576898 0.847074
0.154665 0.657115 0.832547
0.273182 0.652567 0.839261
0.368246 0.647837 0.842741
0.481529 0.642618 0.847471
0.584939 0.639139 0.849912
0.67277 0.63682 0.850538
0.74638 0.636469 0.849088
0.808255 0.635981 0.844511
0.860609 0.637613 0.841443
0.237964 0.713787 0.82768
0.315755 0.709728 0.834409
0.396384 0.706767 0.835691
0.489158 0.703029 0.840116
0.582345 0.700114 0.843229
0.664347 0.696559 0.842695
0.734417 0.693828 0.842588
0.792447 0.692805 0.839704
0.84358 0.691844 0.832471
0.301137 0.758175 0.82211
0.360662 0.755642 0.82475
0.426017 0.753399 0.827054
0.505821 0.750149 0.829969
0.585931 0.747555 0.833906
0.659525 0.744961 0.833066
0.725628 0.741909 0.831968
0.780377 0.740475 0.828901
0.829328 0.737881 0.825376
0.361517 0.794583 0.812467
0.410117 0.79292 0.813855
0.462608 0.791257 0.817105
0.527092 0.788754 0.820478
0.595926 0.786175 0.822309
0.660121 0.784466 0.820462
0.718685 0.781338 0.82208
0.769772 0.779141 0.818128
0.815518 0.776761 0.815076
0.419669 0.825895 0.80354
0.458854 0.824506 0.805737
0.500618 0.823026 0.807843
0.552102 0.82121 0.809796
0.607782 0.819211 0.811719
0.663798 0.816938 0.811948
0.716945 0.813748 0.810605
0.764569 0.811933 0.810132
0.808743 0.808743 0.808743
