assets/luts/ETERNA.cube
TITLE "Generated by Resolve"
LUT_3D_SIZE 65
0.00585946 0.00585946 0.00585946
0.0631571 0.0105135 0.0129091
0.0778515 0.011429 0.0155795
0.0877546 0.0122683 0.0168917
0.0957504 0.0135195 0.0172122
0.105455 0.0148318 0.0189517
0.115419 0.0161593 0.0209201
0.124254 0.0176394 0.020325
0.133425 0.0194553 0.0211185
0.143679 0.0215 0.0230869
0.154376 0.0229953 0.0240787
0.164004 0.0247501 0.0242008
0.174548 0.0275731 0.0257725
0.185092 0.0305638 0.0275425
0.194888 0.0333104 0.0278782
0.205081 0.0361944 0.0286564
0.216403 0.0399176 0.0297093
0.228168 0.0439002 0.0310826
0.241596 0.0469673 0.0324102
0.255375 0.0503243 0.0340581
0.26865 0.0536355 0.0355077
0.28127 0.0569924 0.0367895
0.294926 0.0600443 0.0382391
0.309209 0.0634165 0.0396429
0.323842 0.0666514 0.0412299
0.33994 0.070222 0.0425116
0.35642 0.0742962 0.0441291
0.373541 0.0785229 0.0459297
0.391119 0.0829175 0.047715
0.408438 0.0872206 0.049546
0.426368 0.0909743 0.0519112
0.444144 0.0944533 0.0543526
0.46157 0.0979324 0.0567636
0.478859 0.102449 0.0586557
0.493874 0.105791 0.0600443
0.507378 0.108766 0.0610513
0.521035 0.112825 0.0623331
0.534508 0.117037 0.0636606
0.547784 0.121324 0.0650339
0.560693 0.12607 0.0659037
0.573373 0.130434 0.066743
0.585687 0.134768 0.0676585
0.597803 0.139101 0.0685893
0.609949 0.143603 0.0697337
0.621897 0.147936 0.0708934
0.633722 0.151736 0.0722057
0.645411 0.155871 0.0733349
0.656977 0.160494 0.0742046
0.668009 0.165011 0.0751202
0.678676 0.169207 0.076173
0.689113 0.173617 0.0771344
0.699336 0.17821 0.0779583
0.709438 0.182544 0.0788586
0.719493 0.186755 0.0797436
0.729442 0.191028 0.0804761
0.738949 0.195773 0.0807507
0.748302 0.200458 0.0810254
0.757595 0.205173 0.0813611
0.766842 0.209873 0.0818036
0.776181 0.214374 0.0825055
0.785351 0.218769 0.0831464
0.79443 0.223117 0.0838483
0.803433 0.227436 0.0846265
0.812314 0.231724 0.0853895
0.820844 0.236606 0.0859236
0.0212558 0.0722515 0.0160678
0.0794842 0.0763104 0.0162051
0.0908675 0.0796216 0.0132296
0.100984 0.0803693 0.0142672
0.109895 0.0820478 0.0154574
0.119081 0.0833753 0.0142824
0.128725 0.0826276 0.013611
0.138994 0.084123 0.0150301
0.148852 0.0860304 0.0158083
0.158007 0.0879072 0.0151522
0.167269 0.0897078 0.0149081
0.177813 0.091249 0.016907
0.188144 0.0919509 0.018555
0.199252 0.0935531 0.0191958
0.209995 0.0951247 0.0204929
0.221225 0.0965133 0.0219883
0.232273 0.0979171 0.0233921
0.245655 0.0998093 0.0251621
0.258762 0.101762 0.0267185
0.271473 0.103319 0.0279088
0.283864 0.105104 0.0289006
0.297002 0.107256 0.0301976
0.312337 0.109361 0.0317845
0.32755 0.111635 0.0337987
0.343496 0.113848 0.0360266
0.359472 0.116182 0.0383612
0.375051 0.118593 0.0404974
0.389746 0.121523 0.0417029
0.404227 0.12459 0.0429847
0.418357 0.127855 0.0445716
0.43209 0.131441 0.0467079
0.445533 0.134981 0.0487831
0.459434 0.13814 0.0505684
0.474083 0.141283 0.0519112
0.488396 0.144427 0.0531624
0.502297 0.147631 0.0543679
0.515862 0.151064 0.0554665
0.529152 0.154513 0.0565347
0.542245 0.15816 0.0575875
0.5552 0.161563 0.0589303
0.567941 0.165148 0.0602579
0.580575 0.168887 0.0614633
0.592981 0.172564 0.0628672
0.605158 0.176181 0.0644846
0.617121 0.179782 0.0660563
0.628779 0.183337 0.0674601
0.640146 0.186938 0.0684062
0.651286 0.190463 0.069276
0.662181 0.193942 0.0700084
0.672908 0.197391 0.0707256
0.683635 0.201022 0.0716106
0.694301 0.20473 0.0725719
0.704906 0.208515 0.0736248
0.715343 0.212284 0.0746624
0.725643 0.216175 0.0756847
0.735836 0.220218 0.0767071
0.745876 0.224247 0.0776989
0.755764 0.22826 0.0786908
0.76524 0.2327 0.0792706
0.774578 0.237125 0.0798505
0.783795 0.24152 0.0803998
0.792828 0.245914 0.0809186
0.801633 0.250355 0.0813458
0.8103 0.254871 0.0818036
0.818692 0.259724 0.0822614
0.0302586 0.0917372 0.0191043
0.0817884 0.0952468 0.0171664
0.0944076 0.0964981 0.0149691
0.105364 0.096849 0.0159152
0.115557 0.0973983 0.0161593
0.124727 0.0983291 0.0149844
0.133577 0.0991989 0.0144808
0.142046 0.100801 0.0161288
0.151583 0.101503 0.0168307
0.162554 0.102266 0.0158846
0.172091 0.103227 0.0145876
0.181201 0.103349 0.0151522
0.191089 0.104082 0.0159915
0.202655 0.106233 0.0164797
0.214069 0.10811 0.0175631
0.225101 0.109529 0.0191653
0.236362 0.111238 0.0214694
0.249638 0.111879 0.0237278
0.262333 0.113359 0.02533
0.27509 0.115892 0.0267185
0.287785 0.118776 0.0280003
0.301518 0.12079 0.0294652
0.316396 0.12253 0.0309911
0.330922 0.124254 0.0324102
0.344991 0.126802 0.0335088
0.359625 0.129168 0.0353094
0.374395 0.13167 0.0372473
0.389044 0.134829 0.0388342
0.403555 0.137133 0.0406806
0.417655 0.139925 0.0423896
0.431342 0.143328 0.0440528
0.444739 0.146746 0.0456703
0.458824 0.149966 0.0473945
0.47332 0.153033 0.0492103
0.487572 0.155901 0.0509499
0.501656 0.159152 0.0522164
0.515267 0.162081 0.0534676
0.528603 0.16495 0.0546883
0.541665 0.16791 0.0559243
0.554406 0.171283 0.0573587
0.566918 0.174655 0.0587625
0.579202 0.178027 0.0601205
0.591455 0.181598 0.0613565
0.60354 0.185351 0.0623941
0.615351 0.18883 0.0636301
0.626947 0.192172 0.0649271
0.638346 0.195575 0.0658274
0.649546 0.198947 0.0667735
0.660563 0.202289 0.0678111
0.671611 0.206119 0.0692149
0.682582 0.209613 0.0704356
0.693401 0.213077 0.0715801
0.704005 0.216663 0.0726635
0.714427 0.22034 0.0736706
0.724819 0.224262 0.0747692
0.734951 0.22829 0.0757
0.744732 0.232593 0.0763561
0.754376 0.236866 0.076997
0.763882 0.241123 0.0776074
0.773236 0.245365 0.0782177
0.782467 0.249577 0.0788128
0.791577 0.253773 0.0793927
0.800488 0.258106 0.0798962
0.80914 0.262715 0.080293
0.817426 0.267674 0.0805676
0.0343175 0.102098 0.0230716
0.0858167 0.105257 0.0187686
0.098558 0.106065 0.0187228
0.109728 0.106615 0.0198825
0.119356 0.107195 0.0196994
0.128222 0.108034 0.0175631
0.136965 0.109239 0.016495
0.144549 0.111162 0.0181582
0.154116 0.112703 0.0168154
0.164981 0.113573 0.0157321
0.174487 0.114778 0.0137484
0.183429 0.115114 0.0144961
0.193988 0.11606 0.014374
0.204623 0.117494 0.014435
0.215824 0.118791 0.0160372
0.226932 0.119692 0.0181277
0.239002 0.121859 0.0195468
0.251972 0.122591 0.0217136
0.264698 0.12372 0.0234989
0.278431 0.125338 0.0256504
0.291127 0.127962 0.0271458
0.304845 0.130007 0.0288548
0.319127 0.131609 0.0307927
0.33341 0.133196 0.0323339
0.347402 0.135302 0.0335241
0.360433 0.138659 0.0340429
0.374166 0.141436 0.0352789
0.388785 0.144091 0.0372168
0.403265 0.145968 0.0393988
0.417273 0.148806 0.0408179
0.430915 0.152163 0.041825
0.444266 0.155505 0.0428626
0.458473 0.158465 0.0447547
0.472816 0.161105 0.0470741
0.486915 0.163714 0.0493782
0.500923 0.16669 0.0508888
0.514824 0.16965 0.0521096
0.528359 0.172396 0.0534524
0.54139 0.175235 0.0547341
0.554101 0.17847 0.0561837
0.5664 0.181781 0.0576181
0.57847 0.185107 0.0589914
0.590509 0.188739 0.0598611
0.60238 0.192248 0.0607309
0.614038 0.195621 0.0616922
0.625635 0.19881 0.0630503
0.637079 0.202136 0.0639963
0.648524 0.205921 0.0652781
0.65977 0.209644 0.0667735
0.670848 0.213352 0.0682536
0.681834 0.216663 0.0694591
0.692653 0.219944 0.070634
0.703288 0.223285 0.0717632
0.71371 0.226841 0.0727398
0.723873 0.23093 0.0735637
0.733898 0.235157 0.0743572
0.743694 0.239322 0.0750439
0.753384 0.243488 0.0757305
0.762936 0.247639 0.0764172
0.772335 0.251774 0.0770733
0.781537 0.25594 0.0776684
0.790326 0.260273 0.0780652
0.799222 0.264622 0.0785534
0.807874 0.269123 0.0789654
0.816175 0.27396 0.0792706
0.038056 0.114366 0.0246281
0.0911727 0.116808 0.0224002
0.100832 0.117968 0.0194553
0.111162 0.118471 0.0205997
0.119997 0.119036 0.0202945
0.128649 0.119951 0.018616
0.138155 0.121248 0.0181125
0.147875 0.12253 0.0189822
0.157916 0.123766 0.0165408
0.167407 0.124376 0.0152438
0.17644 0.125551 0.0132906
0.186252 0.125582 0.0150149
0.197589 0.126833 0.0140383
0.20795 0.128191 0.014023
0.21883 0.129351 0.0146639
0.23006 0.130358 0.016083
0.242084 0.132265 0.0176242
0.254292 0.133745 0.0195315
0.267094 0.134752 0.0216373
0.280873 0.136217 0.0238346
0.29424 0.137682 0.0258946
0.30721 0.139345 0.0275731
0.32047 0.141131 0.0292058
0.333654 0.143267 0.0306096
0.347097 0.14612 0.0315709
0.359899 0.149294 0.0320439
0.373983 0.151446 0.0336767
0.388708 0.153048 0.0359503
0.402991 0.155306 0.0382239
0.417121 0.158129 0.0397345
0.431067 0.160983 0.0410773
0.444709 0.163928 0.0423896
0.458473 0.166384 0.0440986
0.471931 0.168795 0.0457771
0.485969 0.171252 0.0480812
0.499977 0.174151 0.0494545
0.513817 0.177142 0.0504768
0.527474 0.179706 0.0521248
0.540703 0.182574 0.053666
0.553353 0.185931 0.055024
0.565637 0.189105 0.0564736
0.577691 0.192279 0.0578775
0.589715 0.195544 0.0589151
0.601572 0.198795 0.0599222
0.613336 0.202396 0.0607156
0.624994 0.206241 0.0614176
0.636469 0.209903 0.0629435
0.647791 0.21355 0.0643778
0.659037 0.217136 0.0657816
0.670115 0.220676 0.0672465
0.681102 0.223789 0.0684672
0.69192 0.227008 0.0695811
0.70248 0.23061 0.0703441
0.712886 0.234226 0.0710918
0.723064 0.238117 0.0719921
0.733074 0.242084 0.0729229
0.742885 0.246189 0.0737621
0.75256 0.25034 0.0745556
0.762066 0.254429 0.0752728
0.771115 0.258656 0.0757305
0.780041 0.262867 0.0761578
0.789029 0.267094 0.0766613
0.797955 0.27129 0.0771801
0.806607 0.2757 0.0776074
0.814923 0.2804 0.0779431
0.0423743 0.127367 0.0255283
0.0968948 0.129229 0.0264591
0.106035 0.130373 0.0233768
0.114397 0.131075 0.0216373
0.122881 0.13167 0.020798
0.132174 0.132677 0.0187686
0.142046 0.133822 0.0181888
0.151492 0.134173 0.0184634
0.160433 0.134096 0.0179751
0.169833 0.134874 0.0165713
0.179431 0.136065 0.0150149
0.189639 0.136675 0.0153353
0.200793 0.138033 0.0137484
0.21146 0.139437 0.0131991
0.222568 0.140383 0.0138705
0.233524 0.14139 0.0145266
0.245197 0.14255 0.0164187
0.257069 0.143999 0.0187533
0.269306 0.14548 0.019791
0.282368 0.146975 0.021088
0.29546 0.148257 0.0230869
0.307744 0.149935 0.024979
0.319707 0.152224 0.0266117
0.332906 0.154452 0.0279088
0.346334 0.157153 0.0289311
0.360082 0.159045 0.0304265
0.374182 0.160586 0.0324559
0.3888 0.16202 0.0347295
0.403067 0.163836 0.0369879
0.417685 0.166522 0.0389715
0.431998 0.169467 0.0409247
0.445579 0.172503 0.0423133
0.459632 0.174472 0.0442817
0.472862 0.176928 0.0457313
0.485618 0.179706 0.0468605
0.499199 0.181872 0.0484016
0.512932 0.184573 0.0496834
0.526543 0.187121 0.0512245
0.539681 0.189929 0.0527504
0.552316 0.193149 0.0541238
0.564721 0.196368 0.0554665
0.576883 0.199695 0.0566873
0.589242 0.203296 0.0576638
0.601267 0.206897 0.0584726
0.613092 0.210483 0.059266
0.62472 0.214038 0.0601968
0.636149 0.217426 0.0618296
0.64741 0.220829 0.063447
0.658473 0.224216 0.0650187
0.669322 0.227802 0.0660105
0.6804 0.231342 0.0670481
0.691142 0.234791 0.0678874
0.701701 0.238254 0.0686809
0.712108 0.241703 0.0694591
0.722286 0.245487 0.0704204
0.732296 0.249317 0.0713664
0.742138 0.253162 0.072282
0.751766 0.25745 0.0729992
0.761074 0.261707 0.07364
0.769924 0.265888 0.0741131
0.77882 0.270085 0.0746471
0.787717 0.27425 0.0751965
0.796643 0.278309 0.0757458
0.805295 0.282612 0.0761883
0.813672 0.287053 0.0766003
0.0511177 0.138857 0.0286107
0.100649 0.140673 0.0284581
0.111604 0.141772 0.0261082
0.119478 0.142458 0.024155
0.127642 0.143252 0.0221408
0.13669 0.144305 0.0198672
0.145876 0.144991 0.0197604
0.154955 0.14522 0.0187533
0.163317 0.145464 0.0180209
0.17319 0.145632 0.0171054
0.182773 0.146731 0.0154421
0.192416 0.147875 0.0140078
0.202518 0.14902 0.0124208
0.213931 0.150256 0.0123903
0.226047 0.151614 0.0142367
0.237049 0.152575 0.0153506
0.248356 0.153353 0.0167697
0.259693 0.154345 0.0187381
0.272007 0.155673 0.0188602
0.284489 0.157275 0.0196994
0.29691 0.158831 0.0208133
0.309163 0.16022 0.0228122
0.320989 0.16228 0.0246433
0.334554 0.164263 0.0264591
0.348562 0.166339 0.0281071
0.362142 0.168246 0.0295415
0.375998 0.169604 0.031632
0.389593 0.171008 0.0336767
0.403388 0.172641 0.0357519
0.417945 0.17557 0.0375982
0.432258 0.178607 0.0392767
0.44625 0.181582 0.0409552
0.459693 0.184222 0.042771
0.47274 0.18674 0.0440375
0.485496 0.189258 0.0452125
0.499245 0.191089 0.0468605
0.512764 0.19292 0.0484932
0.526009 0.195026 0.0500038
0.538964 0.197986 0.0512856
0.55172 0.201129 0.0525368
0.564126 0.204517 0.0535744
0.576349 0.207889 0.0545968
0.588952 0.211353 0.0558175
0.600992 0.21471 0.0571298
0.612802 0.218067 0.0584268
0.624399 0.221454 0.0594797
0.635737 0.224796 0.0608988
0.646799 0.228229 0.0620737
0.657679 0.231662 0.0632334
0.668528 0.235126 0.0643015
0.6795 0.238758 0.0652171
0.690288 0.24239 0.0661021
0.700923 0.246006 0.0669566
0.71136 0.24947 0.0677806
0.721492 0.253269 0.0687266
0.731456 0.257206 0.0696117
0.741268 0.261128 0.0704814
0.750912 0.26511 0.0712902
0.760189 0.2692 0.071931
0.769177 0.273259 0.0724956
0.778164 0.277333 0.073106
0.78703 0.281376 0.0736858
0.795743 0.285557 0.0741894
0.804211 0.289677 0.0747387
0.812482 0.29366 0.0753185
0.0553445 0.151873 0.0350652
0.103227 0.15349 0.0283818
0.114076 0.153735 0.0267338
0.121752 0.154253 0.0250401
0.130251 0.155154 0.0229038
0.138949 0.15613 0.020737
0.148165 0.156786 0.019501
0.157702 0.157488 0.017792
0.167086 0.157748 0.0168002
0.17702 0.157656 0.0163577
0.186892 0.157595 0.0158999
0.19617 0.158694 0.0144045
0.205203 0.159915 0.013077
0.216312 0.161334 0.0119936
0.228107 0.162661 0.0135805
0.239643 0.163561 0.0148013
0.250813 0.164202 0.0161288
0.261784 0.165118 0.0177768
0.273518 0.166583 0.0177615
0.285634 0.168032 0.018677
0.298024 0.169345 0.0199741
0.31046 0.17052 0.0215305
0.322286 0.172305 0.0230564
0.336309 0.174136 0.0248875
0.350057 0.176089 0.026688
0.36379 0.177874 0.0285954
0.377813 0.179278 0.0306096
0.391211 0.180789 0.0324559
0.404715 0.182757 0.0341802
0.418463 0.185443 0.0352789
0.432303 0.18822 0.0366064
0.446097 0.190967 0.0383154
0.459434 0.193454 0.0401617
0.472694 0.195865 0.0419318
0.485969 0.198367 0.0437018
0.499413 0.200656 0.0452277
0.512642 0.202869 0.0467079
0.525628 0.205127 0.0481575
0.538552 0.20763 0.0493324
0.551263 0.210239 0.0503853
0.563729 0.213001 0.0514382
0.575998 0.216251 0.0525216
0.588571 0.219562 0.0537881
0.600671 0.223026 0.0551308
0.612238 0.226505 0.0565652
0.623652 0.229816 0.0578622
0.634943 0.232883 0.0589761
0.646021 0.236042 0.0601205
0.656992 0.239353 0.0613565
0.667826 0.242771 0.0624552
0.678599 0.24625 0.0633249
0.689479 0.249836 0.064271
0.70045 0.253712 0.0653086
0.711192 0.257588 0.0663005
0.721019 0.26154 0.0670634
0.730709 0.265492 0.0677958
0.740398 0.269337 0.0686198
0.750072 0.273106 0.0694896
0.759441 0.276967 0.0702373
0.768551 0.280903 0.0708782
0.777493 0.285039 0.0714275
0.786313 0.289204 0.0719463
0.79501 0.293339 0.0724346
0.803464 0.297292 0.0730297
0.811749 0.301137 0.0736553
0.0626688 0.165469 0.0363012
0.107393 0.165438 0.0301366
0.117922 0.165652 0.0289311
0.126497 0.165972 0.0277104
0.134874 0.166751 0.0259861
0.143465 0.16759 0.0233768
0.151232 0.168276 0.0196231
0.160571 0.168872 0.0181735
0.169497 0.169314 0.017258
0.178943 0.169482 0.016434
0.188678 0.16965 0.0155489
0.198581 0.170123 0.0147097
0.20795 0.171267 0.0132296
0.219165 0.172732 0.0113527
0.229984 0.173861 0.0126497
0.241215 0.174273 0.013611
0.252338 0.174945 0.0146944
0.263645 0.176333 0.015671
0.275151 0.177813 0.0157473
0.2869 0.179187 0.0169375
0.299245 0.180316 0.0189517
0.311482 0.181521 0.0204471
0.323613 0.183078 0.0218814
0.336767 0.184802 0.0234379
0.350118 0.186755 0.0251164
0.36405 0.188434 0.0268406
0.378546 0.189654 0.0289769
0.392752 0.190921 0.0310674
0.406378 0.192996 0.0327611
0.420035 0.195636 0.0341344
0.433204 0.198215 0.0350042
0.446372 0.200641 0.0361181
0.459663 0.203021 0.0378882
0.472816 0.205478 0.0397955
0.486091 0.207919 0.0415808
0.499352 0.210666 0.0431678
0.512398 0.213397 0.0447089
0.525429 0.215579 0.0461738
0.538033 0.217929 0.0472114
0.55082 0.220371 0.0483406
0.563516 0.222873 0.0495003
0.575845 0.225605 0.050721
0.587671 0.228763 0.0520943
0.599771 0.232181 0.0534524
0.611429 0.235538 0.0548714
0.622843 0.238636 0.0561532
0.634104 0.24155 0.0572976
0.64538 0.244541 0.0585184
0.656611 0.247669 0.0597086
0.66775 0.251102 0.0607919
0.678508 0.254749 0.0617075
0.689632 0.258473 0.0627909
0.700587 0.262196 0.0638437
0.711208 0.265949 0.0648356
0.721019 0.269764 0.0656138
0.730694 0.273564 0.066392
0.740215 0.277363 0.0671397
0.749584 0.281254 0.0679179
0.758785 0.285267 0.0684977
0.76788 0.289265 0.0690166
0.776837 0.293248 0.0695964
0.785687 0.29723 0.0701457
0.7944 0.301198 0.0706951
0.802869 0.304952 0.0713359
0.81117 0.308644 0.0719921
0.0719615 0.176593 0.0401312
0.112428 0.177432 0.0347143
0.123995 0.177249 0.03299
0.132387 0.177615 0.0317998
0.140841 0.178012 0.0306706
0.148806 0.17882 0.0261234
0.155749 0.179644 0.0220951
0.163531 0.180163 0.0195926
0.172168 0.180652 0.018967
0.181323 0.181384 0.0178988
0.191058 0.181949 0.0164797
0.200778 0.182406 0.0159457
0.211414 0.182879 0.0153811
0.2224 0.184085 0.0140536
0.232868 0.185107 0.0151675
0.243366 0.186069 0.0136568
0.254246 0.18674 0.0146029
0.265538 0.188113 0.0147555
0.276844 0.189563 0.0142824
0.288319 0.19086 0.0150301
0.300572 0.191791 0.0170901
0.312734 0.192828 0.0196078
0.325216 0.194095 0.0207523
0.338201 0.19585 0.0223697
0.351019 0.197665 0.0240482
0.364904 0.199344 0.0252537
0.3794 0.200656 0.0272831
0.393652 0.201984 0.0293736
0.407553 0.203876 0.0312352
0.421164 0.206073 0.0329442
0.434256 0.20853 0.0338903
0.447395 0.210742 0.0351263
0.460441 0.212894 0.0364996
0.473274 0.215076 0.0378271
0.486397 0.217487 0.0394751
0.499763 0.220096 0.0411536
0.512917 0.222751 0.0428168
0.525856 0.225437 0.0443885
0.538598 0.228199 0.0454871
0.551324 0.230701 0.0466621
0.563958 0.233036 0.047837
0.57615 0.235721 0.0491188
0.5879 0.238743 0.0505074
0.599466 0.241764 0.0518502
0.610849 0.244785 0.0531777
0.622278 0.24773 0.0544594
0.633814 0.250874 0.0555734
0.645182 0.254017 0.0566567
0.656397 0.257176 0.0577249
0.667567 0.260487 0.0588998
0.678676 0.263905 0.0601205
0.689601 0.267414 0.0612192
0.700359 0.271122 0.0621042
0.710826 0.274754 0.0630655
0.720592 0.278416 0.0639353
0.73022 0.282063 0.0648966
0.739681 0.285847 0.0657816
0.748989 0.289693 0.0666361
0.758175 0.293568 0.0671855
0.767239 0.297475 0.0676432
0.776303 0.301289 0.0680858
0.785275 0.305104 0.0684977
0.794049 0.308919 0.0690013
0.802441 0.312718 0.0696574
0.810605 0.316915 0.0702831
0.078996 0.189273 0.042649
0.116197 0.190784 0.0362554
0.126925 0.190372 0.0326085
0.134768 0.190799 0.0312963
0.142931 0.191608 0.0297856
0.151202 0.192447 0.0280919
0.158083 0.193103 0.024506
0.166903 0.19295 0.023682
0.175647 0.193057 0.0230106
0.184802 0.193637 0.0215915
0.194247 0.194186 0.0198978
0.203815 0.194629 0.0190433
0.21474 0.19501 0.0183871
0.225589 0.195453 0.0178225
0.23592 0.196185 0.0172427
0.246235 0.197101 0.0158694
0.256565 0.198062 0.0149081
0.267872 0.199466 0.0148318
0.278996 0.200916 0.0152132
0.290593 0.202197 0.0154574
0.302663 0.203342 0.0174258
0.314702 0.204288 0.0202182
0.327337 0.205447 0.0201419
0.340673 0.206668 0.0221408
0.353323 0.208347 0.0237736
0.367453 0.209918 0.0245823
0.381079 0.21149 0.0255589
0.394614 0.212848 0.0273442
0.408331 0.21474 0.0291295
0.421836 0.216724 0.0308843
0.435248 0.219043 0.0327153
0.448783 0.221012 0.0341344
0.461769 0.223224 0.0353246
0.474434 0.225605 0.0365301
0.487739 0.227558 0.038056
0.501122 0.229709 0.0395666
0.514214 0.232181 0.0412146
0.527077 0.23473 0.04271
0.539742 0.237369 0.0438239
0.552178 0.240085 0.0449378
0.56437 0.243046 0.0461738
0.576364 0.245975 0.0475319
0.588205 0.248768 0.0489357
0.599863 0.251575 0.0502937
0.611353 0.254536 0.0517281
0.622889 0.257618 0.0527199
0.634195 0.2607 0.0538643
0.64538 0.263783 0.054963
0.65655 0.266789 0.0560464
0.66772 0.269993 0.0572671
0.678798 0.273243 0.0585184
0.689586 0.276722 0.059678
0.70013 0.28043 0.0606241
0.710307 0.284031 0.0615396
0.720104 0.287312 0.062623
0.729702 0.290883 0.0635843
0.739132 0.294591 0.0644694
0.74844 0.298283 0.0653239
0.757626 0.302037 0.0658732
0.766674 0.305806 0.066331
0.775601 0.30959 0.0667887
0.784482 0.313649 0.0672618
0.79324 0.317708 0.0677195
0.801617 0.321904 0.0681621
0.809873 0.326085 0.0685893
0.0849775 0.202655 0.0422522
0.119997 0.203601 0.0354925
0.130251 0.20351 0.0330358
0.138186 0.203677 0.0316014
0.146212 0.204471 0.0303502
0.154314 0.205066 0.0292363
0.162188 0.205646 0.027863
0.170642 0.205478 0.0270695
0.179065 0.205386 0.0264744
0.188251 0.205371 0.0249332
0.197406 0.20589 0.0232242
0.206714 0.206973 0.0225071
0.216617 0.208011 0.0220951
0.227131 0.208453 0.0216373
0.238636 0.20798 0.0201724
0.249271 0.20824 0.0189975
0.259709 0.2094 0.0180972
0.270726 0.210697 0.0184024
0.281636 0.212055 0.0187686
0.293629 0.212924 0.0186465
0.305287 0.214298 0.0192111
0.316915 0.21561 0.0201877
0.329595 0.216739 0.0192569
0.342779 0.217868 0.020676
0.356146 0.219074 0.0229496
0.369833 0.220752 0.0235904
0.383413 0.222477 0.0242924
0.396109 0.224308 0.0256352
0.4094 0.226566 0.0270085
0.422797 0.228595 0.0287633
0.436011 0.230655 0.0304875
0.449638 0.232425 0.0321813
0.463035 0.234257 0.033814
0.475746 0.236393 0.0351415
0.489204 0.23801 0.0367895
0.502525 0.239872 0.0383612
0.515389 0.242222 0.039765
0.527947 0.244755 0.0410773
0.540215 0.247684 0.042237
0.552285 0.25066 0.0433509
0.564111 0.253819 0.0445563
0.576425 0.256367 0.0459602
0.588678 0.258854 0.0474098
0.600595 0.261616 0.0489662
0.612055 0.264546 0.0504921
0.623697 0.267475 0.051133
0.635004 0.27042 0.0521401
0.64596 0.273442 0.053254
0.656626 0.276555 0.0543526
0.667567 0.280156 0.0554665
0.678416 0.283589 0.0566567
0.689128 0.286976 0.0578164
0.699687 0.290379 0.0589609
0.709789 0.293736 0.0599985
0.719524 0.297063 0.0610361
0.729137 0.300389 0.0620432
0.738598 0.303716 0.063035
0.747906 0.307118 0.0639506
0.757031 0.31107 0.0645609
0.765988 0.315068 0.0650645
0.774838 0.319066 0.065568
0.783581 0.323049 0.0660563
0.792309 0.326986 0.0665293
0.800687 0.331014 0.0669871
0.808972 0.334859 0.0675059
0.090486 0.216556 0.0441749
0.126009 0.216327 0.0404669
0.136049 0.216098 0.0381933
0.143862 0.215778 0.036408
0.151659 0.21593 0.0348669
0.159045 0.216602 0.033463
0.166415 0.21738 0.0318914
0.174197 0.217868 0.0307164
0.182956 0.217563 0.0297398
0.191913 0.217273 0.0286412
0.201022 0.217426 0.027512
0.210315 0.218784 0.0273136
0.219516 0.220218 0.0273289
0.229343 0.220935 0.0261387
0.240635 0.220523 0.0247807
0.252033 0.220127 0.0236667
0.26302 0.221317 0.0224918
0.273823 0.222782 0.0227665
0.284657 0.224063 0.0227665
0.296193 0.224598 0.0211795
0.307668 0.225895 0.0213931
0.319768 0.227314 0.0212863
0.333028 0.228611 0.0203555
0.345739 0.229725 0.0206607
0.358923 0.230961 0.0221866
0.371908 0.232456 0.0226139
0.384909 0.234012 0.0231479
0.398093 0.235874 0.0243534
0.411154 0.237873 0.0260014
0.424018 0.239887 0.0276341
0.437018 0.242115 0.0288853
0.450523 0.244114 0.0302434
0.463966 0.245823 0.0319524
0.477134 0.247684 0.0336156
0.489647 0.250278 0.0350347
0.502617 0.252201 0.0365759
0.515297 0.254551 0.0379492
0.527779 0.256947 0.0392767
0.540047 0.259358 0.0405737
0.552132 0.261799 0.0418555
0.563973 0.264637 0.0429694
0.576394 0.26714 0.0446021
0.588632 0.269642 0.0461891
0.600824 0.272389 0.0475166
0.612726 0.275151 0.0487526
0.623835 0.277714 0.0497749
0.635004 0.280644 0.0504158
0.645792 0.283589 0.0515602
0.656458 0.286595 0.0526741
0.667399 0.290105 0.0538186
0.678172 0.293614 0.0549325
0.688807 0.297139 0.0560159
0.699199 0.300572 0.0572518
0.709285 0.303716 0.058381
0.718914 0.307088 0.059266
0.728328 0.310567 0.0600595
0.737621 0.314046 0.0608377
0.746792 0.317556 0.0616159
0.756039 0.321263 0.0625467
0.765148 0.324956 0.063447
0.774121 0.328664 0.064332
0.782849 0.332509 0.0648356
0.791424 0.336324 0.0653391
0.799832 0.340047 0.0658885
0.808118 0.343847 0.0663615
0.0965591 0.229938 0.0481575
0.131991 0.229343 0.044892
0.141802 0.228931 0.0429694
0.149233 0.228687 0.0413062
0.156664 0.228717 0.0402075
0.163684 0.229328 0.0392767
0.170764 0.230137 0.0379339
0.178393 0.230594 0.0360266
0.186923 0.230579 0.0346227
0.195514 0.230365 0.0334936
0.204746 0.230854 0.0324559
0.213993 0.231724 0.031281
0.223011 0.233082 0.0312505
0.233921 0.233524 0.0312505
0.244511 0.233463 0.0305638
0.255512 0.233539 0.0292821
0.266285 0.234623 0.0277104
