assets/luts/ETERNA-BB.cube
TITLE "Generated by Resolve"
LUT_3D_SIZE 5
0 0 0
0.118486 0.0343328 0.0252384
0.321172 0.0718547 0.0597238
0.483162 0.114656 0.0972305
0.594873 0.196399 0.157122
0.109682 0.188998 0.100374
0.196933 0.200061 0.107866
0.368261 0.222492 0.128313
0.53872 0.289662 0.195285
0.682857 0.395148 0.276219
0.287251 0.487709 0.26041
0.381842 0.497734 0.281315
0.525521 0.532189 0.319783
0.682689 0.588418 0.370077
0.794263 0.642649 0.414298
0.506401 0.739452 0.437446
0.574914 0.750927 0.447974
0.675959 0.769284 0.465019
0.777584 0.791684 0.481971
0.849546 0.810376 0.492149
0.645365 0.861723 0.552438
0.690303 0.868574 0.5552
0.754757 0.87631 0.561456
0.823758 0.884077 0.567346
0.874571 0.890623 0.569009
0.024445 0.0288701 0.0811475
0.165698 0.0702678 0.132662
0.386557 0.103624 0.179416
0.539864 0.160784 0.226612
0.645624 0.253529 0.294316
0.144793 0.250736 0.251911
0.254337 0.254337 0.254337
0.437537 0.282094 0.276127
0.608225 0.352956 0.337453
0.735424 0.446967 0.403937
0.330617 0.541955 0.421469
0.433112 0.549981 0.432609
0.576318 0.57908 0.458244
0.726497 0.62359 0.488869
0.828046 0.667185 0.516594
0.52311 0.759335 0.567468
0.595087 0.768505 0.575631
0.695262 0.783734 0.585641
0.794491 0.801022 0.593606
0.866651 0.815824 0.593149
0.650111 0.867002 0.650507
0.698573 0.873167 0.656703
0.765347 0.880751 0.661662
0.831144 0.88716 0.662028
0.882506 0.891905 0.661524
0.0745861 0.0728008 0.193225
0.240482 0.112657 0.287114
0.459358 0.158587 0.349065
0.610925 0.234607 0.415702
0.717311 0.330602 0.482155
0.201846 0.335897 0.452827
0.33138 0.341604 0.454536
0.519112 0.380133 0.48716
0.683864 0.445731 0.541375
0.792477 0.517617 0.587533
0.375265 0.600992 0.590112
0.486152 0.611414 0.605615
0.634852 0.634852 0.634852
0.775189 0.666697 0.656672
0.863233 0.696193 0.671183
0.536294 0.779675 0.694682
0.611841 0.788342 0.705104
0.714672 0.80174 0.71809
0.8121 0.815915 0.724361
0.884062 0.826139 0.719112
0.654871 0.87303 0.753414
0.702785 0.879133 0.759106
0.772427 0.885924 0.765743
0.839216 0.890639 0.768322
0.890013 0.894026 0.764141
0.133394 0.121767 0.379126
0.336706 0.172671 0.476478
0.538521 0.233066 0.522988
0.686305 0.320241 0.590311
0.783627 0.418097 0.653681
0.258762 0.418631 0.585702
0.406928 0.430625 0.60708
0.60145 0.471656 0.655131
0.752575 0.52813 0.703761
0.839551 0.576303 0.73521
0.406958 0.647211 0.694789
0.521202 0.660014 0.718883
0.672465 0.68278 0.755871
0.800702 0.706798 0.782788
0.877394 0.725856 0.796017
0.542641 0.796262 0.776791
0.620264 0.80618 0.791501
0.727764 0.818555 0.811566
0.828687 0.828687 0.828687
0.896025 0.834302 0.827329
0.646708 0.873243 0.815641
0.696803 0.879164 0.823987
0.769512 0.885466 0.836439
0.840223 0.891737 0.843702
0.893355 0.89398 0.843366
0.213092 0.197391 0.544152
0.42034 0.250004 0.593347
0.614862 0.321126 0.649927
0.749722 0.410071 0.71577
0.832197 0.49099 0.761807
0.308782 0.484871 0.659403
0.467323 0.50486 0.697841
0.65684 0.544198 0.751766
0.795438 0.58555 0.798459
0.871763 0.622415 0.823041
0.425803 0.678721 0.747509
0.544289 0.695293 0.78088
0.695933 0.716457 0.821729
0.819821 0.735241 0.853162
0.892226 0.749615 0.865614
0.537133 0.800595 0.811963
0.6168 0.812024 0.832746
0.727214 0.825711 0.858045
0.82887 0.834989 0.876646
0.893599 0.839658 0.885161
0.632074 0.868635 0.847105
0.684611 0.875303 0.857923
0.759609 0.882719 0.87396
0.834989 0.889128 0.885283
0.892454 0.892454 0.892454
