assets/luts/Presetpro-Lomography.cube
#Created by: Adobe Photoshop Export Color Lookup Plugin
#Copyright: (C) Copyright 2022 Tim Martin and Presetpro.com
TITLE "Presetpro - Lomography.jpg"
#LUT size
LUT_3D_SIZE 5
#data domain
#LUT data points
DOMAIN_MIN 0.000000 0.000000 0.000000
DOMAIN_MAX 0.903226 0.903226 0.903226
0.070587 0.086273 0.090210
0.105896 0.090210 0.086273
0.232758 0.084503 0.090576
0.498322 0.000000 0.082367
0.790649 0.003937 0.047424
0.073639 0.121185 0.094116
0.126373 0.128143 0.094116
0.279419 0.119415 0.089325
0.537506 0.067535 0.075012
0.809235 0.000000 0.019470
0.001770 0.351410 0.148621
0.083252 0.343933 0.140778
0.435913 0.398468 0.050995
0.641632 0.322174 0.000000
0.845551 0.322174 0.003540
0.042419 0.681213 0.360931
0.235809 0.678680 0.369904
0.476013 0.686920 0.344482
0.763580 0.712585 0.269592
0.915619 0.647705 0.007965
0.582031 0.873383 0.673004
0.605957 0.875153 0.673126
0.664764 0.869446 0.676147
0.780518 0.880341 0.658203
0.943573 0.892609 0.625946
0.067566 0.095001 0.128143
0.119415 0.088043 0.131165
0.290314 0.080597 0.142944
0.542694 0.001770 0.135468
0.815430 0.000366 0.118530
0.064026 0.147736 0.149902
0.132935 0.148621 0.160400
0.323456 0.137756 0.144714
0.581024 0.065765 0.135101
0.827576 0.000000 0.108917
0.000000 0.395416 0.258942
0.125092 0.394928 0.251099
0.454254 0.429321 0.210114
0.648560 0.326477 0.105499
0.854645 0.333954 0.049194
0.200653 0.701202 0.461731
0.308807 0.697296 0.457306
0.493835 0.696014 0.450348
0.761444 0.720062 0.407227
0.901581 0.649353 0.205078
0.607727 0.877686 0.697784
0.626556 0.874268 0.698303
0.676910 0.873383 0.696899
0.786224 0.880341 0.687805
0.936615 0.890320 0.661743
0.002167 0.129028 0.363159
0.067047 0.119415 0.365326
0.404907 0.047455 0.398834
0.761780 0.000000 0.416290
0.862976 0.156708 0.389862
0.002167 0.220978 0.398834
0.076263 0.214905 0.403259
0.430206 0.187469 0.428070
0.730042 0.243256 0.430206
0.845032 0.253723 0.397949
0.000000 0.477264 0.488647
0.098267 0.479034 0.491699
0.455902 0.487274 0.495117
0.676025 0.440704 0.438049
0.865906 0.404541 0.383545
0.340698 0.734741 0.623291
0.423798 0.731323 0.625427
0.557495 0.720825 0.620239
0.747894 0.736115 0.602417
0.886932 0.645172 0.423676
0.645172 0.890839 0.759277
0.671234 0.885132 0.761414
0.707916 0.883362 0.750031
0.786224 0.886383 0.744720
0.930420 0.899445 0.732178
0.000000 0.236816 0.674652
0.000000 0.232391 0.674286
0.415039 0.192810 0.675140
0.755737 0.164978 0.696777
0.981903 0.504883 0.726654
0.003540 0.349152 0.686554
0.047546 0.351440 0.686920
0.443756 0.319550 0.688171
0.755737 0.324493 0.706024
0.961670 0.574066 0.729919
0.061096 0.570129 0.711945
0.271851 0.571411 0.706024
0.498657 0.575317 0.710815
0.734344 0.573181 0.718658
0.909058 0.661224 0.729919
0.417358 0.759644 0.754486
0.466919 0.756989 0.752686
0.593292 0.758270 0.750916
0.736115 0.759644 0.751801
0.869446 0.705139 0.690338
0.659454 0.909058 0.838593
0.680847 0.906891 0.829346
0.734711 0.903351 0.828827
0.807098 0.897278 0.824158
0.923981 0.905518 0.821899
0.360535 0.538910 0.865906
0.429230 0.538025 0.866302
0.566345 0.522461 0.863770
0.740417 0.486786 0.865540
0.940430 0.551056 0.876923
0.398346 0.595062 0.864258
0.468445 0.604675 0.865906
0.584564 0.590759 0.865906
0.737396 0.550293 0.864655
0.932587 0.597229 0.875885
0.467926 0.694733 0.867310
0.514496 0.699554 0.868195
0.618073 0.706512 0.869446
0.739166 0.678192 0.865021
0.916504 0.692596 0.879059
0.570160 0.810120 0.881592
0.596344 0.810242 0.883362
0.660339 0.807587 0.880341
0.763580 0.808472 0.883362
0.906372 0.804565 0.889069
0.681610 0.909790 0.913361
0.701202 0.912964 0.905884
0.746094 0.918671 0.914734
0.818481 0.915100 0.913849
0.912964 0.920807 0.909058
