assets/luts/Presetpro-Lomography.cube
#Created by: Adobe Photoshop Export Color Lookup Plugin
#Copyright: (C) Copyright 2022 Tim Martin and Presetpro.com
TITLE "Presetpro - Lomography.jpg"
#LUT size
LUT_3D_SIZE 8
#data domain
#LUT data points
DOMAIN_MIN 0.000000 0.000000 0.000000
DOMAIN_MAX 0.903226 0.903226 0.903226
0.070587 0.086273 0.090210
0.086273 0.086273 0.086273
0.121582 0.090210 0.090210
0.178619 0.088684 0.087799
0.296417 0.068573 0.088165
0.448212 0.001404 0.085144
0.619110 0.003052 0.072357
0.790649 0.003937 0.047424
0.078430 0.095123 0.097534
0.091217 0.099060 0.086273
0.124084 0.098541 0.096008
0.196320 0.096130 0.089813
0.315002 0.083221 0.087158
0.466553 0.026825 0.083252
0.634277 0.000000 0.071228
0.795685 0.003052 0.036804
0.071594 0.138275 0.104858
0.090210 0.138275 0.101074
0.149139 0.150024 0.094116
0.241852 0.148529 0.087677
0.357391 0.133331 0.082489
0.505249 0.107758 0.072479
0.660217 0.059814 0.055664
0.815186 0.038574 0.016968
0.000000 0.258545 0.120667
0.027710 0.260468 0.121185
0.137268 0.270325 0.116638
0.318909 0.292969 0.076904
0.461243 0.269287 0.043152
0.560791 0.225800 0.033295
0.700836 0.221741 0.005707
0.833252 0.244507 0.001526
0.001892 0.457336 0.178497
0.004547 0.453918 0.181152
0.114838 0.445557 0.176727
0.331024 0.476440 0.146271
0.551453 0.504395 0.053009
0.674896 0.470490 0.000000
0.752441 0.417114 0.002014
0.855804 0.406342 0.000366
0.001404 0.650482 0.317169
0.005920 0.646057 0.317902
0.217712 0.641113 0.319702
0.374573 0.639099 0.309052
0.554230 0.667572 0.267578
0.730560 0.679321 0.215210
0.824799 0.640106 0.083771
0.902344 0.597351 0.005066
0.359802 0.776855 0.512329
0.377747 0.775208 0.514130
0.425171 0.773834 0.515137
0.495148 0.772308 0.508820
0.600525 0.777618 0.495514
0.724854 0.793427 0.473114
0.855286 0.797363 0.436066
0.932190 0.767761 0.351440
0.582031 0.873383 0.673004
0.601410 0.870331 0.675659
0.613800 0.876526 0.668701
0.646667 0.873383 0.675415
0.691223 0.868683 0.670197
0.765106 0.881592 0.659851
0.843903 0.888947 0.652374
0.943573 0.892609 0.625946
0.071106 0.090210 0.101959
0.086792 0.089691 0.099060
0.118652 0.093628 0.095123
0.198090 0.091583 0.104858
0.318542 0.065643 0.101593
0.475922 0.000000 0.100952
0.641266 0.000519 0.093231
0.798981 0.000519 0.074646
0.082367 0.105377 0.107391
0.088287 0.102478 0.113739
0.131927 0.106384 0.112213
0.214783 0.098541 0.111694
0.335999 0.084747 0.102325
0.486145 0.011139 0.091217
0.650604 0.000000 0.087677
0.809875 0.000519 0.069580
0.069580 0.149139 0.123596
0.093628 0.148621 0.118164
0.153564 0.159393 0.109406
0.254120 0.145721 0.104370
0.376862 0.135345 0.100952
0.528778 0.103851 0.096893
0.674896 0.049072 0.076782
0.822632 0.030853 0.046051
0.000519 0.277771 0.155975
0.029724 0.279572 0.158508
0.145203 0.284119 0.146729
0.331177 0.307648 0.116364
0.471985 0.277130 0.088165
0.569641 0.231476 0.067047
0.709808 0.225159 0.035553
0.843140 0.242493 0.003052
0.000000 0.475555 0.224792
0.006317 0.473389 0.224304
0.136841 0.465179 0.226196
0.335480 0.484283 0.198395
0.560181 0.511230 0.140045
0.680725 0.474915 0.048065
0.759918 0.417480 0.003418
0.850861 0.408234 0.003418
0.002533 0.650848 0.363556
0.073547 0.659210 0.359772
0.247070 0.650360 0.361816
0.386841 0.647461 0.355103
0.554352 0.667175 0.327026
0.728912 0.685272 0.272247
0.823914 0.644806 0.175110
0.902466 0.599518 0.000000
0.378632 0.779633 0.539276
0.404175 0.779144 0.533722
0.446808 0.779144 0.535736
0.508392 0.775330 0.535248
0.604950 0.781158 0.523865
0.723846 0.795441 0.504486
0.846680 0.796478 0.475525
0.927155 0.768494 0.387482
0.593689 0.876801 0.681091
0.605194 0.873383 0.680847
0.625183 0.873871 0.686920
0.648438 0.872864 0.679321
0.695648 0.870728 0.683746
0.763336 0.880066 0.677551
0.842133 0.886902 0.657928
0.935608 0.892487 0.645416
0.068573 0.095123 0.145203
0.082855 0.091705 0.144714
0.136353 0.092224 0.152954
0.285004 0.074524 0.162811
0.378754 0.060730 0.158875
0.509186 0.000000 0.151672
0.670105 0.002014 0.143188
0.816559 0.002533 0.139282
0.062744 0.119171 0.155975
0.089691 0.118164 0.159393
0.154968 0.111328 0.166229
0.268433 0.112213 0.157990
0.378235 0.098907 0.169128
0.529297 0.014526 0.157867
0.677307 0.000519 0.146088
0.826447 0.000519 0.134338
0.044922 0.171661 0.180511
0.080322 0.179504 0.187836
0.163818 0.180511 0.186462
0.278656 0.172668 0.174072
0.411285 0.153931 0.171539
0.558502 0.121552 0.156342
0.702332 0.071716 0.149139
0.834778 0.050568 0.128510
0.000000 0.312073 0.239441
0.019989 0.313080 0.240479
0.174561 0.316986 0.242737
0.338104 0.333191 0.218842
0.472870 0.287018 0.172668
0.600769 0.256531 0.155975
0.728760 0.240967 0.135986
0.851471 0.250336 0.119171
0.001007 0.507294 0.339661
0.004028 0.505402 0.329163
0.187469 0.503357 0.323853
0.342041 0.507294 0.317505
0.564850 0.534607 0.279694
0.674530 0.480347 0.202148
0.760284 0.418121 0.109039
0.868561 0.418243 0.068665
0.200775 0.671356 0.462616
0.214447 0.669952 0.458832
0.303986 0.664642 0.449982
0.413269 0.660614 0.446045
0.562561 0.672638 0.428589
0.722321 0.689575 0.395721
0.816589 0.649109 0.306152
0.892365 0.603424 0.164215
0.422272 0.789520 0.581665
0.446442 0.785828 0.585205
0.481964 0.785583 0.587860
0.536743 0.779633 0.578766
0.612152 0.780792 0.575958
0.721954 0.794830 0.564178
0.844269 0.803436 0.545593
0.919922 0.769379 0.469452
0.615173 0.878693 0.708923
0.616058 0.876801 0.701324
0.634796 0.874756 0.702209
0.664398 0.873749 0.700836
0.700958 0.873749 0.701965
0.765472 0.882233 0.697784
0.845032 0.887421 0.683228
0.933960 0.892609 0.666534
0.000000 0.113739 0.264008
0.025818 0.107391 0.272339
0.136871 0.102478 0.269806
0.300171 0.080841 0.293854
0.568512 0.000000 0.328247
0.658813 0.001404 0.300812
0.726471 0.000000 0.292328
0.837067 0.000366 0.278412
0.001007 0.142700 0.283081
0.015076 0.139282 0.287018
0.142700 0.133850 0.293854
0.309021 0.116119 0.307129
0.570038 0.063263 0.333679
0.642731 0.077667 0.307129
0.721039 0.106140 0.296875
0.836060 0.006073 0.277161
0.000000 0.217834 0.316101
0.002899 0.214905 0.316620
0.157501 0.219208 0.327759
0.327759 0.209473 0.339508
0.529938 0.227692 0.346832
0.612122 0.224762 0.328125
0.727783 0.184174 0.306000
0.849457 0.160126 0.276642
0.006317 0.354797 0.375946
0.003937 0.359619 0.390381
0.165344 0.366455 0.373413
0.349365 0.368988 0.380737
0.500336 0.348877 0.356079
0.626312 0.327240 0.327728
0.747620 0.307770 0.306885
0.861603 0.297760 0.280060
0.001526 0.552826 0.466156
0.001526 0.553833 0.466156
0.233795 0.549286 0.463135
0.389618 0.539185 0.469452
0.559143 0.556763 0.441620
0.664917 0.496429 0.357605
0.769775 0.450500 0.297638
0.871490 0.444550 0.273102
0.254303 0.695374 0.553314
0.305511 0.693481 0.556091
0.392151 0.688049 0.565582
0.471222 0.684631 0.550415
0.565094 0.688049 0.542694
0.717407 0.703217 0.529785
0.802399 0.659607 0.444000
0.885651 0.596344 0.308899
0.475525 0.798859 0.649841
0.497772 0.799896 0.652374
0.542816 0.796478 0.658325
0.575958 0.794312 0.649841
0.627350 0.787994 0.642883
0.719543 0.801147 0.629608
0.834167 0.809113 0.619110
0.911438 0.775208 0.551788
0.653381 0.878052 0.744476
0.657928 0.879578 0.747223
0.659210 0.884125 0.737640
0.679932 0.879944 0.735107
0.716278 0.878052 0.734222
0.774597 0.882355 0.731567
0.843018 0.890961 0.721954
0.928131 0.892212 0.709412
0.002014 0.143219 0.461243
0.000519 0.141693 0.459717
0.057770 0.134491 0.464142
0.280579 0.106903 0.466064
0.508301 0.011780 0.492615
0.768250 0.019775 0.535767
0.864288 0.183075 0.517151
0.909546 0.255066 0.502869
0.000000 0.184082 0.475922
0.000000 0.180145 0.480865
0.077881 0.175201 0.477295
0.294373 0.151062 0.482239
0.525513 0.104126 0.513611
0.767487 0.164856 0.547516
0.856812 0.248962 0.520966
0.897034 0.296661 0.504883
0.002014 0.276794 0.497559
0.000000 0.279694 0.504242
0.112793 0.273743 0.514984
0.321289 0.256531 0.507660
0.545624 0.243530 0.528931
0.763062 0.341187 0.561676
0.822906 0.360168 0.530701
0.872864 0.371674 0.506775
0.002014 0.413666 0.539185
0.002014 0.415558 0.539520
0.160645 0.423401 0.536621
0.358124 0.425812 0.544983
0.546875 0.423767 0.551453
0.717407 0.479828 0.568542
0.765106 0.459351 0.538147
0.851105 0.419128 0.500366
0.002014 0.578766 0.592560
0.006073 0.578766 0.588501
0.245544 0.577881 0.585724
0.408234 0.587128 0.584076
0.549408 0.586609 0.586487
0.659454 0.555359 0.558136
0.764954 0.528809 0.522980
0.865387 0.502747 0.478821
0.300842 0.720428 0.647980
0.338654 0.719055 0.650635
0.416840 0.721313 0.652618
0.507294 0.712616 0.643524
0.591675 0.707153 0.646454
0.707672 0.718048 0.635681
0.787842 0.658203 0.548920
0.875641 0.609619 0.475647
0.494629 0.817078 0.708282
0.518799 0.812531 0.708527
0.549530 0.811890 0.707916
0.607697 0.808594 0.710571
0.662384 0.802277 0.707275
0.723846 0.803802 0.696411
0.832520 0.816956 0.696289
0.900818 0.777863 0.626434
0.633392 0.888672 0.768005
0.641632 0.890961 0.765198
0.675507 0.892609 0.773834
0.712067 0.889435 0.781158
0.734589 0.887543 0.773834
0.770264 0.886017 0.767365
0.839111 0.895508 0.764832
0.922852 0.900818 0.756622
0.000000 0.207611 0.637573
0.002533 0.209503 0.642151
0.008087 0.201660 0.639343
0.302826 0.186462 0.639740
0.497559 0.127136 0.634308
0.716003 0.114624 0.671478
0.883759 0.303619 0.686798
0.973328 0.461884 0.685791
0.002014 0.254272 0.643524
0.003418 0.256165 0.644928
0.041992 0.247192 0.641510
0.318512 0.230621 0.644684
0.504883 0.190887 0.646576
0.717163 0.193176 0.671234
0.883636 0.365204 0.692993
0.962799 0.492737 0.691864
0.001404 0.360138 0.656433
0.001892 0.354828 0.653015
0.133942 0.352448 0.656433
0.346497 0.337494 0.655304
0.520081 0.310303 0.655945
0.717529 0.334229 0.678955
0.860596 0.474121 0.698792
0.937531 0.547638 0.691345
0.002533 0.486145 0.672516
0.008331 0.489685 0.676147
0.234131 0.490204 0.672882
0.391113 0.490051 0.676270
0.537140 0.470581 0.670959
0.708527 0.486145 0.686157
0.854248 0.595947 0.711578
0.907166 0.604828 0.695404
0.133759 0.617981 0.692871
0.211029 0.619141 0.693878
0.326141 0.622772 0.691467
0.448456 0.622925 0.692841
0.565613 0.620392 0.693878
0.699188 0.624451 0.697937
0.822540 0.674408 0.713623
0.867798 0.641632 0.678802
0.348297 0.730316 0.725006
0.379517 0.729156 0.722473
0.445679 0.728790 0.723358
0.525513 0.729156 0.719818
0.611023 0.731689 0.717255
0.706787 0.730316 0.722473
0.778625 0.698181 0.693756
0.864655 0.668335 0.661987
0.525360 0.826202 0.772797
0.538147 0.829468 0.769257
0.580658 0.827850 0.772064
0.627838 0.829742 0.774719
0.684875 0.824799 0.768372
0.736115 0.819855 0.761047
0.819122 0.829865 0.762695
0.886261 0.778259 0.687683
0.649475 0.905518 0.811005
0.659729 0.904114 0.818604
0.677917 0.903107 0.816711
0.706268 0.899567 0.814301
0.750793 0.893860 0.817200
0.796478 0.897522 0.814178
0.840607 0.893860 0.811005
0.924744 0.907013 0.807983
0.000000 0.339783 0.764221
0.000000 0.336365 0.766754
0.203796 0.332825 0.760162
0.383789 0.320190 0.762695
0.542603 0.294617 0.760925
0.686035 0.251495 0.762054
0.848328 0.335876 0.783813
0.951813 0.514099 0.785706
0.000000 0.378357 0.775482
0.015686 0.384308 0.762573
0.238953 0.376343 0.767883
0.396576 0.362183 0.764587
0.544495 0.340820 0.764465
0.687531 0.301086 0.760529
0.845795 0.379639 0.782684
0.951416 0.540283 0.794830
0.036163 0.465149 0.768768
0.143219 0.466156 0.773315
0.291840 0.468048 0.773956
0.424408 0.458832 0.771423
0.555237 0.436798 0.768005
0.691101 0.408112 0.767242
0.842499 0.466156 0.785706
0.940186 0.600128 0.797241
0.217712 0.569000 0.776215
0.267548 0.572021 0.776337
0.355469 0.573944 0.773193
0.462463 0.574432 0.773193
0.573456 0.559143 0.774841
0.687561 0.532196 0.776337
0.826965 0.572021 0.787109
0.927246 0.674896 0.797852
0.340332 0.667053 0.784698
0.366882 0.669464 0.781403
0.431000 0.670990 0.787476
0.509674 0.668945 0.777740
0.600525 0.668945 0.782532
0.690460 0.651764 0.786102
0.815826 0.667053 0.792297
0.924866 0.747772 0.815948
0.447205 0.757629 0.804169
0.474915 0.753204 0.804688
0.505371 0.756104 0.802155
0.566620 0.754852 0.799896
0.635803 0.756226 0.798737
0.711212 0.754089 0.794434
0.812531 0.756866 0.801788
0.909180 0.800751 0.821899
0.549408 0.831757 0.823914
0.560150 0.834412 0.824036
0.590515 0.831635 0.820892
0.637207 0.833282 0.821503
0.689697 0.833527 0.824799
0.755341 0.836578 0.827332
0.816956 0.836578 0.820892
0.880829 0.803802 0.789124
0.661346 0.909058 0.864532
0.667053 0.912476 0.868683
0.685638 0.912079 0.864532
0.722443 0.909912 0.866302
0.763184 0.913971 0.872864
0.809235 0.912964 0.867188
0.846161 0.907776 0.865021
0.912079 0.916016 0.860107
0.360535 0.538910 0.865906
0.388000 0.538513 0.858063
0.439606 0.534210 0.859070
0.524719 0.529175 0.865906
0.611145 0.512604 0.861603
0.713470 0.491852 0.864532
0.817841 0.456421 0.861725
0.940430 0.551056 0.876923
0.376221 0.556488 0.865540
0.403290 0.566864 0.865143
0.456024 0.560913 0.862610
0.526123 0.552063 0.859070
0.614044 0.541443 0.862122
0.710815 0.520813 0.860229
0.817322 0.482086 0.861603
0.933838 0.571167 0.873871
0.409363 0.610870 0.866547
0.435822 0.609344 0.864136
0.493500 0.617188 0.865143
0.553192 0.610504 0.864136
0.626831 0.595184 0.865540
0.711700 0.576599 0.862762
0.812897 0.545349 0.860352
0.930420 0.611267 0.874390
0.447449 0.668549 0.865143
0.470337 0.669556 0.867432
0.514343 0.671967 0.868561
0.578979 0.677917 0.868561
0.643524 0.667053 0.866913
0.717010 0.647552 0.863129
0.805573 0.622131 0.861115
0.917267 0.666656 0.874878
0.498169 0.734589 0.875397
0.512329 0.731201 0.869690
0.544708 0.731689 0.873505
0.594818 0.731049 0.867035
0.660614 0.736267 0.869843
0.725739 0.723969 0.869843
0.800751 0.699951 0.866028
0.912598 0.728424 0.880829
0.560425 0.799011 0.885132
0.568634 0.796204 0.880066
0.590271 0.795319 0.878693
0.632507 0.795319 0.884766
0.681732 0.791534 0.877808
0.742310 0.789368 0.877686
0.808746 0.777374 0.876923
0.909058 0.787598 0.884766
0.622253 0.857574 0.891205
0.626312 0.857574 0.891205
0.646667 0.857574 0.898407
0.680450 0.860992 0.894501
0.721313 0.856171 0.891968
0.765961 0.856689 0.888062
0.824036 0.852386 0.891602
0.901581 0.853638 0.892853
0.681610 0.909790 0.913361
0.689056 0.920441 0.912598
0.701843 0.914368 0.906891
0.726257 0.915985 0.911438
0.763947 0.912964 0.912964
0.808228 0.922974 0.917145
0.856415 0.920319 0.916016
0.912964 0.920807 0.909058
