assets/luts/Presetpro-Lomography.cube
#Created by: Adobe Photoshop Export Color Lookup Plugin
#Copyright: (C) Copyright 2022 Tim Martin and Presetpro.com
TITLE "Presetpro - Lomography.jpg"
#LUT size
LUT_3D_SIZE 32
#data domain
DOMAIN_MIN 0.0 0.0 0.0
DOMAIN_MAX 1.0 1.0 1.0
#LUT data points
0.070587 0.086273 0.090210
0.074371 0.090057 0.086151
0.082611 0.090454 0.086517
0.086273 0.093353 0.089813
0.086273 0.086273 0.086273
0.090210 0.090210 0.090210
0.096405 0.087036 0.090942
0.105896 0.090210 0.086273
0.121582 0.090210 0.090210
0.126617 0.092987 0.086273
0.138397 0.086273 0.087524
0.163574 0.090454 0.095520
0.178619 0.088684 0.087799
0.205566 0.084625 0.090820
0.232758 0.084503 0.090576
0.264374 0.076538 0.092102
0.296417 0.068573 0.088165
0.332336 0.064514 0.084503
0.371552 0.044128 0.088562
0.412018 0.024139 0.086884
0.448212 0.001404 0.085144
0.498322 0.000000 0.082367
0.539429 0.001129 0.083496
0.575348 0.002899 0.078430
0.619110 0.003052 0.072357
0.662872 0.003937 0.063507
0.709930 0.000000 0.058838
0.743073 0.003418 0.058319
0.790649 0.003937 0.047424
0.834045 0.000244 0.047302
0.870087 0.000000 0.027710
0.901947 0.000000 0.019623
0.070587 0.086517 0.090332
0.074524 0.090210 0.094116
0.075012 0.090454 0.086517
0.086273 0.093872 0.090057
0.086639 0.090332 0.096771
0.094116 0.087524 0.090576
0.094879 0.093994 0.086517
0.109161 0.093231 0.089447
0.122589 0.091217 0.089172
0.127777 0.093872 0.087280
0.142181 0.092987 0.087524
0.162415 0.091583 0.091705
0.176331 0.091583 0.089050
0.205170 0.088562 0.087677
0.233002 0.084747 0.090820
0.268433 0.080444 0.092224
0.300201 0.074493 0.088287
0.341553 0.064514 0.089813
0.374084 0.046539 0.086151
0.419617 0.028961 0.080719
0.449982 0.004303 0.083618
0.498047 0.000000 0.082214
0.539429 0.000000 0.077026
0.576355 0.000000 0.070709
0.622894 0.000885 0.071350
0.662506 0.000000 0.069946
0.710571 0.000000 0.060730
0.750916 0.000000 0.058838
0.790771 0.003784 0.043274
0.833649 0.000122 0.038971
0.870209 0.000122 0.027313
0.909668 0.000122 0.023285
0.074524 0.090210 0.094116
0.074524 0.090210 0.086792
0.078949 0.094116 0.090210
0.086273 0.094116 0.090210
0.087036 0.087036 0.087036
0.094757 0.093750 0.093628
0.109039 0.094116 0.096283
0.109161 0.093475 0.089050
0.113739 0.090454 0.087677
0.127136 0.093475 0.086517
0.147614 0.090210 0.090210
0.167480 0.094116 0.095001
0.182526 0.092590 0.089172
0.214417 0.090210 0.089050
0.235016 0.086273 0.088043
0.270325 0.082367 0.094116
0.302734 0.072723 0.088043
0.343719 0.066681 0.088440
0.375977 0.050842 0.083862
0.416199 0.034668 0.077789
0.458832 0.008331 0.082855
0.506775 0.002411 0.079590
0.539673 0.001404 0.075897
0.582184 0.000000 0.073486
0.624786 0.000000 0.071472
0.668060 0.006073 0.067413
0.710571 0.000641 0.059448
0.750916 0.000000 0.051483
0.791260 0.003296 0.047943
0.833771 0.000244 0.039215
0.873505 0.003662 0.023407
0.905640 0.003662 0.015167
0.078430 0.094116 0.098053
0.077789 0.093994 0.089813
0.078674 0.094360 0.090454
0.082367 0.098053 0.094116
0.087036 0.094879 0.090942
0.095367 0.094757 0.093475
0.109436 0.094879 0.090576
0.113739 0.098053 0.094116
0.117126 0.091583 0.090332
0.134460 0.094482 0.087036
0.146240 0.097168 0.090698
0.171021 0.096649 0.090210
0.187592 0.096893 0.088165
0.222260 0.095001 0.089172
0.239197 0.090210 0.091949
0.276123 0.085144 0.092590
0.304626 0.080719 0.088562
0.342316 0.070587 0.085510
0.382416 0.055145 0.084381
0.427216 0.036285 0.081085
0.465027 0.014557 0.081207
0.507660 0.002289 0.080719
0.546112 0.003937 0.078430
0.592041 0.000000 0.073761
0.624786 0.000000 0.071472
0.674255 0.002777 0.067413
0.714478 0.002899 0.055786
0.752441 0.000000 0.051849
0.791016 0.003540 0.043884
0.834534 0.003296 0.031891
0.881470 0.000000 0.023529
0.909424 0.003937 0.011780
0.078430 0.095123 0.097534
0.081848 0.098541 0.094116
0.081848 0.098541 0.094116
0.082214 0.098175 0.094116
0.091217 0.099060 0.086273
0.094360 0.101959 0.089325
0.103210 0.098541 0.089447
0.118530 0.099426 0.087280
0.124084 0.098541 0.096008
0.139526 0.099182 0.090332
0.155975 0.099060 0.093872
0.171906 0.099945 0.088287
0.196320 0.096130 0.089813
0.223267 0.096252 0.088409
0.251099 0.094635 0.084625
0.278015 0.087280 0.089569
0.315002 0.083221 0.087158
0.354828 0.076263 0.086395
0.392151 0.061340 0.084503
0.432648 0.052490 0.082977
0.466553 0.026825 0.083252
0.510071 0.006439 0.077026
0.552948 0.000519 0.077423
0.593048 0.000000 0.075012
0.634277 0.000000 0.071228
0.677795 0.000000 0.071991
0.718414 0.000519 0.061737
0.755341 0.000519 0.045166
0.795685 0.003052 0.036804
0.841125 0.000244 0.023773
0.877686 0.000122 0.011902
0.909302 0.004425 0.003418
0.072479 0.105896 0.094757
0.075531 0.109314 0.091217
0.077789 0.103210 0.086914
0.079193 0.103485 0.094116
0.084747 0.106628 0.091583
0.098663 0.106506 0.094757
0.106628 0.102722 0.087036
0.121307 0.107788 0.094238
0.128387 0.113342 0.093475
0.143585 0.108795 0.095886
0.162689 0.106506 0.093475
0.183167 0.105896 0.090332
0.207214 0.104095 0.095886
0.230713 0.102600 0.089172
0.254242 0.098053 0.085144
0.287903 0.100708 0.084259
0.323090 0.096649 0.085022
0.364349 0.084747 0.083862
0.396973 0.074524 0.084625
0.438599 0.060974 0.080566
0.480194 0.041229 0.079071
0.521210 0.020721 0.077789
0.555725 0.002411 0.071716
0.596588 0.001007 0.074890
0.641998 0.002411 0.069946
0.680450 0.001404 0.060211
0.722321 0.005951 0.057556
0.759399 0.003296 0.045685
0.805939 0.002899 0.038971
0.841003 0.000244 0.023010
0.871979 0.003296 0.005554
0.907776 0.000000 0.000641
0.074524 0.111328 0.097290
0.074524 0.111328 0.097290
0.075256 0.110565 0.097290
0.079956 0.114105 0.094879
0.083862 0.117401 0.097015
0.094635 0.114471 0.097168
0.108154 0.113739 0.094116
0.123840 0.118530 0.097015
0.145844 0.114990 0.098938
0.154846 0.112457 0.092224
0.169006 0.114471 0.089691
0.191132 0.115234 0.090332
0.208344 0.116882 0.095001
0.241089 0.111450 0.088684
0.270569 0.110565 0.087677
0.302826 0.105377 0.086273
0.336243 0.104614 0.087555
0.369415 0.093475 0.079559
0.409882 0.083984 0.082367
0.455170 0.076904 0.080841
0.481873 0.060577 0.080841
0.524353 0.040222 0.075012
0.561798 0.016296 0.074127
0.607086 0.000763 0.066681
0.643524 0.004669 0.065155
0.686401 0.001526 0.058838
0.730164 0.000000 0.050995
0.770020 0.000000 0.040741
0.804291 0.000000 0.022247
0.842896 0.003174 0.018097
0.877930 0.000000 0.003296
0.911316 0.003937 0.003174
0.073639 0.121185 0.094116
0.076904 0.124084 0.097168
0.078674 0.123077 0.097168
0.082733 0.125854 0.100586
0.093353 0.123840 0.095520
0.097656 0.127014 0.098297
0.108032 0.126373 0.097290
0.126373 0.128143 0.094116
0.147247 0.131165 0.093994
0.163696 0.130035 0.091095
0.185181 0.131165 0.092346
0.202393 0.124725 0.092743
0.228973 0.129028 0.095001
0.256653 0.123322 0.087036
0.279419 0.119415 0.089325
0.312561 0.115479 0.083496
0.351044 0.111572 0.086029
0.385956 0.106781 0.080597
0.414185 0.103973 0.080597
0.456055 0.095886 0.079712
0.491974 0.080811 0.072083
0.537506 0.067535 0.075012
0.571533 0.049835 0.069580
0.605560 0.031128 0.063507
0.652252 0.007446 0.058838
0.693481 0.000885 0.052246
0.733215 0.002411 0.045044
0.770538 0.000885 0.042145
0.809235 0.000000 0.019470
0.846680 0.001770 0.009125
0.879700 0.007202 0.000000
0.919403 0.030212 0.002655
0.071594 0.138275 0.104858
0.075531 0.139282 0.100067
0.074524 0.138275 0.099060
0.075531 0.139282 0.100067
0.090210 0.138275 0.101074
0.090576 0.139282 0.100677
0.114471 0.145844 0.101196
0.120422 0.144196 0.095001
0.149139 0.150024 0.094116
0.173035 0.148132 0.091095
0.199371 0.150787 0.094116
0.223267 0.148132 0.089813
0.241852 0.148529 0.087677
0.267151 0.143219 0.089569
0.295624 0.137512 0.091583
0.330017 0.138275 0.086273
0.357391 0.133331 0.082489
0.395081 0.128662 0.080841
0.432281 0.120667 0.078949
0.466949 0.115356 0.076416
0.505249 0.107758 0.072479
0.544342 0.094116 0.068573
0.586487 0.083618 0.064880
0.619598 0.074738 0.055023
0.660217 0.059814 0.055664
0.698425 0.045654 0.045044
0.743591 0.039185 0.035553
0.780792 0.033112 0.017578
0.815186 0.038574 0.016968
0.847046 0.058044 0.004425
0.881714 0.078430 0.000122
0.919556 0.104095 0.001007
0.061615 0.159149 0.103088
0.068573 0.160156 0.107025
0.069702 0.158264 0.108917
0.075653 0.156342 0.110931
0.087280 0.155731 0.108032
0.092102 0.162048 0.104858
0.108673 0.161407 0.102722
0.129028 0.162537 0.101440
0.149261 0.166473 0.096252
0.181030 0.170380 0.098053
0.211243 0.177216 0.093109
0.238953 0.177094 0.088806
0.264374 0.171661 0.084747
0.293457 0.166473 0.080078
0.319641 0.165192 0.085144
0.344818 0.156342 0.081970
0.376740 0.154572 0.080566
0.414703 0.146729 0.074524
0.443909 0.147369 0.076141
0.477051 0.138245 0.070953
0.519684 0.133972 0.067810
0.554474 0.123322 0.062866
0.599884 0.117126 0.065521
0.632751 0.109802 0.053650
0.669312 0.106750 0.046936
0.707153 0.100555 0.031891
0.745239 0.099792 0.029114
0.782288 0.099792 0.018982
0.820740 0.108032 0.005585
0.852753 0.121185 0.000000
0.884125 0.137115 0.001129
0.922699 0.153046 0.000000
0.042023 0.182770 0.104492
0.047455 0.184174 0.107269
0.052887 0.181519 0.108398
0.065796 0.184570 0.112701
0.072235 0.185944 0.105621
0.091583 0.183411 0.110443
0.100067 0.186707 0.108917
0.126007 0.190765 0.109802
0.147888 0.198456 0.100830
0.184814 0.202271 0.098297
0.216675 0.210236 0.094116
0.259064 0.212646 0.088684
0.292206 0.207581 0.083496
0.318909 0.202026 0.077545
0.345459 0.194550 0.076263
0.376068 0.191406 0.073883
0.393555 0.184174 0.068695
0.423798 0.174194 0.060211
0.459961 0.173035 0.069336
0.494263 0.164307 0.063995
0.528778 0.163300 0.057312
0.569885 0.156586 0.059967
0.604675 0.152557 0.057434
0.642639 0.148499 0.049469
0.680084 0.144836 0.027069
0.717010 0.143555 0.021881
0.752319 0.146851 0.011139
0.787476 0.146088 0.003174
0.822266 0.156586 0.000366
0.857574 0.164185 0.000000
0.892090 0.179871 0.000000
0.929413 0.195801 0.002533
0.012665 0.222626 0.116272
0.019379 0.222504 0.120178
0.031403 0.217560 0.120422
0.043640 0.218719 0.120789
0.063782 0.214783 0.114227
0.081482 0.214020 0.115875
0.093109 0.220612 0.120819
0.120667 0.226044 0.112701
0.146729 0.234009 0.105896
0.178497 0.234131 0.100555
0.221985 0.239838 0.095642
0.263000 0.246155 0.090210
0.312073 0.255035 0.084625
0.343170 0.247284 0.074249
0.378357 0.240082 0.071747
0.406311 0.230469 0.061096
0.432495 0.223877 0.061218
0.459076 0.212250 0.058044
0.479065 0.203278 0.054901
0.514374 0.196320 0.059601
0.542084 0.192657 0.047943
0.581909 0.187347 0.044281
0.616455 0.185944 0.036438
0.653259 0.184418 0.027832
0.684143 0.184570 0.020752
0.724487 0.182770 0.008606
0.759644 0.188721 0.004028
0.796844 0.191254 0.002777
0.828094 0.200104 0.000000
0.863129 0.209229 0.000000
0.893616 0.226166 0.000000
0.929413 0.238312 0.002533
0.000000 0.258545 0.120667
0.006317 0.254639 0.120667
0.006317 0.254639 0.120667
0.008728 0.252228 0.120667
0.027710 0.260468 0.121185
0.057068 0.255890 0.124603
0.086395 0.254486 0.122314
0.113342 0.261200 0.123962
0.137268 0.270325 0.116638
0.182159 0.271454 0.109802
0.224762 0.283356 0.103851
0.272583 0.285004 0.091827
0.318909 0.292969 0.076904
0.367340 0.298767 0.066528
0.407684 0.292969 0.057800
0.438446 0.281708 0.055420
0.461243 0.269287 0.043152
0.493591 0.262329 0.045166
0.514984 0.248291 0.043274
0.538147 0.240204 0.040741
0.560791 0.225800 0.033295
0.595459 0.223267 0.028351
0.625702 0.225922 0.019867
0.658813 0.223267 0.011780
0.700836 0.221741 0.005707
0.736511 0.224915 0.000000
0.765198 0.228973 0.001526
0.802032 0.234528 0.001526
0.833252 0.244507 0.001526
0.869324 0.254395 0.000000
0.901337 0.262360 0.002289
0.934845 0.275757 0.002411
0.000000 0.308533 0.138885
0.000000 0.303955 0.132050
0.000000 0.300293 0.132935
0.005188 0.299042 0.133972
0.001129 0.302826 0.134979
0.019745 0.301056 0.131042
0.067810 0.301697 0.136505
0.094604 0.302582 0.129425
0.139648 0.312439 0.124481
0.186218 0.318146 0.117004
0.227570 0.328369 0.105499
0.274506 0.333710 0.096252
0.325226 0.339996 0.077271
0.374542 0.345459 0.067291
0.431335 0.351410 0.056061
0.472717 0.341278 0.036713
0.495148 0.332672 0.033508
0.523468 0.313568 0.022156
0.548370 0.308258 0.021881
0.567352 0.293701 0.015320
0.593018 0.277893 0.009613
0.615814 0.267639 0.005829
0.643524 0.263123 0.004425
0.672119 0.263123 0.004913
0.706909 0.261719 0.001648
0.741302 0.262360 0.000000
0.773315 0.272583 0.003937
0.809235 0.278290 0.000000
0.841370 0.281952 0.000000
0.873871 0.291962 0.000244
0.903229 0.302185 0.001648
0.941162 0.318024 0.002289
0.001770 0.351410 0.148621
0.002167 0.353943 0.144714
0.000000 0.353943 0.144714
0.000000 0.351410 0.142181
0.000000 0.350891 0.146851
0.002411 0.348877 0.142548
0.027069 0.349640 0.146484
0.083252 0.343933 0.140778
0.125854 0.354950 0.134705
0.177612 0.359009 0.134094
0.220734 0.370514 0.119659
0.277161 0.378845 0.110962
0.323059 0.388336 0.094482
0.381897 0.398193 0.082611
0.435913 0.398468 0.050995
0.493988 0.408051 0.033661
0.528503 0.394775 0.013916
0.555084 0.381989 0.010010
0.578094 0.364807 0.006073
0.603790 0.350494 0.004547
0.619751 0.337494 0.002777
0.641632 0.322174 0.000000
0.661865 0.312561 0.000000
0.688934 0.305359 0.000000
0.715485 0.301178 0.005310
0.750916 0.305115 0.003540
0.782043 0.314087 0.002411
0.814301 0.314728 0.000519
0.845551 0.322174 0.003540
0.873505 0.333832 0.000000
0.907410 0.344086 0.002014
0.936859 0.355713 0.002167
0.003937 0.405426 0.164581
0.003937 0.405426 0.164581
0.002014 0.403534 0.158905
0.001526 0.405029 0.154327
0.001892 0.400604 0.165222
0.000000 0.404663 0.165955
0.001526 0.402618 0.161407
0.056427 0.399475 0.163300
0.119049 0.403534 0.155701
0.171509 0.409454 0.150909
0.217316 0.415161 0.140289
0.272980 0.425415 0.123840
0.328766 0.431580 0.119934
0.384033 0.440063 0.102478
0.437683 0.450592 0.072876
0.487915 0.456390 0.050842
0.551056 0.466125 0.015686
0.579010 0.451965 0.009338
0.604675 0.435364 0.004303
0.630615 0.414764 0.000000
0.653870 0.404144 0.003418
0.673615 0.388824 0.000000
0.692474 0.379974 0.000885
0.716370 0.364319 0.007843
0.730560 0.353302 0.002014
0.756470 0.346710 0.000763
0.787109 0.352051 0.000000
0.819489 0.356476 0.000000
0.849854 0.362030 0.002014
0.881195 0.371887 0.001892
0.913208 0.383942 0.001892
0.942932 0.393768 0.000000
0.001892 0.457336 0.178497
0.000000 0.455444 0.180664
0.000000 0.457336 0.180664
0.000000 0.455444 0.180664
0.004547 0.453918 0.181152
0.005310 0.452789 0.180023
0.000000 0.455292 0.178619
0.029449 0.450378 0.180420
0.114838 0.445557 0.176727
0.167603 0.453400 0.171021
0.220612 0.466309 0.165344
0.276398 0.470490 0.154449
0.331024 0.476440 0.146271
0.389862 0.484650 0.134613
0.445648 0.492096 0.108826
0.493988 0.504242 0.080994
0.551453 0.504395 0.053009
0.599396 0.514374 0.021118
0.634827 0.502106 0.000000
0.655060 0.487823 0.005951
0.674896 0.470490 0.000000
0.697540 0.454681 0.000000
0.718658 0.440002 0.005066
0.740295 0.432037 0.001007
0.752441 0.417114 0.002014
0.776367 0.403931 0.000000
0.798248 0.399261 0.005310
0.821381 0.399384 0.003784
0.855804 0.406342 0.000366
0.883362 0.411652 0.000000
0.911316 0.421783 0.000000
0.943207 0.431641 0.000000
0.000000 0.509186 0.208221
0.003540 0.507416 0.208221
0.003540 0.509583 0.203918
0.000000 0.508820 0.200012
0.001648 0.507050 0.207733
0.005432 0.506165 0.208221
0.003174 0.504272 0.206451
0.023254 0.501343 0.203033
0.104614 0.502350 0.204163
0.162018 0.504150 0.202667
0.220093 0.510956 0.199860
0.274384 0.512360 0.190765
0.328888 0.521851 0.175720
0.382660 0.531708 0.166107
0.437683 0.539398 0.146271
0.493835 0.542328 0.130707
0.550812 0.554230 0.102875
0.601166 0.556244 0.077057
0.652649 0.561829 0.047089
0.680359 0.549683 0.008606
0.700348 0.533722 0.002167
0.717773 0.516022 0.000000
0.738159 0.502502 0.003937
0.761566 0.492004 0.001007
0.778137 0.477814 0.000000
0.802032 0.465820 0.000000
0.818115 0.457703 0.000000
0.840759 0.448212 0.000000
0.859863 0.444305 0.003937
0.890686 0.451874 0.001770
0.915619 0.459991 0.000122
0.946869 0.467438 0.001770
0.000000 0.558777 0.236572
0.000000 0.558777 0.236572
0.000244 0.559021 0.236816
0.000000 0.558777 0.236572
0.000519 0.558289 0.236572
0.006561 0.553833 0.239868
0.002258 0.554871 0.231903
0.049347 0.552704 0.232025
0.132843 0.550934 0.234924
0.181641 0.548645 0.233795
0.232391 0.554871 0.231018
0.290436 0.556488 0.225433
0.337494 0.566620 0.207611
0.394806 0.573822 0.205200
0.442749 0.573822 0.190552
0.501343 0.583557 0.175385
0.556641 0.589264 0.151428
0.602814 0.599396 0.137268
0.649628 0.599640 0.107788
0.699554 0.607239 0.093750
0.722351 0.595215 0.049500
0.740295 0.580292 0.009125
0.759796 0.564484 0.000000
0.780670 0.549683 0.001007
0.797363 0.537659 0.002533
0.812531 0.522461 0.000000
0.834045 0.515259 0.002289
0.851105 0.504395 0.000000
0.877930 0.501343 0.001648
0.896271 0.488708 0.000000
0.919556 0.493744 0.000000
0.951935 0.505524 0.002289
0.002411 0.604187 0.276306
0.002289 0.604309 0.276306
0.000000 0.606842 0.276550
0.000000 0.608612 0.278320
0.000519 0.604187 0.279480
0.003937 0.602661 0.275024
0.025787 0.602814 0.274017
0.110199 0.599396 0.278687
0.164215 0.593445 0.274780
0.213165 0.599121 0.277191
0.257812 0.600281 0.274414
0.305878 0.601654 0.269348
0.355957 0.607208 0.258209
0.404541 0.614410 0.251251
0.453735 0.615326 0.237701
0.508911 0.620758 0.225342
0.556366 0.630890 0.210907
0.602661 0.635559 0.192932
0.650482 0.643280 0.176880
0.690460 0.644928 0.168274
0.737000 0.640869 0.148529
0.761810 0.632385 0.113373
0.781403 0.616333 0.067200
0.793060 0.603180 0.014435
0.811523 0.590912 0.000000
0.833923 0.579895 0.000000
0.849976 0.569519 0.004181
0.867554 0.560944 0.005432
0.882874 0.552979 0.002411
0.909698 0.541443 0.000000
0.931427 0.543854 0.003784
0.948120 0.539917 0.000000
0.001404 0.650482 0.317169
0.001404 0.647949 0.315002
0.001404 0.647705 0.321960
0.001404 0.645416 0.319702
0.005920 0.646057 0.317902
0.061127 0.643524 0.322357
0.120209 0.644043 0.319305
0.173462 0.642151 0.318298
0.217712 0.641113 0.319702
0.252258 0.638733 0.319946
0.288544 0.638855 0.317291
0.328278 0.638977 0.314392
0.374573 0.639099 0.309052
0.420868 0.647949 0.295166
0.468048 0.651886 0.286560
0.510040 0.657684 0.284393
0.554230 0.667572 0.267578
0.603943 0.672485 0.263000
0.652893 0.674011 0.239227
0.696777 0.679565 0.225586
0.730560 0.679321 0.215210
0.768768 0.679199 0.205444
0.789001 0.670990 0.171692
0.808350 0.652893 0.138550
0.824799 0.640106 0.083771
0.848450 0.630249 0.030121
0.865173 0.619873 0.000000
0.887299 0.608734 0.000885
0.902344 0.597351 0.005066
0.922211 0.591919 0.000000
0.943329 0.585327 0.002655
0.964691 0.585205 0.002533
0.042419 0.681213 0.360931
0.051025 0.686401 0.363831
0.072815 0.686157 0.361450
0.102783 0.681610 0.370667
0.135010 0.683868 0.361053
0.170929 0.687164 0.370300
0.206207 0.679199 0.368896
0.235809 0.678680 0.369904
0.273254 0.680206 0.368134
0.300201 0.674530 0.368134
0.333344 0.674652 0.369019
0.362427 0.673370 0.364990
0.399506 0.678436 0.359528
0.438080 0.681854 0.351959
0.476013 0.686920 0.344482
0.522705 0.693634 0.341583
0.561188 0.696289 0.333740
0.603424 0.701599 0.322845
0.647064 0.707031 0.309174
0.688171 0.706024 0.297058
0.732849 0.713867 0.276062
0.763580 0.712585 0.269592
0.803162 0.713745 0.260376
0.825317 0.696655 0.237610
0.837585 0.687805 0.193573
0.855530 0.678955 0.152832
0.871979 0.667572 0.103882
0.886017 0.653778 0.061279
0.915619 0.647705 0.007965
0.932587 0.638733 0.002655
0.952942 0.629120 0.000000
0.975220 0.630249 0.000000
0.185242 0.720947 0.415588
0.193207 0.719696 0.418365
0.202545 0.722351 0.416718
0.218872 0.719818 0.421783
0.236206 0.718658 0.417847
0.252258 0.716400 0.418488
0.275146 0.717010 0.421539
0.298553 0.714752 0.417236
0.322723 0.714874 0.418854
0.350037 0.710815 0.416718
0.373047 0.713104 0.419373
0.398499 0.710571 0.414185
0.432892 0.710327 0.417236
0.465912 0.711945 0.408875
0.496765 0.717773 0.404205
0.537872 0.723602 0.396210
0.569794 0.725616 0.388885
0.608490 0.732086 0.379883
0.649475 0.729279 0.367371
0.688812 0.735352 0.362183
0.729797 0.737762 0.353333
0.765717 0.744598 0.334747
0.799377 0.744476 0.322601
0.825562 0.741577 0.325134
0.851990 0.732208 0.295776
0.867554 0.719421 0.262024
0.884369 0.709167 0.219757
0.898682 0.696777 0.183960
0.920807 0.687683 0.143738
0.942322 0.680847 0.090759
0.963196 0.670105 0.036469
0.983185 0.664917 0.000000
0.281982 0.752808 0.460602
0.285156 0.753693 0.461609
0.289703 0.749908 0.461884
0.303619 0.751801 0.467438
0.312988 0.753723 0.465546
0.329437 0.749268 0.465546
0.339294 0.746490 0.465546
0.363464 0.748901 0.465546
0.375458 0.747894 0.462494
0.400909 0.743958 0.464539
0.419739 0.742706 0.467438
0.442261 0.738647 0.460754
0.459320 0.741058 0.461121
0.491455 0.743713 0.457703
0.518768 0.744965 0.450989
0.549774 0.750793 0.448853
0.585480 0.752960 0.438080
0.619629 0.755615 0.434937
0.653137 0.756744 0.427856
0.685638 0.764069 0.420898
0.721313 0.770660 0.414429
0.759644 0.775848 0.407227
0.798126 0.776337 0.390259
0.828339 0.772430 0.385986
0.851105 0.768494 0.378876
0.876923 0.760406 0.355865
0.894745 0.749542 0.322968
0.907288 0.737640 0.289825
0.925354 0.728668 0.251770
0.948517 0.717773 0.218750
0.967499 0.712860 0.178528
0.987213 0.702850 0.148560
0.359802 0.776855 0.512329
0.360809 0.777863 0.513367
0.364594 0.779907 0.516266
0.373322 0.777740 0.517151
0.377747 0.775208 0.514130
0.387238 0.777100 0.511475
0.395325 0.777740 0.507019
0.414307 0.779022 0.505371
0.425171 0.773834 0.515137
0.443390 0.774597 0.513214
0.462128 0.769897 0.511444
0.482086 0.773438 0.506165
0.495148 0.772308 0.508820
0.519928 0.769897 0.509186
0.544312 0.775574 0.506653
0.568634 0.778015 0.493011
0.600525 0.777618 0.495514
0.631256 0.783813 0.496643
0.660858 0.781677 0.489563
0.691101 0.788635 0.480713
0.724854 0.793427 0.473114
0.756622 0.794312 0.465668
0.793427 0.797363 0.456177
0.820618 0.798218 0.447968
0.855286 0.797363 0.436066
0.886169 0.792542 0.434174
0.899811 0.785950 0.412659
0.911835 0.776093 0.389130
0.932190 0.767761 0.351440
0.948761 0.756866 0.320953
0.971283 0.748657 0.297943
0.988220 0.742432 0.267822
0.421387 0.800903 0.553070
0.429993 0.801636 0.557739
0.427338 0.804810 0.554840
0.433167 0.804810 0.557739
0.444153 0.801636 0.554474
0.449341 0.801025 0.550415
0.459839 0.801636 0.559418
0.468445 0.803406 0.557892
0.479065 0.800140 0.550171
0.494995 0.802155 0.550659
0.505768 0.799744 0.553711
0.519806 0.801636 0.554474
0.534973 0.798615 0.557129
0.557129 0.795441 0.554596
0.574829 0.799500 0.554474
0.599487 0.798340 0.551575
0.617096 0.800903 0.545990
0.647339 0.804810 0.542328
0.669708 0.811768 0.538147
0.700714 0.811890 0.533478
0.730316 0.814056 0.532593
0.755096 0.817322 0.522217
0.787994 0.824036 0.513855
0.817596 0.821503 0.505524
0.849091 0.822144 0.499176
0.880829 0.821259 0.492737
0.900696 0.817322 0.489319
0.919281 0.809235 0.475525
0.935730 0.800140 0.443787
0.952698 0.792786 0.417480
0.974701 0.784698 0.395325
0.995331 0.777374 0.374451
0.481842 0.828857 0.592926
0.486420 0.832764 0.596832
0.492981 0.829468 0.596832
0.491089 0.825562 0.593933
0.494751 0.823395 0.594055
0.497528 0.829468 0.593567
0.510071 0.828094 0.596832
0.519287 0.827087 0.598999
0.524353 0.828461 0.598877
0.539520 0.828857 0.596710
0.554962 0.825562 0.597595
0.564850 0.821625 0.593567
0.575073 0.822266 0.596222
0.587341 0.819977 0.597839
0.593811 0.824036 0.593567
0.619476 0.825562 0.594940
0.644806 0.824921 0.592926
0.663391 0.831635 0.586853
0.687286 0.832397 0.588379
0.708557 0.830994 0.583801
0.730957 0.837311 0.579651
0.759033 0.843903 0.580536
0.794312 0.840729 0.565460
0.819733 0.844788 0.554962
0.840729 0.843628 0.550293
0.878571 0.849579 0.551819
0.896149 0.845154 0.538666
0.923859 0.837952 0.537903
0.939545 0.840363 0.524109
0.953064 0.825165 0.496796
0.975464 0.817200 0.471985
0.992798 0.813171 0.453766
0.537628 0.849457 0.632263
0.541565 0.853394 0.636200
0.541565 0.853394 0.636200
0.542938 0.853760 0.636566
0.543091 0.852875 0.636200
0.548401 0.848846 0.636200
0.558380 0.850739 0.640106
0.556610 0.856415 0.643524
0.572418 0.852875 0.632782
0.580139 0.849457 0.634399
0.588226 0.849457 0.634674
0.599365 0.851501 0.633270
0.614685 0.846954 0.645416
0.621002 0.845551 0.639740
0.632782 0.846039 0.640625
