assets/luts/PRO_Neg.cube
TITLE "Generated by Resolve"
LUT_3D_SIZE 5
0 0 0
0.159792 0.0353552 0.0331884
0.42562 0.0727398 0.080354
0.673335 0.120851 0.120699
0.834379 0.187259 0.158999
0.0915236 0.251484 0.0242771
0.263691 0.263828 0.0249332
0.477852 0.289464 0.0438544
0.679683 0.326055 0.0796368
0.8309 0.36936 0.125246
0.216312 0.552193 0.0425879
0.360204 0.547585 0.0450752
0.535424 0.548653 0.0595712
0.702953 0.558221 0.083711
0.832807 0.569802 0.116472
0.350652 0.765515 0.111162
0.451835 0.760296 0.109743
0.585519 0.75288 0.111192
0.721157 0.747646 0.124269
0.831235 0.745281 0.146715
0.459022 0.894545 0.189258
0.530526 0.888747 0.187655
0.631418 0.882475 0.189685
0.7411 0.874006 0.201266
0.834424 0.867201 0.21976
0.0180667 0.0287938 0.128344
0.242267 0.0618906 0.220111
0.530114 0.089189 0.30721
0.740688 0.141436 0.361837
0.883238 0.20148 0.406332
0.0873579 0.313695 0.309895
0.308385 0.308385 0.308385
0.533516 0.320241 0.319005
0.727413 0.34583 0.343297
0.865385 0.378744 0.371344
0.21326 0.572992 0.338689
0.375753 0.564645 0.331044
0.560296 0.560052 0.328496
0.726528 0.562188 0.332692
0.851484 0.568261 0.34818
0.34258 0.762737 0.354269
0.451759 0.756176 0.348074
0.591714 0.747951 0.338628
0.731579 0.740902 0.338415
0.844984 0.736095 0.348424
0.454246 0.884749 0.381552
0.529305 0.880308 0.377142
0.635187 0.87219 0.375433
0.746761 0.864179 0.374731
0.840803 0.856596 0.382483
0.0581521 0.0672313 0.312932
0.33373 0.0996567 0.475731
0.60856 0.133349 0.562036
0.796368 0.179629 0.610346
0.921172 0.23447 0.638727
0.0766155 0.374884 0.581552
0.338781 0.365377 0.577722
0.580346 0.36611 0.582742
0.76791 0.379721 0.594324
0.893233 0.399817 0.604868
0.197833 0.601633 0.596139
0.379751 0.591638 0.586053
0.579171 0.579171 0.579171
0.747677 0.57583 0.572137
0.871107 0.578775 0.574426
0.324895 0.766949 0.586938
0.445823 0.760082 0.578378
0.595911 0.749554 0.567391
0.740856 0.740826 0.560632
0.853223 0.735668 0.55758
0.441032 0.877791 0.582635
0.52221 0.873137 0.578149
0.632929 0.866011 0.571649
0.747906 0.856184 0.566308
0.842283 0.847822 0.560739
0.115969 0.129305 0.582147
0.419455 0.165362 0.746715
0.670832 0.194293 0.789288
0.838407 0.236011 0.816892
0.951522 0.278828 0.828855
0.067628 0.436912 0.78674
0.36051 0.424613 0.793164
0.612726 0.418067 0.796719
0.795468 0.420386 0.797299
0.918029 0.43267 0.800626
0.168673 0.634028 0.783795
0.371939 0.622538 0.782956
0.587121 0.609857 0.777203
0.762585 0.600656 0.77113
0.885893 0.597635 0.765637
0.295811 0.778897 0.767254
0.43061 0.771588 0.763607
0.593622 0.761044 0.755459
0.749462 0.749462 0.749462
0.862211 0.742443 0.740032
0.409674 0.868864 0.738338
0.497353 0.864027 0.735866
0.61973 0.856199 0.730434
0.738613 0.84625 0.722911
0.838117 0.837034 0.713481
0.183139 0.226734 0.858793
0.474479 0.247776 0.921752
0.708431 0.267842 0.948104
0.86598 0.297887 0.964782
0.972503 0.332189 0.968795
0.0663615 0.491295 0.917998
0.373861 0.480659 0.932784
0.632319 0.469184 0.940856
0.813413 0.466896 0.941817
0.935088 0.473808 0.941405
0.132601 0.667063 0.908186
0.359991 0.65658 0.915938
0.590768 0.642527 0.916304
0.772992 0.630243 0.913451
0.89778 0.623209 0.908309
0.252171 0.78584 0.88397
0.400778 0.779324 0.885893
0.580774 0.769482 0.883986
0.741497 0.757061 0.874784
0.857679 0.745403 0.865034
0.367819 0.859129 0.845624
0.463432 0.854353 0.845121
0.592859 0.847105 0.841962
0.721859 0.838254 0.834546
0.827298 0.827298 0.827298
