assets/luts/PRO_Neg.cube
TITLE "Generated by Resolve"
LUT_3D_SIZE 65
0 0 0
0.0317388 0.00758373 0.00636301
0.039704 0.00955215 0.00753796
0.0459449 0.0110018 0.00946059
0.0514992 0.0120851 0.0100099
0.0580758 0.0133516 0.0116274
0.065095 0.014786 0.0146181
0.0718395 0.0163424 0.0157931
0.07953 0.0179599 0.0180972
0.0884565 0.0195163 0.0205234
0.0981155 0.0216983 0.0208438
0.105974 0.0237888 0.021149
0.11606 0.0259709 0.0232547
0.126818 0.0280613 0.0265202
0.136385 0.0304265 0.0277104
0.146929 0.0328679 0.0302586
0.159792 0.0353552 0.0331884
0.17229 0.0379034 0.0354162
0.186374 0.0401923 0.0395209
0.199695 0.0428779 0.0429541
0.214267 0.0455787 0.0466163
0.228611 0.0479438 0.0489204
0.244007 0.050248 0.0511177
0.259937 0.0527657 0.0533455
0.275929 0.0548867 0.0554055
0.29308 0.0567178 0.0597086
0.31017 0.0590524 0.0629435
0.327962 0.0612955 0.0657359
0.346273 0.0634165 0.0683146
0.36434 0.0655375 0.0707408
0.384939 0.0680858 0.0738689
0.405478 0.0704051 0.0771496
0.42562 0.0727398 0.080354
0.445258 0.0756847 0.083238
0.461906 0.0778363 0.0866407
0.476692 0.0798657 0.0899367
0.493095 0.0825208 0.0920424
0.509529 0.0852674 0.093904
0.525841 0.0880903 0.0956741
0.542489 0.091371 0.0968032
0.559136 0.0941329 0.0980392
0.57554 0.0967575 0.0995041
0.591516 0.0995041 0.101122
0.606256 0.103212 0.104295
0.620539 0.106767 0.107942
0.634501 0.10985 0.111925
0.647944 0.11313 0.11545
0.660731 0.116732 0.118364
0.673335 0.120851 0.120699
0.685679 0.125139 0.122774
0.697795 0.129656 0.124514
0.709651 0.134432 0.125902
0.721157 0.138582 0.127703
0.732265 0.142535 0.130022
0.742794 0.146517 0.132769
0.752621 0.15108 0.135058
0.762295 0.155612 0.137285
0.771878 0.159945 0.139666
0.781399 0.164157 0.142138
0.790631 0.168109 0.144686
0.799512 0.171878 0.147234
0.808423 0.175601 0.149935
0.817411 0.179278 0.152865
0.826276 0.182925 0.155734
0.834379 0.187259 0.158999
0.0176242 0.0429541 0.0124056
0.0486152 0.0484016 0.0154116
0.0558633 0.0516823 0.0156405
0.0632029 0.0522927 0.0180667
0.0699016 0.0530556 0.0194095
0.0758221 0.054078 0.0187533
0.0823987 0.05449 0.0185855
0.0915694 0.0563058 0.0203708
0.100771 0.057969 0.0225681
0.108766 0.0596475 0.0228733
0.11696 0.0614481 0.0231937
0.126696 0.0635233 0.0239872
0.136507 0.0655833 0.0242008
0.148531 0.0670634 0.0273289
0.160632 0.0682078 0.031342
0.173114 0.0696727 0.0332494
0.184192 0.0711833 0.0352026
0.198474 0.0733806 0.0372778
0.213046 0.0753338 0.0400092
0.227024 0.0771496 0.0414435
0.240497 0.0792554 0.0416419
0.253635 0.0815747 0.0428473
0.269703 0.0832685 0.046128
0.28629 0.0850385 0.049958
0.303868 0.0871901 0.053254
0.321416 0.0894636 0.0563821
0.338506 0.0918135 0.0593576
0.354772 0.0944991 0.0619516
0.370886 0.0970932 0.0644694
0.386862 0.0997024 0.0665293
0.402853 0.102312 0.0677501
0.41854 0.104906 0.0689708
0.434424 0.106752 0.0713359
0.45005 0.108736 0.073991
0.465309 0.110887 0.076463
0.481056 0.113313 0.0788739
0.498207 0.11632 0.0811627
0.515053 0.119341 0.0833753
0.531563 0.122545 0.0852216
0.547784 0.125154 0.0873732
0.56347 0.128054 0.0898146
0.578729 0.130953 0.0926223
0.593301 0.134417 0.0947738
0.607187 0.13846 0.0962997
0.620844 0.142473 0.0977798
0.634089 0.146426 0.0994888
0.646952 0.149905 0.102129
0.659617 0.153231 0.105455
0.672084 0.156481 0.108598
0.684352 0.159731 0.111681
0.695918 0.163226 0.114702
0.707271 0.166842 0.117479
0.7187 0.170581 0.119738
0.729961 0.174304 0.121935
0.740826 0.17792 0.124315
0.751354 0.181537 0.126909
0.761715 0.185153 0.129473
0.771939 0.188739 0.131991
0.781674 0.193072 0.134005
0.79028 0.196948 0.137377
0.798779 0.200793 0.140703
0.807157 0.204654 0.143877
0.815412 0.20853 0.146838
0.82385 0.212436 0.150439
0.832532 0.216785 0.154101
0.0222324 0.0558633 0.0150149
0.0510414 0.0607309 0.0175937
0.0604562 0.0625925 0.0179599
0.0684062 0.0634318 0.0196841
0.0759747 0.0640879 0.0211032
0.082002 0.0650187 0.0209812
0.0882887 0.0660258 0.0208286
0.0963302 0.0673991 0.0221714
0.104936 0.0690471 0.0238804
0.114534 0.0707256 0.0250401
0.123323 0.0720989 0.025391
0.132815 0.0735027 0.0254215
0.143023 0.075227 0.0261692
0.155062 0.0771954 0.0287938
0.1673 0.0792096 0.0313115
0.179492 0.0812848 0.0322423
0.191516 0.0833753 0.0341955
0.205692 0.0836805 0.0356909
0.219486 0.0849928 0.0374914
0.233875 0.0876783 0.0394293
0.248081 0.0908217 0.0411536
0.262745 0.093019 0.0434424
0.277623 0.0944839 0.0458381
0.292134 0.096025 0.0481727
0.308598 0.0983902 0.0516976
0.325414 0.10074 0.0550088
0.342184 0.102998 0.0581216
0.35874 0.10515 0.0610819
0.375326 0.106813 0.0637827
0.391104 0.109224 0.0656291
0.406256 0.11223 0.0667582
0.421118 0.115251 0.0678416
0.436454 0.117815 0.0692302
0.452079 0.120073 0.0708324
0.467552 0.12224 0.0724804
0.483452 0.124743 0.0744335
0.500252 0.127718 0.0762493
0.516793 0.130694 0.0780194
0.533028 0.133639 0.0799725
0.548974 0.136278 0.0835126
0.56463 0.138918 0.0869612
0.579522 0.141741 0.0896925
0.593713 0.145281 0.0916457
0.60737 0.149279 0.0934005
0.620676 0.153079 0.0953689
0.633692 0.156741 0.0973983
0.646586 0.159884 0.0999466
0.659236 0.162997 0.103075
0.671656 0.16614 0.106508
0.684047 0.170321 0.108949
0.695933 0.173556 0.111757
0.707591 0.176715 0.114519
0.719005 0.180224 0.116838
0.73019 0.183917 0.119493
0.741054 0.187518 0.122087
0.751492 0.19115 0.124544
0.761517 0.1953 0.12668
0.77142 0.199435 0.128771
0.781064 0.203494 0.130968
0.78967 0.207141 0.134417
0.798184 0.210758 0.137804
0.806561 0.214374 0.141131
0.815167 0.21825 0.144549
0.823987 0.222492 0.14789
0.832654 0.227146 0.150347
0.0267033 0.0646982 0.0164492
0.0552377 0.0692302 0.018204
0.0640421 0.070985 0.0191043
0.0715801 0.0723888 0.0204929
0.0782483 0.0733349 0.0215152
0.0848249 0.0738994 0.0219883
0.092668 0.0751202 0.0228885
0.0999161 0.076463 0.0239261
0.109071 0.0777295 0.0241703
0.118791 0.0795758 0.0252384
0.128908 0.0813458 0.0257267
0.138216 0.0826123 0.0257877
0.14844 0.0839551 0.0265049
0.159136 0.085481 0.0282902
0.17116 0.087602 0.0301976
0.1832 0.0902724 0.0307927
0.19559 0.0922408 0.0330053
0.209873 0.0926528 0.0345006
0.223804 0.0937972 0.0353094
0.237491 0.0956741 0.0378424
0.251667 0.0984817 0.0401923
0.266651 0.100771 0.0422065
0.282185 0.102663 0.0442054
0.297063 0.10425 0.0465705
0.313619 0.106294 0.0500954
0.329122 0.109209 0.0534676
0.344335 0.111666 0.0566415
0.359991 0.113771 0.0593881
0.375937 0.115419 0.061738
0.391745 0.11783 0.0636606
0.407279 0.120638 0.0653544
0.422477 0.123476 0.0669413
0.437903 0.125811 0.0683146
0.453712 0.128069 0.0696269
0.469215 0.130327 0.0709239
0.485206 0.133242 0.0714885
0.501625 0.136477 0.0719005
0.517952 0.139483 0.0729992
0.534127 0.142214 0.0752117
0.549996 0.144686 0.0788586
0.565148 0.147601 0.0825208
0.579812 0.150591 0.085832
0.593729 0.154131 0.0884108
0.607248 0.157626 0.0910658
0.620462 0.161013 0.0937972
0.633463 0.164508 0.0958572
0.646372 0.167559 0.0983902
0.65922 0.171527 0.100145
0.671794 0.17557 0.102678
0.684184 0.179599 0.105135
0.696025 0.182559 0.108064
0.707668 0.185489 0.110933
0.719112 0.18851 0.113954
0.730282 0.191882 0.117632
0.740841 0.195697 0.120058
0.75111 0.19968 0.121996
0.761151 0.203647 0.124178
0.771038 0.207599 0.126314
0.780621 0.21146 0.128679
0.789242 0.214939 0.132174
0.797833 0.21854 0.135424
0.806668 0.222629 0.13814
0.81561 0.226535 0.141924
0.824414 0.23064 0.145251
0.833066 0.235126 0.147768
0.0302892 0.07393 0.0180209
0.0593729 0.0787671 0.0203861
0.0681163 0.0793927 0.0210727
0.0750591 0.0806744 0.0222782
0.0807965 0.0822766 0.0222171
0.0872663 0.0835737 0.022385
0.0958114 0.0851301 0.0235447
0.104356 0.0861982 0.0246891
0.114046 0.0873579 0.0247044
0.1243 0.0891432 0.026154
0.13402 0.0906691 0.0263523
0.142611 0.0909743 0.0267643
0.153475 0.0925002 0.0270237
0.16376 0.0941787 0.0283207
0.17612 0.0956893 0.0299535
0.188495 0.0978714 0.030869
0.201587 0.100084 0.0323033
0.215686 0.102159 0.0330358
0.22945 0.103182 0.034638
0.242802 0.104891 0.0373083
0.255711 0.106569 0.0400092
0.270191 0.108782 0.0419623
0.285573 0.110979 0.0444648
0.300908 0.11339 0.0463722
0.316609 0.116121 0.0472877
0.331914 0.118914 0.0505684
0.347097 0.120867 0.0537118
0.362097 0.122377 0.056733
0.376516 0.124453 0.0592203
0.392432 0.127016 0.0609293
0.408469 0.129686 0.0624552
0.424186 0.132448 0.0639811
0.440085 0.134524 0.0656748
0.455787 0.136538 0.0673838
0.471199 0.138628 0.0687419
0.487266 0.141512 0.0691844
0.503487 0.144701 0.0693675
0.51931 0.147692 0.0707866
0.534783 0.150851 0.0724804
0.54992 0.154269 0.0746319
0.565042 0.157015 0.0783246
0.579889 0.159747 0.0819715
0.593698 0.162921 0.0849165
0.607126 0.166125 0.0877699
0.620447 0.169711 0.0903639
0.633646 0.173571 0.0927596
0.646632 0.177493 0.0946822
0.659419 0.181384 0.0965438
0.672007 0.185183 0.0987411
0.684352 0.188952 0.10132
0.696178 0.191638 0.104326
0.707744 0.1944 0.107408
0.719036 0.197498 0.11136
0.730175 0.20061 0.115251
0.740642 0.204273 0.11754
0.750835 0.208087 0.119387
0.760845 0.211978 0.121538
0.770718 0.2159 0.123812
0.780224 0.219654 0.126299
0.789258 0.22359 0.129046
0.798169 0.227512 0.131746
0.807172 0.231281 0.135439
0.816098 0.235019 0.139284
0.824887 0.238987 0.142596
0.833509 0.243305 0.145159
0.0338293 0.0838636 0.0200809
0.0644083 0.0890059 0.0224308
0.0726635 0.0897078 0.0229496
0.0791485 0.0906996 0.023743
0.0846113 0.0925307 0.0233463
0.0922255 0.0939193 0.0230564
0.100771 0.0950484 0.0237736
0.109148 0.0957504 0.0248417
0.117693 0.0964981 0.0258183
0.127443 0.0980697 0.026688
0.136858 0.0994888 0.0268406
0.146334 0.100374 0.026978
0.157519 0.102083 0.0267643
0.168566 0.103731 0.0275578
0.181292 0.105165 0.0290684
0.193866 0.106661 0.0305486
0.206928 0.108476 0.0328069
0.220401 0.110658 0.0343633
0.233799 0.112581 0.035462
0.247196 0.113939 0.0370489
0.259892 0.11548 0.0396887
0.274495 0.118105 0.041474
0.288746 0.121202 0.0435035
0.304036 0.123613 0.0449226
0.319478 0.126299 0.0454566
0.33489 0.128588 0.0475013
0.349752 0.13048 0.0499733
0.364263 0.13225 0.0527352
0.378332 0.134356 0.0551919
0.394781 0.136614 0.0572213
0.410925 0.139116 0.0593118
0.42652 0.141909 0.0610361
0.442451 0.143465 0.0626993
0.458045 0.145586 0.0642405
0.473396 0.14815 0.0654612
0.488823 0.150317 0.0679484
0.504433 0.153201 0.0691539
0.520104 0.156115 0.0704204
0.535515 0.159152 0.0722057
0.550591 0.162402 0.0743725
0.565408 0.165652 0.0764782
0.57998 0.169207 0.0791333
0.593973 0.172732 0.0810712
0.607523 0.176242 0.0839246
0.620829 0.179767 0.0867323
0.633936 0.183307 0.0894026
0.64683 0.186923 0.0916457
0.659525 0.190555 0.093843
0.672023 0.194171 0.0959945
0.684474 0.197711 0.0978256
0.696132 0.20087 0.100694
0.707591 0.203769 0.104768
0.718883 0.206683 0.108766
0.730007 0.209613 0.112718
0.740414 0.213169 0.114885
0.750591 0.2168 0.116777
0.760647 0.220493 0.118776
0.770581 0.224491 0.121828
0.780209 0.228534 0.124498
0.78938 0.232609 0.126528
0.798581 0.236561 0.129305
0.807721 0.240375 0.132662
0.816632 0.243931 0.136553
0.825406 0.247776 0.139818
0.833799 0.251743 0.142794
0.0397498 0.094255 0.020676
0.0684672 0.0988022 0.0236973
0.0771344 0.100481 0.0239261
0.0832685 0.101442 0.0244755
0.0896468 0.102312 0.0242466
0.097612 0.103517 0.0239872
0.105364 0.104845 0.024567
0.113512 0.106096 0.0246433
0.121447 0.107256 0.0250858
0.132067 0.108019 0.026276
0.141665 0.109545 0.0264591
0.151263 0.111177 0.026154
0.16144 0.112902 0.0257877
0.173434 0.114519 0.0267033
0.186847 0.115969 0.0290074
0.19942 0.117281 0.0310521
0.211994 0.118578 0.0338293
0.22446 0.120195 0.0367742
0.237583 0.121843 0.0375525
0.251148 0.123476 0.0382239
0.26479 0.125277 0.0386511
0.279011 0.127886 0.039704
0.292897 0.131106 0.0413062
0.307271 0.134188 0.0419928
0.321935 0.137087 0.0422522
0.337087 0.139391 0.0437934
0.351736 0.141039 0.0462501
0.366125 0.142733 0.0486305
0.380652 0.144549 0.0512093
0.397116 0.146883 0.053727
0.413382 0.149218 0.0563668
0.429374 0.15169 0.0585489
0.44506 0.15465 0.0583047
0.460563 0.157031 0.059617
0.475807 0.15938 0.0609903
0.491188 0.161257 0.0638743
0.50631 0.16318 0.0666972
0.521172 0.16527 0.0693065
0.53611 0.168429 0.0714122
0.551141 0.172045 0.0734569
0.56585 0.175845 0.0760204
0.580301 0.179614 0.0784466
0.594354 0.182895 0.079469
0.607782 0.186099 0.082002
0.620935 0.189303 0.0847028
0.634012 0.192676 0.0873426
0.646784 0.196185 0.0895094
0.659281 0.199756 0.0915236
0.67158 0.203342 0.0934768
0.683696 0.20679 0.0956741
0.695537 0.209857 0.0992905
0.707195 0.212924 0.102876
0.718669 0.216007 0.106401
0.72987 0.218921 0.11014
0.740261 0.222507 0.112535
0.7505 0.226215 0.115175
0.760616 0.229938 0.117784
0.770565 0.233692 0.1205
0.780133 0.237552 0.123125
0.789425 0.241367 0.125811
0.798718 0.24509 0.12903
0.807874 0.248814 0.132219
0.816861 0.252872 0.135027
0.82536 0.256672 0.138003
0.833509 0.260105 0.141283
0.0433356 0.106538 0.0234531
0.0721141 0.110842 0.0229496
0.0800641 0.1122 0.0229191
0.0858473 0.113054 0.0230259
0.0932784 0.114 0.0234226
0.100923 0.115023 0.0237736
0.108888 0.116564 0.0235294
0.117235 0.118395 0.0228733
0.126223 0.119524 0.0232547
0.137041 0.119982 0.0248569
0.147875 0.120546 0.0264591
0.157351 0.122286 0.0260471
0.166491 0.124224 0.0256657
0.178332 0.125811 0.0268711
0.191348 0.127321 0.029099
0.204196 0.129015 0.0306554
0.216587 0.130861 0.0323644
0.228656 0.132692 0.0348363
0.242161 0.133867 0.0365911
0.255802 0.135378 0.0380865
0.269459 0.137133 0.0382544
0.28333 0.139101 0.0380102
0.297185 0.141787 0.0391241
0.31165 0.144686 0.0396429
0.325719 0.147707 0.0399329
0.339773 0.15024 0.04094
0.354894 0.151675 0.0443885
0.369635 0.153216 0.0477913
0.38468 0.155032 0.0505531
0.400275 0.157427 0.0521859
0.415976 0.159762 0.0543679
0.431754 0.162188 0.0560159
0.447272 0.165011 0.055787
0.462806 0.167758 0.0562905
0.478355 0.170611 0.0577859
0.493339 0.1729 0.0608988
0.508125 0.175067 0.0639811
0.522667 0.177295 0.0669871
0.537362 0.180224 0.0698253
0.551934 0.183368 0.0726635
0.566339 0.186648 0.0754101
0.580713 0.190173 0.0776532
0.59472 0.193271 0.078706
0.608255 0.196429 0.0801251
0.621195 0.199573 0.0826429
0.633951 0.202777 0.0849317
0.646494 0.206043 0.0869001
0.658885 0.209354 0.0888685
0.671214 0.212802 0.0912795
0.683207 0.216052 0.0946365
0.694896 0.218921 0.0981308
0.706615 0.222019 0.101549
0.718395 0.225742 0.104326
0.729915 0.229435 0.107103
0.740291 0.232822 0.110521
0.75053 0.23621 0.113863
0.760616 0.239689 0.116793
0.770565 0.243244 0.119387
0.780224 0.246799 0.122301
0.789624 0.250355 0.125566
0.79881 0.254429 0.128252
0.807858 0.258549 0.130846
0.8168 0.262669 0.133425
0.825254 0.266224 0.136507
0.833387 0.26949 0.139818
0.0480354 0.120928 0.0243839
0.0759899 0.123339 0.0232853
0.0837262 0.124712 0.0234684
0.0907759 0.125963 0.0240635
0.098085 0.126986 0.0246281
0.105669 0.128038 0.0248417
0.113527 0.129152 0.0226444
0.12166 0.130953 0.0221103
0.130877 0.131685 0.0230259
0.14107 0.132204 0.0243839
0.151949 0.133242 0.0253605
0.1617 0.134569 0.026154
0.171191 0.136217 0.0261845
0.183154 0.137591 0.0273747
0.195148 0.138994 0.0287327
0.207736 0.140658 0.0297704
0.219944 0.142535 0.030518
0.232471 0.144564 0.0315709
0.24593 0.145983 0.0334936
0.259983 0.147814 0.0362402
0.273198 0.149523 0.0374456
0.286519 0.151537 0.0370794
0.30013 0.153887 0.0373083
0.315022 0.156374 0.037705
0.329259 0.159335 0.0389715
0.343816 0.161532 0.0403143
0.358984 0.162615 0.0441901
0.373892 0.163745 0.0480049
0.38912 0.165545 0.0504311
0.404654 0.16788 0.0516365
0.419684 0.17055 0.052369
0.434852 0.173236 0.0534981
0.45034 0.176043 0.0539712
0.465721 0.178897 0.0540932
0.481056 0.181674 0.0559396
0.495583 0.184543 0.0588235
0.509911 0.187442 0.0618906
0.524453 0.189746 0.0656443
0.538857 0.192523 0.0686961
0.553353 0.195514 0.071397
0.567605 0.198566 0.0738537
0.58146 0.201495 0.0759136
0.594736 0.204166 0.0773022
0.608286 0.207202 0.0781872
0.621317 0.210193 0.0802472
0.634028 0.213214 0.0825055
0.64654 0.216312 0.0845197
0.658946 0.219486 0.0872816
0.671275 0.222873 0.090547
0.68333 0.226505 0.0930037
0.694987 0.229892 0.0953536
0.706905 0.233387 0.0982223
0.718654 0.236912 0.101045
0.730022 0.240375 0.103975
0.740383 0.24358 0.107424
0.750607 0.246784 0.110826
0.760678 0.250019 0.114168
0.770565 0.253391 0.117876
0.78027 0.257023 0.121157
0.78967 0.260838 0.124025
0.79884 0.264714 0.126726
0.807889 0.268605 0.129396
0.816831 0.272496 0.132036
0.825223 0.275746 0.135256
0.833371 0.278782 0.138628
0.0528115 0.13431 0.0251011
0.0810254 0.136828 0.0253452
0.089189 0.138109 0.0253605
0.0964065 0.13933 0.026154
0.103685 0.140581 0.0269932
0.111254 0.141649 0.025803
0.1187 0.142687 0.0231327
0.127077 0.143542 0.0220645
0.136263 0.144259 0.0231327
0.145983 0.145159 0.0240635
0.156573 0.146777 0.024567
0.166125 0.148196 0.0254063
0.176638 0.14931 0.0266117
0.18819 0.150683 0.0277714
0.199908 0.152255 0.0288243
0.212299 0.154101 0.029633
0.22443 0.156069 0.030457
0.237476 0.158053 0.0310826
0.250996 0.159976 0.031632
0.264347 0.161501 0.0336461
0.276951 0.162936 0.0345922
0.289616 0.164523 0.0357824
0.303166 0.16643 0.0370031
0.31812 0.168872 0.0381933
0.332921 0.171313 0.0393225
0.348058 0.173709 0.0402991
0.363088 0.175097 0.043183
0.377844 0.176547 0.0467842
0.393439 0.178134 0.0471809
0.409033 0.179934 0.0469978
0.423926 0.182422 0.0477607
0.439094 0.184939 0.049134
0.454231 0.187488 0.0506905
0.469123 0.190051 0.0522011
0.483955 0.192721 0.0542611
0.49839 0.195727 0.0576944
0.512551 0.19881 0.0610361
0.526528 0.201907 0.0642252
0.540642 0.205005 0.0664683
0.554864 0.20795 0.0688792
0.569009 0.210819 0.0713512
0.582681 0.213489 0.0732891
0.595865 0.215976 0.0746929
0.60885 0.218494 0.0760815
0.621653 0.221042 0.0775921
0.634668 0.224155 0.0798352
0.647486 0.22771 0.0828412
0.660121 0.231296 0.0858625
0.672572 0.234882 0.0888228
0.68455 0.23827 0.0912184
0.696193 0.24152 0.0932479
0.707607 0.244862 0.0954452
0.718776 0.248341 0.0980392
0.729976 0.251591 0.101122
0.740307 0.254643 0.104479
0.750484 0.25774 0.107561
0.760479 0.26099 0.11136
0.770306 0.264302 0.115404
0.779995 0.267781 0.118593
0.789548 0.271336 0.121462
0.798856 0.274861 0.124773
0.808026 0.278386 0.128099
0.817014 0.282032 0.131075
0.825299 0.285267 0.134188
0.833295 0.288899 0.136934
0.0574044 0.148867 0.0256504
0.0848707 0.152911 0.0239872
0.0936599 0.152682 0.0234989
0.100496 0.153887 0.0241093
0.108034 0.155398 0.024033
0.115953 0.156985 0.0237583
0.123339 0.157885 0.0215305
0.132998 0.158328 0.0224155
0.142275 0.158709 0.0233158
0.151873 0.159823 0.0240787
0.161685 0.161212 0.0247196
0.171511 0.162844 0.0253758
0.182528 0.163699 0.0267033
0.193561 0.164569 0.0280461
0.205478 0.165698 0.0289311
0.217578 0.167529 0.0296941
0.229557 0.169451 0.0304875
0.242527 0.17145 0.0312047
0.255558 0.173388 0.0317693
0.268727 0.174624 0.0327764
0.281407 0.175799 0.0341039
0.293767 0.17705 0.0356451
0.307897 0.178775 0.0370336
0.322744 0.180636 0.0383307
0.337346 0.18294 0.0394751
0.352499 0.185473 0.0403754
0.367269 0.187716 0.0417487
0.381704 0.189181 0.0446784
0.397406 0.1906 0.0441749
0.412818 0.192157 0.0437324
0.427878 0.194385 0.0441138
0.442741 0.196994 0.0457923
0.457282 0.199863 0.0478218
0.47155 0.202838 0.0505531
0.486229 0.205295 0.0528572
0.500893 0.207675 0.0560464
0.514992 0.210513 0.0593576
0.528939 0.213428 0.0623636
0.542962 0.216358 0.064622
0.556741 0.219394 0.0668345
0.57026 0.222736 0.0688792
0.583764 0.225696 0.0707408
0.597162 0.22829 0.0724651
0.610361 0.230915 0.0741741
0.623331 0.233707 0.076112
0.636347 0.236896 0.0786603
0.649302 0.240208 0.0814679
0.662028 0.243565 0.0843061
0.674418 0.246967 0.0872969
0.686275 0.250111 0.0895857
0.697856 0.253178 0.0916457
0.708873 0.256474 0.0936751
0.719463 0.259998 0.0959945
0.72987 0.263264 0.0985275
0.740215 0.266102 0.100984
0.750332 0.269154 0.104768
0.760281 0.272267 0.108888
0.770092 0.275395 0.112963
0.779767 0.278737 0.116075
0.789319 0.282109 0.118975
0.798718 0.285527 0.121874
0.807645 0.289326 0.125444
0.816449 0.293126 0.128969
0.824781 0.296635 0.131777
0.83299 0.300145 0.134493
0.0622263 0.163699 0.0247959
0.0906386 0.16788 0.0226291
0.0986496 0.167834 0.022385
0.105379 0.168536 0.0219883
0.112856 0.170077 0.0219425
0.120607 0.171649 0.0222171
0.128527 0.172869 0.0221714
0.137697 0.173342 0.0229191
0.1467 0.173587 0.0237278
0.157183 0.17435 0.0247044
0.166766 0.175753 0.0252689
0.176806 0.177279 0.0253758
0.187106 0.178332 0.0259251
0.197772 0.179232 0.0271611
0.211002 0.180102 0.0283665
0.223438 0.18146 0.0292973
0.235401 0.183062 0.0302739
0.24741 0.185168 0.0313725
0.259754 0.187137 0.0321965
0.273014 0.187472 0.0337224
0.285786 0.188373 0.0347906
0.298421 0.189487 0.0359197
0.312917 0.191257 0.0372168
0.32755 0.193256 0.0381933
0.342184 0.195041 0.0392157
0.357046 0.197391 0.0399329
0.371771 0.200015 0.040528
0.385946 0.202106 0.0419776
0.400366 0.205005 0.042237
0.415442 0.20679 0.0420081
0.430259 0.208667 0.0424964
0.444953 0.211017 0.0450141
0.459419 0.213413 0.0475319
0.473579 0.216129 0.0501869
0.48835 0.218235 0.0521401
0.502922 0.220401 0.0548257
0.51722 0.223026 0.0579995
0.531334 0.225849 0.0600748
0.545144 0.22916 0.0619669
0.55874 0.232517 0.063859
0.572091 0.236118 0.0656291
0.585687 0.238773 0.06804
0.599145 0.241306 0.0706645
0.612299 0.244022 0.0732891
0.625162 0.246754 0.0754711
0.638071 0.249744 0.0778821
0.650919 0.252857 0.0805829
0.663447 0.256031 0.0833295
0.675624 0.259251 0.0859846
0.686809 0.262654 0.0880293
0.697795 0.265873 0.0900893
0.708629 0.269062 0.092134
0.71931 0.272267 0.0941634
0.729747 0.275257 0.0969253
0.740001 0.278065 0.100435
0.750118 0.280919 0.103899
0.760082 0.283772 0.107347
0.769909 0.286732 0.110674
0.779339 0.290333 0.113832
0.788647 0.293935 0.11696
0.797833 0.297566 0.120073
0.806897 0.301213 0.123171
0.815671 0.304799 0.12668
0.823972 0.30811 0.129519
0.831952 0.311254 0.133043
0.0677043 0.181689 0.0238956
0.0967269 0.183215 0.0248264
0.105058 0.183597 0.0242618
0.11194 0.184192 0.0235904
0.118975 0.185168 0.0231937
0.126162 0.186481 0.0229953
0.133455 0.187747 0.0225681
0.141405 0.188785 0.0226596
0.151492 0.18909 0.0238651
0.161959 0.189441 0.0251621
0.172381 0.190173 0.0261845
0.182544 0.191394 0.0263066
0.192401 0.192691 0.0264134
0.203113 0.193973 0.0265202
0.2159 0.194827 0.0277714
0.228824 0.195651 0.029221
0.241199 0.197192 0.0301976
0.252918 0.199252 0.0313268
0.26482 0.201251 0.032105
0.277989 0.202121 0.0321202
0.290715 0.203021 0.0329442
0.304173 0.204456 0.0336919
0.318914 0.20618 0.0346685
0.333211 0.208087 0.0356603
0.347646 0.209537 0.0367742
0.361944 0.210727 0.037995
0.376181 0.212406 0.0390021
0.390524 0.214939 0.0396735
0.4047 0.217517 0.0404822
0.418662 0.220127 0.0412909
0.432914 0.222873 0.042649
0.447654 0.225437 0.0448463
0.462226 0.227832 0.0471046
0.476555 0.23035 0.0493935
0.490578 0.233341 0.0518959
0.505043 0.235798 0.0539101
0.519219 0.238437 0.057084
0.533242 0.241047 0.0587015
0.547097 0.243671 0.059617
0.560739 0.246357 0.0605173
0.57406 0.249546 0.0625467
0.587579 0.252049 0.0655375
0.600916 0.254582 0.0685283
0.613993 0.257374 0.0717479
0.62678 0.260166 0.0748455
0.639063 0.26276 0.0771496
0.651408 0.26566 0.0794537
0.663706 0.268681 0.0821546
0.675761 0.271748 0.0847791
0.686839 0.274998 0.0867933
0.697749 0.278264 0.0887617
0.708492 0.281559 0.0907301
0.71928 0.284825 0.0932784
0.729641 0.287495 0.0964828
0.739834 0.290318 0.0997024
0.749889 0.293233 0.10277
0.759808 0.296193 0.105821
0.769543 0.299214 0.108858
0.77882 0.302708 0.112047
0.787976 0.306218 0.115206
0.797024 0.309743 0.118318
0.806073 0.313207 0.121416
0.814862 0.316564 0.124605
0.82295 0.319524 0.128176
0.830961 0.322515 0.131685
0.0737774 0.199252 0.0240482
0.102617 0.199313 0.0253452
0.111406 0.200107 0.0246433
0.117891 0.200748 0.0239414
0.124941 0.200992 0.0241855
0.131777 0.201907 0.0241703
0.138781 0.203174 0.0238651
0.146822 0.204059 0.0235752
0.156619 0.204715 0.0242161
0.166751 0.205051 0.0254063
0.177157 0.206409 0.0261845
0.186862 0.20734 0.0258488
0.196521 0.208576 0.0259861
0.208865 0.208896 0.0270542
0.221149 0.209445 0.0284886
0.233692 0.210498 0.0295872
0.246082 0.212161 0.0301213
0.257969 0.214054 0.0308232
0.270283 0.215488 0.0309758
0.283146 0.216526 0.0304875
0.295796 0.217731 0.0305791
