assets/luts/PRO_Neg.cube
TITLE "Generated by Resolve"
LUT_3D_SIZE 9
0 0 0
0.07953 0.0179599 0.0180972
0.159792 0.0353552 0.0331884
0.275929 0.0548867 0.0554055
0.42562 0.0727398 0.080354
0.559136 0.0941329 0.0980392
0.673335 0.120851 0.120699
0.762295 0.155612 0.137285
0.834379 0.187259 0.158999
0.0480354 0.120928 0.0243839
0.130877 0.131685 0.0230259
0.219944 0.142535 0.030518
0.329259 0.159335 0.0389715
0.45034 0.176043 0.0539712
0.567605 0.198566 0.0738537
0.671275 0.222873 0.090547
0.760678 0.250019 0.114168
0.833371 0.278782 0.138628
0.0915236 0.251484 0.0242771
0.177188 0.256001 0.0244297
0.263691 0.263828 0.0249332
0.366018 0.275944 0.0318761
0.477852 0.289464 0.0438544
0.583444 0.30663 0.0615396
0.679683 0.326055 0.0796368
0.761028 0.3467 0.102159
0.8309 0.36936 0.125246
0.148333 0.409537 0.0241093
0.229603 0.407889 0.0255436
0.311391 0.40943 0.0291905
0.408072 0.413123 0.0375982
0.505684 0.419486 0.0475776
0.602197 0.43006 0.0617838
0.690425 0.441703 0.0760357
0.766934 0.455695 0.0952468
0.831388 0.469856 0.118379
0.216312 0.552193 0.0425879
0.288746 0.549218 0.0448768
0.360204 0.547585 0.0450752
0.444877 0.546532 0.0523384
0.535424 0.548653 0.0595712
0.622843 0.552178 0.0684062
0.702953 0.558221 0.083711
0.771786 0.562905 0.0991379
0.832807 0.569802 0.116472
0.287831 0.673442 0.0736095
0.347097 0.669871 0.0725414
0.409201 0.667109 0.0733349
0.484352 0.662943 0.0757153
0.562524 0.661784 0.0795148
0.641169 0.660822 0.0882429
0.712856 0.660426 0.098909
0.775296 0.661402 0.109651
0.831907 0.663752 0.128023
0.350652 0.765515 0.111162
0.400046 0.762829 0.110948
0.451835 0.760296 0.109743
0.515526 0.756329 0.107759
0.585519 0.75288 0.111192
0.655146 0.750149 0.116304
0.721157 0.747646 0.124269
0.779889 0.745556 0.132265
0.831235 0.745281 0.146715
0.407721 0.836988 0.14789
0.448386 0.834974 0.148791
0.49221 0.832334 0.146593
0.546731 0.829114 0.1458
0.607248 0.825986 0.146517
0.67068 0.821714 0.148104
0.730068 0.81799 0.15671
0.783749 0.814343 0.166445
0.832013 0.811231 0.179751
0.459022 0.894545 0.189258
0.492805 0.891691 0.187991
0.530526 0.888747 0.187655
0.5785 0.886076 0.186069
0.631418 0.882475 0.189685
0.686976 0.878309 0.193759
0.7411 0.874006 0.201266
0.788739 0.870283 0.2103
0.834424 0.867201 0.21976
0.00683604 0.0150301 0.0690318
0.107179 0.0337987 0.100618
0.204288 0.0476387 0.128191
0.338476 0.0631418 0.160769
0.482567 0.0803388 0.192248
0.608728 0.100649 0.217884
0.711437 0.128832 0.244846
0.79324 0.160662 0.265934
0.862333 0.192462 0.292226
0.0501106 0.149096 0.147662
0.155322 0.155322 0.155322
0.253758 0.164843 0.16112
0.372732 0.174517 0.175982
0.493706 0.191485 0.190936
0.606012 0.210681 0.208743
0.705821 0.2327 0.229603
0.786465 0.258305 0.251286
0.854902 0.285359 0.271153
0.090898 0.286152 0.172045
0.190219 0.284718 0.172015
0.287846 0.2869 0.175387
0.398474 0.294667 0.180636
0.508659 0.304387 0.191714
0.611994 0.318105 0.204776
0.706233 0.333349 0.219715
0.784131 0.352789 0.237842
0.849821 0.372366 0.259022
0.148806 0.429587 0.188342
0.23801 0.42652 0.186114
0.32665 0.42472 0.185702
0.426368 0.425025 0.189014
0.525444 0.429953 0.193408
0.622522 0.436301 0.202838
0.709377 0.447227 0.216938
0.784375 0.458915 0.232258
0.84596 0.470741 0.246754
0.21413 0.562005 0.205295
0.293233 0.557473 0.201846
0.367742 0.553811 0.201404
0.457328 0.553231 0.198383
0.550195 0.552605 0.202152
0.636683 0.554681 0.208637
0.715099 0.558236 0.2177
0.783856 0.562676 0.22591
0.843122 0.566766 0.240574
0.285374 0.675212 0.218814
0.348455 0.670878 0.219257
0.413184 0.6663 0.217884
0.488518 0.664317 0.212207
0.569757 0.660609 0.214557
0.648493 0.658915 0.215869
0.72079 0.657191 0.22237
0.78436 0.657176 0.230747
0.841215 0.658946 0.239551
0.347967 0.763287 0.240482
0.399023 0.759808 0.237232
0.452537 0.756756 0.23418
0.518166 0.753155 0.231342
0.589166 0.750134 0.229175
0.660212 0.74699 0.231525
0.727153 0.743465 0.233768
0.785412 0.741039 0.240803
0.837903 0.739406 0.2486
0.404364 0.833249 0.262013
0.446433 0.830793 0.259785
0.490791 0.827543 0.256428
0.545815 0.824765 0.253819
0.608865 0.821057 0.252552
0.673304 0.816983 0.252064
0.733745 0.812146 0.258137
0.788678 0.809033 0.26186
0.835431 0.806027 0.271565
0.45771 0.889097 0.287236
0.490929 0.886473 0.285924
0.528389 0.884092 0.284199
0.57879 0.881071 0.282689
0.632837 0.876799 0.285466
0.688441 0.872938 0.287068
0.74342 0.868406 0.290761
0.792233 0.864622 0.294224
0.837629 0.861662 0.301213
0.0180667 0.0287938 0.128344
0.129885 0.0462959 0.175387
0.242267 0.0618906 0.220111
0.3879 0.0749523 0.26772
0.530114 0.089189 0.30721
0.645884 0.113527 0.335683
0.740688 0.141436 0.361837
0.818173 0.170672 0.385992
0.883238 0.20148 0.406332
0.0492103 0.175708 0.266575
0.170703 0.181079 0.274327
0.280995 0.184848 0.284352
0.406363 0.195193 0.299763
0.52723 0.208545 0.313848
0.636698 0.225635 0.332479
0.732174 0.245884 0.353597
0.808698 0.268376 0.368872
0.873381 0.293187 0.388663
0.0873579 0.313695 0.309895
0.201083 0.309331 0.306844
0.308385 0.308385 0.308385
0.421164 0.313146 0.311116
0.533516 0.320241 0.319005
0.63679 0.331899 0.331685
0.727413 0.34583 0.343297
0.80412 0.361334 0.357275
0.865385 0.378744 0.371344
0.148394 0.448432 0.327886
0.244633 0.444709 0.321721
0.336156 0.44094 0.317647
0.440864 0.440452 0.319417
0.544259 0.442771 0.323888
0.641123 0.446937 0.327825
0.725505 0.454673 0.336538
0.79826 0.463355 0.347692
0.857908 0.473655 0.359808
0.21326 0.572992 0.338689
0.295186 0.568383 0.332616
0.375753 0.564645 0.331044
0.466423 0.562814 0.326909
0.560296 0.560052 0.328496
0.648997 0.558968 0.331853
0.726528 0.562188 0.332692
0.794766 0.564172 0.339223
0.851484 0.568261 0.34818
0.282582 0.678264 0.345586
0.346166 0.674434 0.342397
0.414008 0.67042 0.336889
0.492699 0.66566 0.335851
0.576471 0.662287 0.332357
0.65658 0.65864 0.333455
0.728054 0.657618 0.333989
0.791608 0.656947 0.33724
0.847868 0.656672 0.344717
0.34258 0.762737 0.354269
0.395895 0.758663 0.351659
0.451759 0.756176 0.348074
0.519677 0.752087 0.342092
0.591714 0.747951 0.338628
0.664302 0.743572 0.33872
0.731579 0.740902 0.338415
0.790845 0.73817 0.340154
0.844984 0.736095 0.348424
0.400122 0.830427 0.36492
0.443076 0.827863 0.360876
0.488212 0.825147 0.359289
0.547433 0.821134 0.356619
0.611246 0.81767 0.351431
0.675929 0.8121 0.351644
0.736873 0.808133 0.35172
0.79263 0.804868 0.356664
0.84033 0.802426 0.361303
0.454246 0.884749 0.381552
0.489738 0.88275 0.379095
0.529305 0.880308 0.377142
0.579263 0.877104 0.376196
0.635187 0.87219 0.375433
0.691783 0.867826 0.375708
0.746761 0.864179 0.374731
0.7953 0.860746 0.378927
0.840803 0.856596 0.382483
0.0340429 0.0460975 0.206699
0.156191 0.064622 0.27512
0.28481 0.0779889 0.335866
0.441794 0.0920729 0.39765
0.573175 0.107424 0.43679
0.680278 0.132677 0.462058
0.770413 0.158282 0.488197
0.843076 0.186374 0.508324
0.903502 0.216724 0.525902
0.0478065 0.211658 0.408118
0.189105 0.21059 0.415213
0.312612 0.213031 0.423865
0.438468 0.220386 0.433371
0.559426 0.231968 0.447532
0.666087 0.245975 0.462638
0.756817 0.263294 0.479606
0.830991 0.284306 0.494209
0.891371 0.304982 0.506233
0.0849317 0.34461 0.45214
0.209995 0.337484 0.447944
0.322759 0.335561 0.446006
0.442817 0.336065 0.448249
0.557626 0.341146 0.454658
0.661463 0.349981 0.461387
0.747494 0.360769 0.471397
0.820676 0.374044 0.48278
0.880644 0.38819 0.492302
0.140978 0.47277 0.468574
0.246662 0.465721 0.462455
0.345968 0.463203 0.457191
0.458152 0.458152 0.458152
0.562081 0.459434 0.456031
0.658503 0.461402 0.459495
0.743053 0.466407 0.463142
0.8121 0.471901 0.469657
0.87068 0.480797 0.477226
0.208103 0.587503 0.473991
0.29482 0.582086 0.469551
0.379355 0.577264 0.462593
0.474357 0.572869 0.459358
0.571054 0.568734 0.456947
0.659937 0.566644 0.456321
0.737881 0.566796 0.456855
0.804288 0.568292 0.458015
0.86096 0.572641 0.464424
0.275059 0.68455 0.473991
0.342809 0.680034 0.469306
0.411978 0.675471 0.465309
0.496132 0.670237 0.459709
0.580377 0.66714 0.454582
0.662959 0.662303 0.451728
0.735637 0.659327 0.450156
0.799588 0.657877 0.451316
0.854612 0.657923 0.454734
0.335302 0.763363 0.474601
0.391104 0.760067 0.470253
0.449882 0.757 0.464286
0.518868 0.752224 0.459663
0.594766 0.748058 0.456397
0.668742 0.743679 0.450965
0.736889 0.740063 0.448936
0.795941 0.736736 0.450004
0.849287 0.734691 0.453727
0.394125 0.829068 0.476677
0.438285 0.826398 0.472404
0.486961 0.823407 0.46923
0.547173 0.818998 0.46479
0.612833 0.814771 0.460502
0.679881 0.809613 0.459754
0.74023 0.805615 0.458061
0.795575 0.801877 0.459037
0.845548 0.799222 0.461952
0.44889 0.882033 0.482979
0.485222 0.879988 0.481514
0.525887 0.87689 0.479805
0.579614 0.872068 0.477836
0.636469 0.869093 0.475792
0.692164 0.864561 0.473198
0.748074 0.860395 0.472114
0.798138 0.855543 0.472435
0.842634 0.852537 0.471321
0.0581521 0.0672313 0.312932
0.190234 0.0854353 0.395346
0.33373 0.0996567 0.475731
0.486503 0.113573 0.535882
0.60856 0.133349 0.562036
0.711742 0.156954 0.587167
0.796368 0.179629 0.610346
0.866377 0.206287 0.627222
0.921172 0.23447 0.638727
0.051545 0.247715 0.545419
0.203647 0.245304 0.552895
0.33666 0.24506 0.556985
0.467964 0.248753 0.566171
0.588861 0.258228 0.57763
0.693828 0.270909 0.588724
0.780026 0.285679 0.601358
0.849088 0.302037 0.610666
0.90605 0.319783 0.619989
0.0766155 0.374884 0.581552
0.21735 0.368322 0.579309
0.338781 0.365377 0.577722
0.464225 0.36434 0.578958
0.580346 0.36611 0.582742
0.68368 0.37026 0.588983
0.76791 0.379721 0.594324
0.835401 0.389639 0.598596
0.893233 0.399817 0.604868
0.131594 0.496757 0.595529
0.248569 0.490166 0.591546
0.355917 0.483848 0.588983
0.469001 0.480186 0.585122
0.576501 0.477241 0.581598
0.674098 0.476509 0.582818
0.755535 0.478874 0.581323
0.82446 0.483711 0.584131
0.881651 0.488869 0.589807
0.197833 0.601633 0.596139
0.288334 0.596811 0.590494
0.379751 0.591638 0.586053
0.479973 0.58497 0.58204
0.579171 0.579171 0.579171
0.667216 0.577707 0.574975
0.747677 0.57583 0.572137
0.813947 0.577798 0.573556
0.871107 0.578775 0.574426
0.263172 0.692668 0.590875
0.334615 0.688182 0.584787
0.410574 0.683421 0.583215
0.4963 0.677256 0.577447
0.584421 0.671656 0.572381
0.667674 0.667964 0.567788
0.74284 0.664408 0.564431
0.806027 0.662745 0.561883
0.861295 0.661326 0.56199
0.324895 0.766949 0.586938
0.382437 0.764019 0.581979
0.445823 0.760082 0.578378
0.518853 0.755596 0.574136
0.595911 0.749554 0.567391
0.671717 0.745174 0.563989
0.740856 0.740826 0.560632
0.801907 0.737453 0.557122
0.853223 0.735668 0.55758
0.384573 0.82858 0.584131
0.431968 0.826154 0.580362
0.482307 0.823713 0.576715
0.544823 0.819211 0.573129
0.614649 0.813367 0.570916
0.681331 0.808988 0.565225
0.745052 0.805325 0.563821
0.79881 0.801312 0.560433
0.849317 0.79826 0.560128
0.441032 0.877791 0.582635
0.479973 0.875792 0.580835
0.52221 0.873137 0.578149
0.574914 0.86949 0.574838
0.632929 0.866011 0.571649
0.69279 0.86125 0.569635
0.747906 0.856184 0.566308
0.798413 0.851545 0.563195
0.842283 0.847822 0.560739
0.0868086 0.0942092 0.440223
0.230533 0.113542 0.536034
0.381537 0.126482 0.622904
0.519692 0.143816 0.657496
0.641093 0.162432 0.681407
0.741039 0.183078 0.70515
0.8206 0.205264 0.721477
0.883177 0.23125 0.731731
0.938766 0.255146 0.74049
0.0530861 0.284733 0.670848
0.219333 0.279713 0.674159
0.358312 0.279255 0.679683
0.493675 0.282124 0.68687
0.616144 0.286259 0.697475
0.717784 0.296498 0.704524
0.80061 0.308354 0.712764
0.864881 0.32256 0.718776
0.921355 0.336904 0.723842
0.0691234 0.408423 0.696437
0.221439 0.400015 0.6963
0.353063 0.395377 0.695506
0.480888 0.392981 0.696437
0.598596 0.391974 0.698848
0.701625 0.394156 0.701183
0.782925 0.39881 0.703822
0.850248 0.405661 0.705806
0.90663 0.415686 0.708888
0.12256 0.520058 0.702907
0.244694 0.512215 0.700771
0.358465 0.507149 0.697261
0.475883 0.499718 0.696406
0.586999 0.496422 0.693217
0.685313 0.494453 0.691203
0.767483 0.494789 0.691676
0.834989 0.497383 0.689891
0.892836 0.501427 0.691859
0.180392 0.61825 0.698985
0.281529 0.612543 0.696956
0.376745 0.606516 0.69398
0.481834 0.599924 0.689769
0.584115 0.594354 0.686503
0.676387 0.589517 0.681895
0.756191 0.587167 0.679545
0.822614 0.586007 0.677791
0.878813 0.586892 0.675654
0.247822 0.70277 0.692409
0.325994 0.697032 0.688914
0.405554 0.692668 0.684916
0.496025 0.686625 0.681788
0.587579 0.681025 0.676539
0.674739 0.674739 0.674739
0.747692 0.671595 0.668299
0.811841 0.668009 0.666224
0.868452 0.666331 0.664408
0.311513 0.771984 0.685344
0.373007 0.769665 0.681559
0.439216 0.765179 0.678584
0.515404 0.760052 0.673899
0.595315 0.755062 0.669825
0.67422 0.748806 0.665415
0.743954 0.744793 0.660197
0.807141 0.740749 0.65861
0.858732 0.738827 0.656245
0.372519 0.831434 0.678126
0.422293 0.828611 0.676081
0.475196 0.825238 0.673579
0.541878 0.819669 0.670268
0.612665 0.814572 0.665599
0.681987 0.809964 0.661952
0.746578 0.805203 0.657557
0.801938 0.801404 0.653422
0.851423 0.797208 0.65098
0.426627 0.873991 0.668238
0.467781 0.872114 0.666239
0.511681 0.869184 0.663874
0.567163 0.864561 0.661555
0.627466 0.860441 0.658732
0.688762 0.855558 0.655268
0.744427 0.851911 0.650172
0.795834 0.847044 0.645838
0.840681 0.842725 0.641779
0.115969 0.129305 0.582147
0.271046 0.147509 0.683925
0.419455 0.165362 0.746715
0.552544 0.177432 0.768627
0.670832 0.194293 0.789288
0.764248 0.214862 0.805524
0.838407 0.236011 0.816892
0.899306 0.257038 0.823972
0.951522 0.278828 0.828855
0.0537118 0.320104 0.76994
0.23537 0.316274 0.777737
0.378241 0.313649 0.784482
0.514031 0.315007 0.791196
0.63534 0.318944 0.79852
0.736187 0.32369 0.804593
0.815152 0.332464 0.809552
0.879622 0.344488 0.811856
0.933516 0.357763 0.814191
0.067628 0.436912 0.78674
0.227405 0.430014 0.79028
0.36051 0.424613 0.793164
0.493126 0.418952 0.795895
0.612726 0.418067 0.796719
0.712856 0.416785 0.79733
0.795468 0.420386 0.797299
0.862852 0.425528 0.798642
0.918029 0.43267 0.800626
0.108522 0.541741 0.789746
0.240421 0.534798 0.790066
0.358389 0.528481 0.79057
0.481682 0.522469 0.789319
0.59585 0.515923 0.788235
0.695171 0.51342 0.786389
0.777111 0.511131 0.78703
0.845365 0.511818 0.784176
0.901534 0.514778 0.78233
0.168673 0.634028 0.783795
0.272206 0.628931 0.784253
0.371939 0.622538 0.782956
0.48246 0.6159 0.780652
0.587121 0.609857 0.777203
0.681285 0.603967 0.774121
0.762585 0.600656 0.77113
0.829664 0.59765 0.767773
0.885893 0.597635 0.765637
0.232517 0.713954 0.77557
0.315267 0.708766 0.773953
0.398611 0.703532 0.772503
0.491997 0.696971 0.770443
0.587213 0.690578 0.766018
0.674998 0.684825 0.761212
0.75285 0.680674 0.757946
0.818128 0.676585 0.755093
0.874296 0.673518 0.753323
0.295811 0.778897 0.767254
0.361059 0.77586 0.765057
0.43061 0.771588 0.763607
0.510094 0.767025 0.760433
0.593622 0.761044 0.755459
0.675029 0.755077 0.751278
0.749462 0.749462 0.749462
0.809415 0.745937 0.743358
0.862211 0.742443 0.740032
0.354528 0.831403 0.754879
0.406912 0.829038 0.753002
0.464302 0.825956 0.751827
0.533913 0.821378 0.74815
0.608042 0.815839 0.745663
0.67895 0.810681 0.741665
0.744472 0.804944 0.736736
0.801648 0.800336 0.732509
0.850263 0.795575 0.727413
0.409674 0.868864 0.738338
0.451743 0.866728 0.736873
0.497353 0.864027 0.735866
0.555428 0.860533 0.733715
0.61973 0.856199 0.730434
0.680507 0.85243 0.725795
0.738613 0.84625 0.722911
0.79144 0.841581 0.718761
0.838117 0.837034 0.713481
0.149111 0.171038 0.731273
0.30901 0.193256 0.814435
0.449317 0.20502 0.84419
0.58024 0.21738 0.863859
0.692073 0.231769 0.876432
0.781628 0.247547 0.889067
0.853574 0.26627 0.897749
0.913802 0.28484 0.904128
0.963577 0.304875 0.906905
0.0735332 0.355657 0.848844
0.249943 0.351614 0.859709
0.39295 0.348852 0.867536
0.531029 0.347158 0.875319
0.651637 0.348959 0.882246
0.750195 0.353017 0.885328
0.828122 0.359136 0.89015
0.890745 0.369253 0.890837
0.944839 0.380652 0.893294
0.0720073 0.464729 0.860746
0.228168 0.45864 0.865751
0.366934 0.452644 0.869139
0.502998 0.447211 0.872618
0.625071 0.443305 0.878355
0.724422 0.441306 0.876631
0.805737 0.443275 0.876936
0.87155 0.446616 0.876585
0.92604 0.453391 0.875822
0.0978561 0.563836 0.857527
0.234531 0.557504 0.862989
0.35787 0.551766 0.866011
0.485771 0.543511 0.866941
0.602075 0.537972 0.865309
0.701946 0.532952 0.864088
0.784573 0.529397 0.863783
0.85333 0.529671 0.861372
0.909087 0.53106 0.859464
0.150164 0.65008 0.852567
0.261311 0.645045 0.854337
0.36762 0.639704 0.85481
0.480491 0.632258 0.855467
0.58883 0.624994 0.853422
0.685954 0.618875 0.850843
0.767987 0.614343 0.847913
0.83743 0.610895 0.846204
0.892317 0.610208 0.842405
0.212406 0.725246 0.843351
0.301045 0.720073 0.845319
0.388724 0.7149 0.845273
0.488563 0.708461 0.843839
0.587762 0.702251 0.841932
0.677195 0.696269 0.837446
0.756329 0.690822 0.833936
0.821561 0.686763 0.829633
0.877607 0.683024 0.827085
0.276829 0.784039 0.832761
0.346227 0.780789 0.83386
0.416968 0.777173 0.829572
0.500771 0.771618 0.829343
0.589639 0.766857 0.827268
0.673915 0.759899 0.823117
0.746975 0.754437 0.818967
0.809613 0.74963 0.814084
0.862211 0.745266 0.810117
0.334874 0.829313 0.816434
0.390463 0.826902 0.815549
0.449134 0.824445 0.813626
0.520592 0.819638 0.812406
0.597467 0.814221 0.809781
0.670878 0.808896 0.804669
0.738659 0.803113 0.799802
0.79704 0.79704 0.79704
0.845716 0.792905 0.790997
0.389685 0.864393 0.797131
0.433005 0.862409 0.796811
0.481315 0.859541 0.795789
0.541054 0.85568 0.793378
0.60592 0.851362 0.789639
0.670542 0.847089 0.785962
0.729946 0.842512 0.781857
0.785138 0.837278 0.778332
0.833249 0.831891 0.773434
0.183139 0.226734 0.858793
0.341451 0.242191 0.906722
0.474479 0.247776 0.921752
0.600809 0.256107 0.936202
0.708431 0.267842 0.948104
0.796307 0.281422 0.957885
0.86598 0.297887 0.964782
0.922133 0.314672 0.967803
0.972503 0.332189 0.968795
0.0917678 0.388525 0.913909
0.265339 0.385122 0.92723
0.407889 0.382147 0.93489
0.545281 0.379278 0.94229
0.664515 0.379965 0.948165
0.76257 0.381155 0.953384
0.838148 0.387717 0.954269
0.898985 0.39585 0.954452
0.953002 0.404669 0.9552
0.0663615 0.491295 0.917998
0.231449 0.48687 0.92781
0.373861 0.480659 0.932784
0.50927 0.474937 0.939025
0.632319 0.469184 0.940856
0.734371 0.465888 0.942626
0.813413 0.466896 0.941817
0.880079 0.468772 0.942946
0.935088 0.473808 0.941405
0.0937362 0.584634 0.917464
0.229419 0.579904 0.922621
0.357382 0.573159 0.925017
0.487663 0.566262 0.928023
0.605707 0.55848 0.928237
0.708202 0.553872 0.927871
0.791943 0.549798 0.928176
0.859586 0.548531 0.927108
0.914977 0.549569 0.924285
0.132601 0.667063 0.908186
0.248112 0.662089 0.912642
0.359991 0.65658 0.915938
0.478096 0.649683 0.915694
0.590768 0.642527 0.916304
0.688762 0.635615 0.914977
0.772992 0.630243 0.913451
0.840833 0.626245 0.911498
0.89778 0.623209 0.908309
0.192782 0.735332 0.899336
0.286 0.731655 0.902281
0.37821 0.726894 0.90309
0.481636 0.720439 0.902892
0.583535 0.71342 0.901396
0.677684 0.706981 0.899641
0.757137 0.700114 0.897078
0.822797 0.695262 0.892729
0.877287 0.690272 0.887663
0.252171 0.78584 0.88397
0.325185 0.78294 0.885817
0.400778 0.779324 0.885893
0.489158 0.77557 0.885344
0.580774 0.769482 0.883986
0.666697 0.762448 0.881102
0.741497 0.757061 0.874784
0.805264 0.751125 0.87039
0.857679 0.745403 0.865034
0.313649 0.825879 0.866423
0.370459 0.824079 0.86598
0.431327 0.821439 0.865675
0.505531 0.81738 0.865263
0.584772 0.812451 0.862272
0.660777 0.806516 0.859709
0.730098 0.800839 0.854978
0.789334 0.796048 0.849714
0.841138 0.791135 0.844694
0.367819 0.859129 0.845624
0.413642 0.85687 0.845258
0.463432 0.854353 0.845121
0.524956 0.850767 0.843793
0.592859 0.847105 0.841962
0.658396 0.843214 0.838407
0.721859 0.838254 0.834546
0.777813 0.832654 0.829541
0.827298 0.827298 0.827298
