assets/luts/REALA-ACE.cube
TITLE "Generated by Resolve"
LUT_3D_SIZE 9
0 0 0
0.0691539 0.00209049 0.000320439
0.19321 0.00448615 1.5259e-05
0.384787 0.00556954 0.000198367
0.541482 0.00579843 0.000106813
0.652247 0.0213474 9.15541e-05
0.742458 0.0648356 0.0194858
0.816327 0.122454 0.0486
0.877699 0.186465 0.0898756
0.0169833 0.13695 0.000213626
0.155261 0.146258 0.000457771
0.286381 0.139788 0.000549325
0.412741 0.142306 0.000137331
0.537163 0.147768 0.000289921
0.646265 0.15787 0
0.737194 0.186679 0.00047303
0.812787 0.218128 0.0254673
0.880812 0.262867 0.0678874
0.0374762 0.274769 0.00077821
0.161517 0.275257 0.000320439
0.287236 0.275608 1.5259e-05
0.408865 0.271305 3.0518e-05
0.526467 0.272221 0
0.635279 0.276356 0.000183108
0.729046 0.286915 0
0.810468 0.312749 0.00520333
0.885634 0.34815 0.0475624
0.134173 0.410071 0.054963
0.199802 0.405249 0.0180819
0.295506 0.403586 0.000122072
0.414008 0.402487 0.000808728
0.527306 0.400656 3.0518e-05
0.630381 0.402335 3.0518e-05
0.726741 0.410376 0
0.81297 0.427008 0.000686656
0.88835 0.454231 0.0195926
0.233646 0.542336 0.130983
0.279393 0.537041 0.109361
0.341421 0.535256 0.0687419
0.429297 0.53344 0.00183108
0.540978 0.536126 0.000350958
0.647684 0.540124 0
0.740627 0.548394 0.000106813
0.82182 0.558236 0.000381476
0.893584 0.574548 0.0108339
0.350469 0.676753 0.216968
0.383352 0.673487 0.196262
0.430381 0.67245 0.17023
0.496803 0.671611 0.125704
0.579293 0.668589 0.0454414
0.669947 0.671336 0.0052491
0.756924 0.674372 3.0518e-05
0.833417 0.680125 0.00503548
0.898405 0.685542 0.0211337
0.495979 0.785916 0.351324
0.5149 0.783475 0.333028
0.542931 0.782986 0.308873
0.584237 0.782528 0.262745
0.639902 0.782315 0.195132
0.701457 0.781353 0.102373
0.771634 0.778485 0.0271611
0.839979 0.777935 0.02121
0.902495 0.780896 0.0401465
0.605509 0.85922 0.458366
0.622415 0.858824 0.446784
0.641825 0.85771 0.42829
0.669886 0.856886 0.400793
0.70753 0.857466 0.356466
0.751797 0.858686 0.290089
0.796658 0.856229 0.189487
0.846281 0.853223 0.0997635
0.89868 0.852293 0.0835737
0.687037 0.909239 0.541329
0.699825 0.908507 0.531807
0.715633 0.907958 0.519783
0.737133 0.908324 0.503365
0.764874 0.908156 0.478798
0.798108 0.909895 0.442374
0.832212 0.911299 0.384817
0.871107 0.912444 0.316732
0.908904 0.910369 0.240925
0 0.00225834 0.0639811
0.128588 0.00967422 0.110475
0.279332 0.00529488 0.126467
0.433982 0.000320439 0.128786
0.569192 0.00392157 0.13135
0.674983 0.0154116 0.137148
0.76405 0.0462196 0.152316
0.83386 0.108705 0.180652
0.893675 0.198627 0.232914
0.000183108 0.145602 0.150927
0.165087 0.165087 0.165087
0.296208 0.155581 0.14493
0.430396 0.145373 0.134356
0.554391 0.151354 0.129122
0.662211 0.159594 0.133364
0.756481 0.176577 0.141985
0.836484 0.206775 0.164614
0.899168 0.27039 0.208286
0.0167697 0.289693 0.145556
0.162997 0.292546 0.143816
0.297704 0.289357 0.138903
0.424872 0.282765 0.127321
0.548058 0.281926 0.122805
0.657511 0.287648 0.127291
0.75465 0.297856 0.13666
0.838682 0.317968 0.153185
0.908904 0.356481 0.190951
0.097734 0.425803 0.152773
0.186282 0.417548 0.129229
0.299123 0.41323 0.11725
0.424567 0.411337 0.116854
0.541466 0.409842 0.111833
0.65156 0.412207 0.116732
0.751446 0.423072 0.126131
0.838483 0.442222 0.145434
0.914824 0.465873 0.170718
0.215305 0.557778 0.197818
0.269154 0.550439 0.175921
0.341329 0.546441 0.145052
0.443153 0.547463 0.114168
0.559838 0.547387 0.114641
0.66598 0.55111 0.119234
0.760464 0.557122 0.127825
0.840787 0.568505 0.141787
0.912245 0.58143 0.16527
0.347524 0.686397 0.281102
0.379797 0.683055 0.255741
0.427787 0.680354 0.226337
0.498634 0.680079 0.182147
0.588617 0.677378 0.14226
0.685374 0.678599 0.132525
0.773114 0.680415 0.141512
0.847654 0.683085 0.152453
0.911894 0.689967 0.168139
0.488853 0.786282 0.395392
0.508934 0.784131 0.376608
0.538567 0.782498 0.351003
0.581674 0.78233 0.308751
0.638239 0.781842 0.246616
0.705486 0.780118 0.177981
0.779858 0.778576 0.157443
0.849332 0.779324 0.165957
0.909972 0.778973 0.180529
0.593103 0.855497 0.48809
0.608896 0.854124 0.475608
0.631891 0.85391 0.457465
0.661479 0.853498 0.429953
0.70106 0.853925 0.385992
0.746883 0.853697 0.323491
0.796689 0.853025 0.252842
0.851606 0.851698 0.20882
0.904753 0.849546 0.207584
0.675441 0.904845 0.564706
0.687877 0.903731 0.554192
0.703746 0.903014 0.541543
0.726833 0.903105 0.525261
0.755352 0.90399 0.500862
0.789288 0.904601 0.466148
0.826505 0.906584 0.411429
0.868223 0.907439 0.357214
0.907759 0.907362 0.306935
0.000366217 0.00671397 0.177676
0.155856 0.0153964 0.235264
0.306371 0.0133364 0.257038
0.459785 0.00549325 0.269276
0.593454 0.00889601 0.275975
0.696818 0.0277714 0.281697
0.782635 0.0594034 0.293477
0.854536 0.134142 0.322927
0.907927 0.219104 0.361669
0.000167849 0.139483 0.284947
0.137133 0.158343 0.294438
0.303914 0.167376 0.304326
0.441657 0.160266 0.284871
0.568368 0.160052 0.278553
0.676997 0.167803 0.277165
0.771893 0.186023 0.284855
0.851835 0.223819 0.306233
0.915297 0.286915 0.343679
0.00077821 0.276036 0.288411
0.141482 0.289952 0.294133
0.304097 0.304097 0.304097
0.432898 0.294865 0.286915
0.558343 0.291203 0.275303
0.671336 0.294652 0.27483
0.770642 0.307485 0.28397
0.855802 0.330068 0.29807
0.924086 0.369421 0.329549
0.0278935 0.421973 0.288167
0.178607 0.433295 0.294133
0.306615 0.431373 0.288762
0.435203 0.428412 0.281285
0.56025 0.426291 0.276738
0.673106 0.430411 0.275013
0.774395 0.441382 0.282612
0.860288 0.458274 0.295659
0.930648 0.48043 0.318318
0.165454 0.579309 0.323217
0.242435 0.576928 0.306722
0.338781 0.57023 0.291081
0.45771 0.56643 0.280522
0.576577 0.565225 0.277943
0.683177 0.565606 0.280079
0.777249 0.57174 0.281697
0.857466 0.578195 0.29012
0.927306 0.591943 0.30544
0.346059 0.70071 0.396551
0.378271 0.697215 0.374441
0.421439 0.694224 0.339712
0.495262 0.691356 0.302327
0.598016 0.689738 0.289601
0.696574 0.687053 0.28484
0.783688 0.687877 0.287617
0.856565 0.688945 0.29337
0.921294 0.692012 0.302235
0.479377 0.789609 0.475196
0.501335 0.78761 0.458442
0.532708 0.78645 0.436469
0.577356 0.78555 0.399054
0.637919 0.785534 0.349844
0.708644 0.784283 0.304143
0.787121 0.781262 0.297124
0.855833 0.779706 0.300145
0.913664 0.778592 0.311559
0.579644 0.85304 0.54197
0.596124 0.85127 0.528527
0.619745 0.852064 0.514824
0.65211 0.851743 0.490318
0.693416 0.851713 0.450767
0.743801 0.852888 0.403372
0.795499 0.852964 0.350088
0.853056 0.850309 0.324041
0.908919 0.84773 0.327749
0.659281 0.900038 0.602289
0.673701 0.899611 0.594812
0.691127 0.899229 0.583978
0.715251 0.898985 0.566217
0.747143 0.90103 0.54696
0.783154 0.901778 0.512749
0.820752 0.903395 0.462974
0.863218 0.903166 0.418433
0.905989 0.90161 0.382635
0.000198367 0.0107271 0.300557
0.161913 0.019089 0.352331
0.325673 0.0218357 0.388891
0.488746 0.0210117 0.415106
0.614466 0.0267033 0.417319
0.717494 0.0447547 0.421302
0.805432 0.0831617 0.434791
0.874754 0.175219 0.469017
0.924437 0.252384 0.500557
0.000732433 0.142489 0.421439
0.115251 0.156924 0.429648
0.304006 0.179431 0.448356
0.456565 0.179065 0.436866
0.585504 0.180041 0.428214
0.698329 0.188846 0.426612
0.797604 0.207385 0.435767
0.876387 0.253223 0.45684
0.92845 0.312978 0.489113
0.000320439 0.272923 0.426413
0.108537 0.285008 0.428077
0.281209 0.301732 0.438453
0.444022 0.313787 0.44419
0.574655 0.309575 0.4318
0.692027 0.313848 0.429923
0.79324 0.326879 0.439078
0.877455 0.351141 0.452827
0.9393 0.391089 0.477165
0.000823987 0.416617 0.428367
0.136431 0.42649 0.435523
0.291936 0.439796 0.441382
0.454108 0.454108 0.454108
0.580346 0.449378 0.441566
0.69543 0.45182 0.437568
0.793927 0.46067 0.440574
0.876677 0.475013 0.451652
0.944335 0.49514 0.465751
0.122789 0.574029 0.464225
0.215244 0.583001 0.460288
0.33724 0.591257 0.463706
0.46978 0.589593 0.456611
0.592584 0.586679 0.447944
0.700999 0.584527 0.442542
0.794324 0.585855 0.442039
0.87396 0.593652 0.447059
0.940703 0.602655 0.456306
0.331548 0.708644 0.5243
0.369375 0.709743 0.511223
0.419593 0.710018 0.492592
0.502144 0.706355 0.466835
0.606683 0.702495 0.452461
0.70695 0.697566 0.445411
0.79469 0.694453 0.443046
0.867597 0.695521 0.442206
0.930785 0.698268 0.448447
0.469017 0.796124 0.573144
0.491859 0.794385 0.559991
0.52282 0.791943 0.542779
0.569757 0.790967 0.514687
0.636271 0.790387 0.481346
0.711604 0.788464 0.446815
0.791669 0.782559 0.442237
0.859739 0.779797 0.443458
0.918349 0.778653 0.446021
0.56585 0.853132 0.617594
0.583017 0.85275 0.607721
0.606867 0.852064 0.593652
0.640497 0.851301 0.572793
0.684504 0.85127 0.541863
0.738476 0.851545 0.504784
0.796277 0.850874 0.464393
0.855482 0.848173 0.450172
0.910719 0.845151 0.453162
0.646143 0.898543 0.66099
0.660395 0.898268 0.652354
0.678096 0.897826 0.642069
0.703426 0.896849 0.626947
0.7364 0.897993 0.608896
0.773938 0.899458 0.577996
0.813382 0.900435 0.537972
0.858152 0.899474 0.503731
0.904204 0.895491 0.475059
0.00205997 0.0154269 0.408072
0.16614 0.018677 0.464866
0.346151 0.0403906 0.52401
0.505852 0.0740063 0.544228
0.626398 0.0994583 0.550027
0.72604 0.147051 0.557839
0.808362 0.20589 0.579675
0.876738 0.266743 0.606455
0.910765 0.312276 0.628519
0.000427253 0.15465 0.551186
0.090547 0.162799 0.553964
0.29044 0.183734 0.56997
0.46894 0.200778 0.582269
0.607675 0.209018 0.577249
0.720943 0.229496 0.575402
0.811353 0.268208 0.586847
0.882689 0.313619 0.602396
0.928679 0.357488 0.619837
0.000747692 0.281544 0.55964
0.078584 0.291768 0.564981
0.266011 0.308858 0.576165
0.450278 0.331441 0.590311
0.600275 0.339025 0.591409
0.719631 0.344442 0.590082
0.818616 0.357855 0.593149
0.896819 0.383719 0.601831
0.949554 0.421912 0.614237
0.000167849 0.426154 0.567788
0.101396 0.436698 0.575402
0.272633 0.449058 0.584405
0.445823 0.46595 0.593439
0.59855 0.478874 0.601526
0.716381 0.478187 0.594583
0.813809 0.483955 0.594247
0.891707 0.495247 0.595544
0.954589 0.513176 0.604379
0.0769513 0.570092 0.584863
0.179019 0.57525 0.586557
0.306203 0.583688 0.590906
0.460258 0.59765 0.597986
0.606516 0.606516 0.606516
0.713558 0.603861 0.595605
0.806729 0.60264 0.59118
0.884565 0.607507 0.589487
0.94905 0.612543 0.592309
0.310506 0.702724 0.622019
0.343053 0.703288 0.617365
0.397498 0.709911 0.612573
0.494194 0.716197 0.609583
0.609171 0.712718 0.599878
0.711666 0.707469 0.590082
0.799054 0.702022 0.582147
0.871931 0.700999 0.579828
0.934249 0.700557 0.579065
0.449973 0.791928 0.659632
0.474113 0.793942 0.653498
0.510185 0.79765 0.645487
0.560754 0.797055 0.62884
0.62977 0.794415 0.60412
0.712551 0.790036 0.584009
0.79234 0.785275 0.577539
0.862074 0.780026 0.572595
0.92105 0.778531 0.571603
0.554849 0.856016 0.694408
0.571679 0.855238 0.686564
0.595407 0.854261 0.674586
0.629847 0.853422 0.660182
0.675715 0.852872 0.637476
0.733425 0.853284 0.6103
0.793713 0.850935 0.582025
0.85536 0.847074 0.573007
0.911254 0.843061 0.570901
0.631495 0.896284 0.716594
0.644404 0.895354 0.709773
0.662089 0.894713 0.701915
0.687892 0.894469 0.690547
0.722103 0.895094 0.674662
0.761212 0.895598 0.649287
0.803174 0.895491 0.617746
0.849973 0.893339 0.590097
0.898116 0.888853 0.572427
0.00224308 0.0230869 0.522026
0.17322 0.0276341 0.580011
0.364889 0.0953384 0.622965
0.515221 0.138323 0.640833
0.634134 0.187274 0.650492
0.732006 0.241535 0.66862
0.808377 0.294804 0.68835
0.871672 0.347417 0.709026
0.888594 0.376104 0.723293
0.000274662 0.174823 0.659495
0.0931258 0.18204 0.662608
0.292882 0.207736 0.675288
0.478386 0.244434 0.685161
0.618326 0.275456 0.688014
0.723781 0.309926 0.69073
0.806836 0.349462 0.700374
0.87097 0.390127 0.712032
0.909285 0.421317 0.722774
6.10361e-05 0.306127 0.684108
0.0579385 0.311681 0.688441
0.25919 0.330282 0.701015
0.452613 0.350988 0.71783
0.61529 0.376455 0.723217
0.729824 0.395331 0.715953
0.813352 0.418235 0.712764
0.880552 0.446952 0.716564
0.930388 0.475456 0.723247
0.000137331 0.441672 0.689082
0.0712139 0.451057 0.695415
0.254093 0.464927 0.705577
0.437934 0.480385 0.716976
0.605814 0.499855 0.730632
0.731899 0.508247 0.729747
0.824537 0.513619 0.724239
0.8972 0.523842 0.720104
0.95346 0.542657 0.720562
0.0582742 0.575341 0.6916
0.136278 0.576303 0.693843
0.274586 0.585611 0.702693
0.441932 0.598718 0.710842
0.593149 0.6112 0.720531
0.721355 0.619837 0.72311
0.814145 0.618265 0.715587
0.890913 0.618967 0.712444
0.955123 0.622614 0.709453
0.286198 0.693416 0.700008
0.311238 0.69192 0.698894
0.361654 0.692973 0.700954
0.464225 0.700847 0.705913
0.594369 0.71191 0.711666
0.715373 0.715373 0.715373
0.802136 0.711223 0.704204
0.875364 0.708736 0.698177
0.937575 0.707805 0.692515
0.428626 0.780529 0.725673
0.451102 0.782284 0.72224
0.484474 0.785733 0.721859
0.540398 0.791516 0.719295
0.619623 0.798657 0.714992
0.71133 0.795468 0.70399
0.794415 0.787991 0.695445
0.863218 0.784283 0.689738
0.92285 0.781323 0.683436
0.53756 0.848142 0.752026
0.554574 0.848814 0.748562
0.578698 0.85153 0.745418
0.616495 0.854475 0.739178
0.666362 0.856107 0.724315
0.723812 0.85507 0.705928
0.788876 0.85034 0.687083
0.851926 0.844648 0.678294
0.907668 0.839811 0.673564
0.610574 0.890257 0.7664
0.624201 0.889906 0.761913
0.644053 0.890745 0.757794
0.670283 0.890806 0.749386
0.705211 0.891585 0.737423
0.745571 0.89221 0.716762
0.790936 0.8916 0.694377
0.841474 0.886748 0.671489
0.891081 0.882048 0.659586
0.0169833 0.0372015 0.63061
0.211734 0.0773175 0.65568
0.386984 0.145357 0.698314
0.53312 0.199145 0.717876
0.652018 0.25536 0.734691
0.745098 0.31043 0.753902
0.813596 0.358602 0.768856
0.867247 0.402319 0.784314
0.876158 0.423255 0.792203
0.0835889 0.226764 0.739147
0.158602 0.228992 0.73727
0.323949 0.252781 0.746044
0.497154 0.296117 0.762142
0.631601 0.333776 0.768719
0.734142 0.37322 0.775219
0.808667 0.408499 0.781949
0.868498 0.444999 0.78909
0.895048 0.468086 0.795163
0.0766461 0.360876 0.770993
0.120485 0.353384 0.770993
0.277073 0.363546 0.787808
0.463798 0.386648 0.791959
0.621759 0.422293 0.799008
0.732586 0.447852 0.796811
0.811795 0.472465 0.795911
0.873075 0.497414 0.796445
0.913634 0.519112 0.799527
0.0801099 0.48629 0.77882
0.124224 0.479271 0.779293
0.258106 0.486381 0.794064
0.431327 0.498268 0.811978
0.6 0.515511 0.818586
0.73077 0.53814 0.820645
0.81799 0.550912 0.814084
0.880934 0.56437 0.806287
0.93164 0.580758 0.804395
0.0805371 0.588205 0.773816
0.128893 0.585855 0.775433
0.257527 0.592874 0.787686
0.421912 0.602914 0.801816
0.58088 0.616098 0.810376
0.71635 0.630137 0.822293
0.817304 0.635157 0.818677
0.888045 0.637812 0.808408
0.943374 0.643305 0.803433
0.272312 0.69189 0.768612
0.290013 0.688197 0.768795
0.331807 0.6878 0.777279
0.436896 0.695109 0.787121
0.574395 0.706035 0.796017
0.705074 0.717617 0.804822
0.802762 0.719631 0.804639
0.877394 0.717342 0.799283
0.939025 0.716182 0.79115
0.410758 0.771206 0.776364
0.429114 0.770794 0.775433
0.458625 0.772168 0.777081
0.510506 0.776043 0.782666
0.59472 0.786618 0.792142
0.701991 0.79443 0.795407
0.793408 0.793408 0.793408
0.862089 0.78854 0.782635
0.921996 0.785183 0.776669
0.514427 0.835325 0.792142
0.531945 0.836591 0.791424
0.555673 0.839078 0.792218
0.59292 0.842985 0.793896
0.644617 0.848386 0.793011
0.709087 0.851255 0.784817
0.780392 0.849073 0.774548
0.846784 0.842039 0.76585
0.901305 0.836271 0.756695
0.586618 0.877134 0.801801
0.600305 0.878904 0.80145
0.62092 0.880446 0.799634
0.649653 0.882734 0.79649
0.686549 0.886458 0.791562
0.726925 0.887572 0.779171
0.774945 0.886336 0.761715
0.831815 0.881407 0.747677
0.883024 0.87509 0.73817
0.112596 0.0821546 0.68278
0.271611 0.142184 0.728862
0.42034 0.197559 0.761334
0.56051 0.257893 0.784253
0.672801 0.312947 0.801083
0.758846 0.365026 0.816922
0.823102 0.408774 0.829435
0.864973 0.444907 0.839734
0.870237 0.45951 0.842985
0.157427 0.278782 0.800488
0.215167 0.279789 0.798001
0.358144 0.300954 0.803967
0.516487 0.340444 0.816785
0.648371 0.384543 0.828779
0.744472 0.421057 0.835706
0.81503 0.455421 0.840528
0.868955 0.486381 0.844068
0.887861 0.505226 0.847425
0.164675 0.406134 0.824979
0.190143 0.397223 0.825772
0.313863 0.404578 0.838804
0.48278 0.425101 0.843061
0.628199 0.459907 0.851179
0.73547 0.489052 0.854261
0.812589 0.513771 0.854154
0.869841 0.53608 0.853361
0.904875 0.554559 0.853773
0.183902 0.521035 0.832593
0.201602 0.510018 0.83003
0.297353 0.511238 0.842893
0.446052 0.520851 0.864073
0.599466 0.538186 0.868803
0.72491 0.564721 0.870802
0.812894 0.582727 0.868376
0.871641 0.596445 0.863783
0.917601 0.610315 0.860182
0.193072 0.61413 0.831205
0.214176 0.606149 0.831037
0.297826 0.607202 0.841398
0.430991 0.614984 0.861158
0.572732 0.62446 0.877546
0.705638 0.639612 0.884443
0.809216 0.654108 0.882429
0.875044 0.661738 0.873686
0.925689 0.670069 0.865125
0.275105 0.696818 0.82562
0.286244 0.69218 0.828244
0.335637 0.692897 0.836728
0.432181 0.697765 0.85095
0.558434 0.708064 0.866606
0.691905 0.720241 0.880293
0.79852 0.727886 0.883345
0.873152 0.729458 0.875654
0.929854 0.729213 0.865461
0.394873 0.763165 0.817563
0.40676 0.761013 0.817456
0.434104 0.761639 0.822904
0.47982 0.763684 0.835508
0.567376 0.775555 0.851225
0.682628 0.787533 0.864073
0.781353 0.792538 0.865339
0.85568 0.78967 0.859525
0.91603 0.78497 0.85095
0.486061 0.817288 0.81973
0.500557 0.817304 0.821271
0.522332 0.819318 0.823926
0.559884 0.824414 0.830243
0.613352 0.832197 0.838056
0.684504 0.839139 0.842405
0.765408 0.841428 0.841825
0.837201 0.837201 0.837201
0.892882 0.83241 0.825513
0.561334 0.862394 0.829129
0.574624 0.863401 0.829908
0.593011 0.865812 0.830762
0.62356 0.869963 0.831937
0.660716 0.874098 0.83241
0.704112 0.878096 0.829679
0.757641 0.879026 0.821958
0.81767 0.874723 0.812696
0.871595 0.86865 0.803861
0.190387 0.15613 0.748516
0.316899 0.198062 0.778195
0.451896 0.245258 0.797589
0.589349 0.303334 0.81883
0.691875 0.351278 0.828901
0.773281 0.398413 0.840558
0.833906 0.438514 0.848585
0.86775 0.466453 0.855329
0.873549 0.48275 0.86125
0.156573 0.31841 0.813291
0.225895 0.319799 0.817609
0.376074 0.341222 0.826856
0.535348 0.377157 0.839338
0.664683 0.420752 0.855024
0.756085 0.454673 0.860594
0.823407 0.48716 0.867018
0.871946 0.516152 0.873243
0.886152 0.530999 0.875242
0.172427 0.439246 0.829465
0.199115 0.430442 0.832502
0.32224 0.436271 0.8542
0.489586 0.456321 0.865766
0.634058 0.486595 0.875044
0.742626 0.517968 0.882902
0.815656 0.543526 0.886107
0.871321 0.56495 0.887755
0.901015 0.581506 0.890333
0.199924 0.544472 0.840787
0.21445 0.535363 0.842527
0.310521 0.534981 0.85893
0.452491 0.544076 0.88603
0.601053 0.560067 0.896849
0.723079 0.587106 0.90367
0.807477 0.60705 0.906218
0.868437 0.623346 0.905348
0.910063 0.637095 0.902571
0.230289 0.63328 0.851972
0.251102 0.626032 0.854444
0.321599 0.625116 0.866392
0.443122 0.630304 0.886473
0.575936 0.639063 0.911528
0.702296 0.653925 0.921355
0.802213 0.67451 0.923766
0.866804 0.683604 0.916518
0.915816 0.691279 0.908919
0.291493 0.704082 0.856443
0.303395 0.697627 0.861708
0.351308 0.696834 0.873762
0.446433 0.702556 0.889601
0.560906 0.709163 0.907774
0.683024 0.722957 0.927871
0.785824 0.733104 0.932433
0.860456 0.739544 0.923613
0.912795 0.741299 0.912337
0.37818 0.756634 0.855451
0.385489 0.753964 0.856504
0.410529 0.754742 0.862226
0.463478 0.756588 0.875776
0.547799 0.764691 0.895125
0.659129 0.77847 0.912963
0.763775 0.786725 0.917479
0.841627 0.786999 0.914168
0.903426 0.784604 0.905135
0.459281 0.800549 0.843793
0.469825 0.799405 0.843595
0.489754 0.801007 0.848966
0.52578 0.805493 0.859739
0.579309 0.813886 0.873777
0.653819 0.823957 0.889509
0.744121 0.830777 0.893462
0.82118 0.830701 0.892058
0.882292 0.825879 0.884138
0.533593 0.846052 0.850263
0.544701 0.846387 0.851728
0.562783 0.848768 0.852598
0.592355 0.852583 0.858076
0.630915 0.858045 0.865171
0.677378 0.864485 0.87013
0.736828 0.868437 0.872328
0.802396 0.86772 0.866545
0.863462 0.863462 0.863462
