assets/luts/REALA-ACE.cube
TITLE "Generated by Resolve"
LUT_3D_SIZE 65
0 0 0
0.0199435 0.00102235 0.000137331
0.0270237 0.0009308 0.000411994
0.0334478 0.000976577 0.000320439
0.0379644 0.000289921 0.00015259
0.0454414 0.00030518 0.000320439
0.0539712 0.000961318 0.00062562
0.0608225 0.00166323 0.00015259
0.0691539 0.00209049 0.000320439
0.0782635 0.00173953 0.000259403
0.0885939 0.00106813 3.0518e-05
0.0995651 0.000808728 0
0.113863 0.00207523 0.00015259
0.127977 0.00357061 0.000122072
0.14612 0.00320439 1.5259e-05
0.166049 0.00363165 1.5259e-05
0.19321 0.00448615 1.5259e-05
0.220157 0.00576791 7.62951e-05
0.24509 0.00628672 0.00030518
0.271763 0.00694286 0.000534066
0.295079 0.00556954 0.000381476
0.315847 0.00434882 0.000122072
0.338369 0.00430304 1.5259e-05
0.361776 0.00448615 0.000122072
0.384787 0.00556954 0.000198367
0.406104 0.00480659 0.000274662
0.426596 0.00485237 0.000198367
0.446571 0.00410468 0.000106813
0.4663 0.00270085 4.57771e-05
0.485786 0.00140383 0
0.504753 0.00250248 3.0518e-05
0.523293 0.00415045 7.62951e-05
0.541482 0.00579843 0.000106813
0.55938 0.0053254 7.62951e-05
0.574823 0.00595102 9.15541e-05
0.588663 0.00764477 0.000106813
0.601831 0.00950637 9.15541e-05
0.614755 0.0113985 4.57771e-05
0.627588 0.0134127 0
0.639979 0.0174258 3.0518e-05
0.652247 0.0213474 9.15541e-05
0.66421 0.0249638 0.000167849
0.675975 0.0289921 0.000732433
0.687617 0.0353704 0.00399786
0.698985 0.0406958 0.00604257
0.710277 0.0453803 0.00779736
0.721279 0.0509194 0.0107424
0.731945 0.0576944 0.0152895
0.742458 0.0648356 0.0194858
0.752941 0.0718395 0.0234531
0.76286 0.079408 0.0269932
0.772152 0.0876326 0.0300298
0.781445 0.0950637 0.0332799
0.790784 0.101915 0.0369116
0.799939 0.10837 0.0409705
0.808194 0.11545 0.0448157
0.816327 0.122454 0.0486
0.82443 0.129274 0.0525826
0.832425 0.135973 0.0565499
0.840238 0.143832 0.061265
0.84802 0.15198 0.0664073
0.855665 0.160082 0.0717021
0.863188 0.168139 0.0772717
0.870604 0.176104 0.0827344
0.877699 0.186465 0.0898756
0.00300603 0.0283207 0.00115969
0.0325933 0.0318914 4.57771e-05
0.0432898 0.0348669 0.000228885
0.0531167 0.0357824 0.000228885
0.0619364 0.03682 7.62951e-05
0.0697642 0.0375525 1.5259e-05
0.0777295 0.0378271 0.000457771
0.0921798 0.0393683 0.000701915
0.106142 0.0408331 0.000549325
0.122393 0.042298 0.000686656
0.138811 0.0437018 0.000885023
0.157107 0.044892 0.000686656
0.174304 0.0467842 0.000381476
0.195697 0.0472572 0.000289921
0.217105 0.0476539 0.000411994
0.236164 0.0473335 0.000518807
0.25452 0.0476692 0.000549325
0.276066 0.0481422 0.000381476
0.296498 0.048661 0.000137331
0.316411 0.0485389 3.0518e-05
0.335119 0.0486 4.57771e-05
0.353994 0.0477455 6.10361e-05
0.37406 0.0472419 7.62951e-05
0.394659 0.0463874 0.000122072
0.413672 0.0462806 0.00015259
0.431907 0.0463874 0.000167849
0.449592 0.0467536 0.000167849
0.465629 0.0482948 0.000122072
0.481605 0.0499733 4.57771e-05
0.4972 0.0511025 0
0.512413 0.0511635 0
0.527291 0.0512856 0
0.541756 0.0509957 0
0.556115 0.0512856 0
0.570245 0.0518196 1.5259e-05
0.583963 0.0530098 1.5259e-05
0.597177 0.0554818 1.5259e-05
0.610132 0.0579843 0
0.622873 0.0607462 0
0.636057 0.0639658 0.00015259
0.649119 0.0675212 0.000213626
0.661814 0.070985 0.000183108
0.673762 0.0754559 0.000137331
0.684977 0.0808881 9.15541e-05
0.695979 0.086305 3.0518e-05
0.706783 0.0913863 0
0.717632 0.0966659 0.00234989
0.728542 0.101869 0.00563058
0.739345 0.107179 0.00917067
0.749966 0.112459 0.0126497
0.760082 0.118013 0.0169223
0.769818 0.123629 0.0212253
0.779156 0.129213 0.0251621
0.788342 0.134752 0.0290074
0.797024 0.140505 0.0328374
0.805264 0.146471 0.0366674
0.813382 0.152392 0.0404212
0.821378 0.158251 0.0441138
0.830121 0.16437 0.0479438
0.838376 0.170733 0.0530098
0.84651 0.177035 0.0579995
0.854551 0.183459 0.0629587
0.862501 0.190158 0.0679332
0.870344 0.197513 0.0741283
0.877714 0.207416 0.0823377
0.00523384 0.0419471 1.5259e-05
0.0374914 0.0456703 0.000213626
0.0497902 0.0488899 0.000167849
0.0614328 0.0505837 0.000137331
0.0723888 0.0520638 0.000244144
0.0813764 0.0534981 0.00047303
0.0909895 0.0545205 0.000289921
0.104631 0.0563973 0.000259403
0.119478 0.0576638 0.000244144
0.136843 0.0582132 0.000183108
0.153292 0.0595102 0.00030518
0.170123 0.0605173 0.000320439
0.188312 0.0613565 0.000167849
0.208988 0.0620584 4.57771e-05
0.229023 0.0627451 0.000167849
0.247364 0.063035 0.000320439
0.267185 0.0637827 0.000457771
0.288228 0.0618906 0.000259403
0.307668 0.0617838 4.57771e-05
0.326024 0.0625467 0
0.344091 0.0636149 0
0.362539 0.0635538 3.0518e-05
0.38117 0.0628367 0.000137331
0.399268 0.0623484 0.000244144
0.415015 0.0618601 7.62951e-05
0.431449 0.0614939 4.57771e-05
0.447944 0.0616922 6.10361e-05
0.463905 0.0631723 3.0518e-05
0.479988 0.0637827 0
0.495674 0.0643626 0
0.510872 0.0648356 0
0.52575 0.0654002 0
0.540581 0.065919 1.5259e-05
0.555291 0.0664378 1.5259e-05
0.569696 0.0667582 3.0518e-05
0.583383 0.0682078 4.57771e-05
0.596231 0.071046 9.15541e-05
0.608835 0.0738842 0.00015259
0.621454 0.0767681 0.000183108
0.63534 0.0796674 0.000122072
0.648966 0.0826276 6.10361e-05
0.661845 0.0856336 4.57771e-05
0.673625 0.0900282 4.57771e-05
0.68484 0.0953078 3.0518e-05
0.695811 0.0999924 1.5259e-05
0.706569 0.104402 0
0.717418 0.109621 0.00271611
0.728191 0.114611 0.00570687
0.738842 0.119356 0.00862135
0.749264 0.124666 0.00981155
0.75874 0.129503 0.0137636
0.767971 0.134325 0.0179904
0.77734 0.139651 0.0219883
0.786603 0.144976 0.0261234
0.795193 0.150668 0.0299535
0.803708 0.156497 0.0338445
0.812696 0.162478 0.0378424
0.821561 0.168399 0.0417639
0.830259 0.174319 0.0457771
0.838514 0.180453 0.0508888
0.846647 0.186542 0.0559243
0.854673 0.192599 0.0608835
0.862715 0.198718 0.0658732
0.870665 0.205936 0.0717327
0.878233 0.215778 0.0792248
0.00708019 0.0525368 0
0.0436103 0.0597543 0.000488289
0.0565194 0.0624857 0.000228885
0.0682078 0.0648203 0.000228885
0.0788586 0.0662242 0.000518807
0.0885328 0.067277 0.000610361
0.101152 0.0683146 0.000411994
0.113527 0.0702983 0.000183108
0.128084 0.0713207 0
0.144991 0.0718395 0
0.162234 0.072221 0
0.17818 0.0726635 3.0518e-05
0.196521 0.0738384 3.0518e-05
0.215671 0.0751507 0
0.234958 0.0754559 0.000122072
0.253468 0.0757763 0.000289921
0.273198 0.076524 0.000259403
0.293584 0.0747539 0.00015259
0.31339 0.0738689 9.15541e-05
0.330785 0.0734874 0
0.347906 0.0743877 0
0.365911 0.0744793 0.000167849
0.384466 0.0739605 0.000427253
0.402258 0.073228 0.000534066
0.417914 0.0722057 0.000350958
0.432349 0.0729686 0.000183108
0.447517 0.0731975 0.000122072
0.463691 0.0740215 0.000183108
0.480034 0.0742657 0.000259403
0.49546 0.0748302 0.000198367
0.510246 0.075639 9.15541e-05
0.524773 0.0764782 0
0.53959 0.0768902 1.5259e-05
0.554253 0.07776 1.5259e-05
0.568597 0.078645 3.0518e-05
0.582132 0.0810254 0.000106813
0.595041 0.0837568 0.000183108
0.607691 0.0860456 0.000213626
0.620508 0.0886091 0.000228885
0.634363 0.0912795 0.00015259
0.647593 0.0942397 7.62951e-05
0.660349 0.0972457 3.0518e-05
0.672404 0.101595 3.0518e-05
0.684184 0.105959 3.0518e-05
0.69572 0.110018 1.5259e-05
0.706462 0.114214 0
0.717327 0.119356 0.00276188
0.727977 0.124987 0.00408942
0.738552 0.130098 0.00526436
0.748974 0.13521 0.00640879
0.758358 0.139773 0.0106966
0.767575 0.14432 0.0149996
0.776669 0.148867 0.0193332
0.785718 0.153368 0.0239872
0.794873 0.158709 0.0281529
0.803906 0.164599 0.0320134
0.812879 0.170397 0.0360418
0.821698 0.176196 0.0398871
0.83032 0.182025 0.0439155
0.838514 0.188037 0.0489357
0.846662 0.194049 0.0538186
0.854963 0.200107 0.0584573
0.863127 0.20618 0.063798
0.871046 0.213474 0.0698558
0.878599 0.223148 0.0773785
0.00901808 0.0682078 0
0.0484932 0.074815 0.000732433
0.0613107 0.0765393 4.57771e-05
0.0723278 0.0786145 9.15541e-05
0.0836957 0.0799268 0.000381476
0.0949264 0.0810407 0.000640879
0.109087 0.0825971 0.000579843
0.122972 0.084535 0.000350958
0.138003 0.0849775 0.000183108
0.154131 0.0846265 4.57771e-05
0.171008 0.0846265 0
0.185504 0.0840314 7.62951e-05
0.20444 0.0852216 0.000259403
0.223041 0.0866255 0.000259403
0.24065 0.0868696 0.000335698
0.258549 0.0869612 0.000518807
0.278218 0.0876936 0.000503548
0.298238 0.088014 0.000381476
0.317418 0.0869459 0.000274662
0.334585 0.0864424 0.000198367
0.351064 0.0859541 7.62951e-05
0.368063 0.0859541 0.000106813
0.385611 0.0858778 0.000289921
0.402487 0.0861219 0.00047303
0.418265 0.0867475 0.00062562
0.432517 0.0873884 0.000457771
0.448112 0.0868696 0.000427253
0.464378 0.0857404 0.000457771
0.479942 0.0855421 0.000411994
0.495247 0.0863508 0.00030518
0.510307 0.0873579 0.000167849
0.525048 0.0885634 4.57771e-05
0.5393 0.0895552 0
0.553307 0.0907454 0
0.56759 0.0914168 1.5259e-05
0.580987 0.0938582 0.000106813
0.593866 0.0968643 0.000213626
0.607156 0.0980392 0.000198367
0.620066 0.100069 0.000183108
0.632456 0.103563 0.000167849
0.645655 0.10631 9.15541e-05
0.65864 0.109056 3.0518e-05
0.670726 0.112795 1.5259e-05
0.682475 0.116625 0
0.694316 0.120974 0
0.706111 0.125704 0
0.717052 0.130755 7.62951e-05
0.727779 0.135912 0.000457771
0.738308 0.141024 0.00177005
0.748669 0.145876 0.00315862
0.758022 0.150195 0.00761425
0.7673 0.154498 0.0120241
0.776562 0.158618 0.0168612
0.785672 0.162737 0.0216068
0.794873 0.168032 0.025742
0.803998 0.173632 0.0296788
0.812909 0.179095 0.0335851
0.821668 0.184482 0.0374762
0.830259 0.190066 0.0416114
0.838773 0.196048 0.0463417
0.847181 0.201984 0.0510109
0.855436 0.207919 0.0563211
0.863569 0.213825 0.0616922
0.871458 0.221225 0.0679637
0.878996 0.230747 0.0755169
0.0103914 0.0864881 7.62951e-05
0.0534829 0.0906996 0.000320439
0.0657816 0.092607 6.10361e-05
0.0764935 0.0940108 0.000396735
0.0877089 0.0952163 0.000762951
0.101762 0.0963607 0.000686656
0.115923 0.0980392 0.000427253
0.129213 0.0985885 0.000457771
0.142763 0.0979629 0.000686656
0.159396 0.0974136 0.000442512
0.17731 0.0967422 7.62951e-05
0.193408 0.0967269 0.000137331
0.212268 0.0979934 0.000411994
0.230182 0.0988174 0.000564584
0.24715 0.0988174 0.000595102
0.263859 0.0989395 0.00062562
0.282231 0.0989853 0.000671397
0.301381 0.0994736 0.000503548
0.319188 0.0993973 0.000381476
0.336187 0.0993668 0.000137331
0.352285 0.0987106 0
0.3691 0.0995346 0
0.385092 0.101183 0
0.401617 0.101472 0.000167849
0.417304 0.102068 0.000335698
0.432654 0.101259 0.000488289
0.448371 0.100542 0.000595102
0.464012 0.0996719 0.000564584
0.479133 0.0993668 0.000503548
0.495277 0.0996109 0.000350958
0.511055 0.100343 0.000244144
0.525734 0.10164 0.00015259
0.539757 0.101625 0
0.553643 0.102892 0
0.567163 0.104631 0
0.581247 0.105577 0
0.594812 0.107515 6.10361e-05
0.608057 0.108812 7.62951e-05
0.620859 0.110918 6.10361e-05
0.633204 0.114199 4.57771e-05
0.645335 0.11751 3.0518e-05
0.657359 0.120867 0
0.669673 0.125185 0
0.681895 0.129458 0
0.693904 0.133745 0
0.705608 0.138109 1.5259e-05
0.716533 0.142763 7.62951e-05
0.727291 0.147417 0.000137331
0.737865 0.152087 0.000213626
0.748226 0.156695 0.000732433
0.758038 0.160891 0.00444038
0.767422 0.164797 0.00941482
0.776654 0.168719 0.0142977
0.785763 0.172641 0.019089
0.79498 0.177874 0.023209
0.804089 0.183261 0.0271916
0.813046 0.188602 0.0311589
0.821668 0.193576 0.0354009
0.830274 0.198825 0.0396887
0.838987 0.204608 0.0440681
0.847547 0.210361 0.0489357
0.85594 0.216129 0.0541238
0.864073 0.221866 0.0595407
0.8719 0.229374 0.0660105
0.879408 0.238071 0.0735637
0.0133974 0.102113 0.000457771
0.0575418 0.10605 0.000167849
0.0717784 0.107546 0.000213626
0.0820172 0.108751 0.000534066
0.0937057 0.10988 0.000717174
0.107668 0.11107 0.00047303
0.121584 0.112505 0.000244144
0.135683 0.112612 0.000503548
0.148272 0.112749 0.000762951
0.165194 0.111864 0.00047303
0.182589 0.11133 0.000106813
0.198413 0.111528 9.15541e-05
0.215076 0.112261 0.000244144
0.233097 0.112902 0.000396735
0.251423 0.112581 0.00030518
0.26807 0.112474 0.000274662
0.285725 0.111955 0.000320439
0.303441 0.111666 0.000518807
0.320287 0.110887 0.000488289
0.337026 0.111238 0.000244144
0.353231 0.111696 3.0518e-05
0.369009 0.112139 0
0.3841 0.113466 0
0.400427 0.114961 0
0.416739 0.116091 6.10361e-05
0.431983 0.115496 0.000213626
0.447745 0.114717 0.000366217
0.463188 0.114061 0.000503548
0.478569 0.113603 0.000595102
0.494469 0.114153 0.000411994
0.510018 0.114855 0.000198367
0.525185 0.115587 1.5259e-05
0.539803 0.116091 0
0.553552 0.117388 0
0.566979 0.118822 0
0.581079 0.11931 0
0.594949 0.11986 0
0.608515 0.120699 0
0.621515 0.123156 0
0.634012 0.126329 0
0.646143 0.129885 0
0.658106 0.133501 0
0.670359 0.137636 0
0.682078 0.141741 0
0.693553 0.145861 0
0.70515 0.150027 1.5259e-05
0.71606 0.154482 6.10361e-05
0.726802 0.158968 0.000106813
0.737362 0.163455 0.000137331
0.747677 0.167788 0.00103761
0.757488 0.171557 0.00482185
0.767163 0.175341 0.00856031
0.776669 0.179126 0.0122683
0.785916 0.182864 0.0165255
0.795056 0.187945 0.020798
0.804028 0.192935 0.0251316
0.812879 0.197894 0.0293889
0.821561 0.202808 0.0336156
0.830198 0.20795 0.0379492
0.83888 0.213581 0.0428016
0.847425 0.219181 0.0479896
0.855848 0.224765 0.0531014
0.864424 0.230503 0.0578012
0.872404 0.237064 0.0639811
0.87982 0.244144 0.071458
0.0137942 0.118227 0.000595102
0.059678 0.122118 0.000198367
0.0729686 0.122759 0.00015259
0.0831006 0.123568 0.000366217
0.0950484 0.125704 0.000488289
0.107439 0.12784 0.000579843
0.122362 0.128771 0.000595102
0.138415 0.129519 0.00077821
0.153887 0.129366 0.000808728
0.171023 0.128161 0.000442512
0.187854 0.127031 9.15541e-05
0.202792 0.127199 0.000122072
0.217365 0.127779 0.000183108
0.234455 0.127764 0.000167849
0.251972 0.127596 6.10361e-05
0.269261 0.126543 7.62951e-05
0.286244 0.125383 0.000274662
0.303014 0.125048 0.000534066
0.319646 0.124178 0.000564584
0.336156 0.124071 0.000396735
0.351888 0.124331 0.000198367
0.366903 0.124559 4.57771e-05
0.381735 0.12549 0
0.398459 0.126848 0
0.414939 0.128527 1.5259e-05
0.431144 0.129671 3.0518e-05
0.447166 0.128908 0.000122072
0.462654 0.128115 0.000320439
0.477867 0.128054 0.000366217
0.493233 0.12932 0.000259403
0.508614 0.130205 0.000122072
0.523659 0.130694 0
0.538201 0.130999 0
0.552438 0.131624 0
0.566445 0.132906 3.0518e-05
0.580346 0.133974 0
0.593988 0.135119 0
0.607385 0.136355 0
0.620874 0.138247 0
0.634211 0.140398 0
0.647059 0.142885 0
0.659037 0.146349 0
0.671244 0.150256 0
0.683131 0.154192 0
0.69456 0.158129 0
0.705547 0.162219 0
0.715938 0.166537 0
0.72636 0.17084 1.5259e-05
0.73695 0.175051 0.00015259
0.747158 0.178927 0.00192264
0.756878 0.182483 0.00576791
0.766598 0.18613 0.00920119
0.776394 0.18999 0.0116121
0.786007 0.193896 0.0141604
0.795026 0.198383 0.0187381
0.803937 0.202853 0.0232547
0.812741 0.207492 0.0276188
0.821454 0.212268 0.0318456
0.830137 0.217395 0.0365911
0.838788 0.222858 0.0418555
0.847684 0.22858 0.0465095
0.856519 0.234318 0.0510567
0.865232 0.240009 0.0555276
0.873091 0.246509 0.0620279
0.880476 0.253422 0.0695354
0.0169833 0.13695 0.000213626
0.0626383 0.138018 0.000213626
0.0753948 0.138582 0.00015259
0.0858473 0.13962 0.00015259
0.097261 0.141527 0.000259403
0.109773 0.143313 0.000396735
0.123445 0.144717 0.000411994
0.13901 0.145312 0.000549325
0.155261 0.146258 0.000457771
0.171618 0.146304 0.000259403
0.187427 0.145617 9.15541e-05
0.204349 0.143679 6.10361e-05
0.219532 0.143648 7.62951e-05
0.236789 0.143343 0.00015259
0.253193 0.143389 0.000488289
0.270161 0.141451 0.000579843
0.286381 0.139788 0.000549325
0.302052 0.139345 0.000320439
0.318395 0.138964 0.000350958
0.334646 0.138933 0.000274662
0.350652 0.139193 0.00047303
0.365637 0.139971 0.000396735
0.380667 0.140887 0.000335698
0.396582 0.140917 0.000183108
0.412741 0.142306 0.000137331
0.429511 0.143191 0.000228885
0.446036 0.142626 0.000213626
0.462242 0.142153 0.000183108
0.477394 0.142306 0.000137331
0.492424 0.14342 4.57771e-05
0.507561 0.144717 0.000137331
0.522515 0.146578 0.000213626
0.537163 0.147768 0.000289921
0.551476 0.148547 0.000366217
0.565499 0.149676 0.000381476
0.579339 0.150561 0.000198367
0.592981 0.151644 3.0518e-05
0.60647 0.153033 0
0.619623 0.154421 0
0.633005 0.156191 0
0.646265 0.15787 0
0.659327 0.160052 0
0.672175 0.163195 0
0.684184 0.166903 0
0.695674 0.170642 0
0.706508 0.174563 0
0.716869 0.178668 0
0.727138 0.182696 0.000213626
0.737194 0.186679 0.00047303
0.747097 0.1906 0.00141909
0.756909 0.194202 0.00404364
0.766827 0.197848 0.00653086
0.776593 0.201511 0.00898756
0.78613 0.205295 0.011841
0.795148 0.209567 0.0164492
0.804028 0.213855 0.0209964
0.812787 0.218128 0.0254673
0.821485 0.222416 0.0301213
0.830549 0.227558 0.0348516
0.839582 0.233127 0.0395972
0.848432 0.238682 0.0442664
0.857176 0.244205 0.0488899
0.865812 0.249714 0.0534371
0.873487 0.256138 0.0603189
0.880812 0.262867 0.0678874
0.0197299 0.153567 6.10361e-05
0.0654002 0.15433 0.000198367
0.0794537 0.154971 6.10361e-05
0.0897688 0.156054 6.10361e-05
0.10013 0.157168 4.57771e-05
0.113512 0.158145 0.00015259
0.126009 0.159838 0.000167849
0.140215 0.160876 0.00015259
0.156024 0.161837 0.000106813
0.172045 0.163409 0.000167849
0.187884 0.163943 7.62951e-05
0.204501 0.161883 4.57771e-05
0.221836 0.160128 3.0518e-05
0.238727 0.159655 7.62951e-05
0.254414 0.159625 0.000427253
0.269734 0.158679 0.000518807
0.285512 0.157153 0.00047303
0.301305 0.157 0.000259403
0.317281 0.157137 0.000122072
0.333211 0.156909 0.000122072
0.349111 0.156893 0.000457771
0.364736 0.157015 0.000701915
0.380209 0.157244 0.000717174
0.395926 0.157137 0.000503548
0.411292 0.156985 0.000259403
0.427543 0.157397 0.000213626
0.444022 0.157168 0.000183108
0.459922 0.156939 9.15541e-05
0.476036 0.157336 0.000320439
0.491707 0.158022 0.000564584
0.506676 0.159136 0.000640879
0.521584 0.160998 0.000686656
0.536263 0.163195 0.000732433
0.550668 0.165423 0.00077821
0.564721 0.166476 0.000717174
0.57847 0.166934 0.00047303
0.591928 0.167376 0.000228885
0.605234 0.167987 0
0.619074 0.169543 0
0.632563 0.171038 0
0.645747 0.172503 0
0.658747 0.174685 0
0.671565 0.177615 0
0.684153 0.18056 1.5259e-05
0.696468 0.183551 1.5259e-05
0.707256 0.18706 0
0.717311 0.190906 0
0.727214 0.194766 0
0.73695 0.198627 0
0.746899 0.202304 0.0012665
0.756909 0.205844 0.00326543
0.766796 0.209415 0.00491341
0.776562 0.21297 0.00596628
0.785992 0.216617 0.00909438
0.79501 0.220737 0.0137179
0.803967 0.224918 0.0182498
0.812802 0.229038 0.0230411
0.821515 0.233158 0.0278935
0.830655 0.23827 0.032639
0.839872 0.243748 0.0372931
0.848661 0.248997 0.0421912
0.857298 0.2542 0.0470588
0.865873 0.259464 0.0517586
0.873625 0.265827 0.0586709
0.881529 0.272251 0.0652934
0.0213321 0.172198 3.0518e-05
0.0652628 0.173419 0
0.0791333 0.172946 7.62951e-05
0.0887465 0.174014 7.62951e-05
0.100465 0.175006 0.000122072
0.11313 0.176043 0.000198367
0.125551 0.177447 0.000213626
0.141573 0.177203 0.000366217
0.156771 0.177279 0.000366217
0.17258 0.178637 0.000289921
0.188663 0.179995 9.15541e-05
0.205158 0.179477 0.000122072
0.222324 0.178058 0.000122072
0.239399 0.176715 0.000106813
0.255314 0.175631 9.15541e-05
0.270329 0.174762 0.000228885
0.285267 0.174151 0.000335698
0.301167 0.174044 0.000228885
0.316793 0.17409 7.62951e-05
0.33257 0.173419 0.000122072
0.347936 0.172793 0.000411994
0.36347 0.172457 0.000732433
0.378866 0.171847 0.000610361
0.39498 0.17145 0.000350958
0.410193 0.171176 0.000106813
0.426551 0.171847 7.62951e-05
0.442542 0.172229 6.10361e-05
0.458198 0.171939 0
0.474342 0.17229 0.000350958
0.490181 0.172763 0.000671397
0.505577 0.173709 0.000915541
0.520684 0.175219 0.000823987
0.535119 0.177203 0.000701915
0.549157 0.179309 0.000579843
0.563577 0.180453 0.000488289
0.577554 0.18146 0.000411994
0.591012 0.181827 0.000183108
0.604425 0.182452 0
0.618204 0.18381 0
0.631739 0.18529 0
0.644999 0.187076 3.0518e-05
0.657771 0.189227 3.0518e-05
0.670253 0.191577 1.5259e-05
0.682521 0.193973 0
0.694575 0.19649 0
0.705867 0.199756 0
0.71664 0.203296 0
0.727077 0.206882 0
0.736797 0.210559 0
0.746792 0.214008 0.00154116
0.756771 0.21738 0.00354009
0.766522 0.220935 0.00489815
0.776104 0.224567 0.00538643
0.785595 0.228351 0.00715648
0.79498 0.232288 0.0111849
0.804089 0.23621 0.0158694
0.812909 0.240131 0.0208133
0.821607 0.244068 0.0256962
0.830808 0.24918 0.030457
0.840009 0.254475 0.0351415
0.849088 0.25977 0.0397803
0.857816 0.264912 0.0447852
0.866438 0.270024 0.0497292
0.874723 0.275959 0.0558022
0.882918 0.281895 0.0618448
0.0222629 0.191959 0.000137331
0.0653391 0.192248 6.10361e-05
0.0788891 0.19176 0.000244144
0.0903487 0.191653 0.000366217
0.102296 0.192432 0.000411994
0.114641 0.193256 0.000503548
0.126955 0.193622 0.000366217
0.142107 0.193332 0.000442512
0.156451 0.192935 0.000320439
0.172732 0.193393 0.000244144
0.188327 0.194736 6.10361e-05
0.204807 0.196368 4.57771e-05
0.221576 0.196811 1.5259e-05
0.238148 0.195407 0
0.255085 0.19324 3.0518e-05
0.270649 0.191745 0.000122072
0.285847 0.191028 0.000137331
0.301396 0.190768 0.000106813
0.316732 0.190646 3.0518e-05
0.332937 0.189044 0.000213626
0.347616 0.187945 0.00047303
0.362219 0.187121 0.000701915
0.377462 0.186328 0.000442512
0.393469 0.186145 0.000213626
0.409583 0.186099 1.5259e-05
0.425437 0.186694 0
0.441199 0.187549 0
0.456565 0.187564 0
0.47245 0.188067 0
0.488045 0.188556 0.000259403
0.503319 0.189197 0.000442512
0.518502 0.190234 0.000366217
0.53341 0.191363 0.000289921
0.547524 0.193118 0.000167849
0.562173 0.193744 9.15541e-05
0.576288 0.194476 3.0518e-05
0.589731 0.195773 0
0.603326 0.197269 4.57771e-05
0.616785 0.198703 9.15541e-05
0.629999 0.200214 0.000122072
0.642954 0.201968 0.000167849
0.655741 0.20354 0.000122072
0.668315 0.205112 4.57771e-05
0.680598 0.207126 0
0.692622 0.209522 0
0.70399 0.212634 0
0.71487 0.21593 0
0.725414 0.219257 0
0.735744 0.222553 0
0.746334 0.226291 3.0518e-05
0.756268 0.22977 0.00102235
0.765957 0.233219 0.00218204
0.775494 0.236667 0.00329595
0.78497 0.240284 0.00608835
0.794339 0.243992 0.0105745
0.803586 0.2477 0.0149844
0.812696 0.251408 0.0193637
0.821698 0.255207 0.0234836
0.831144 0.260349 0.0284428
0.840421 0.265583 0.0332494
0.849577 0.270787 0.0380102
0.858595 0.275975 0.04271
0.86717 0.28098 0.0477607
0.87541 0.286793 0.0539864
0.883268 0.292668 0.0611734
0.0231022 0.209003 0
0.0690013 0.208881 0.000396735
0.0831311 0.208316 0.000534066
0.094667 0.207874 0.000579843
0.106218 0.207919 0.000610361
0.117296 0.208392 0.00047303
0.128267 0.208774 0.000198367
0.14078 0.209018 7.62951e-05
0.156481 0.208865 6.10361e-05
0.172534 0.208865 4.57771e-05
0.188434 0.209354 0
0.20473 0.211002 0
0.221057 0.212772 0
0.237171 0.212833 9.15541e-05
0.253834 0.210575 0.000137331
0.270542 0.208316 0.00015259
0.28632 0.207996 1.5259e-05
0.301518 0.207752 0
0.316594 0.207095 0
0.332128 0.204562 6.10361e-05
0.346746 0.203204 0.000274662
0.361761 0.202884 0.000442512
0.378103 0.203555 0.000534066
0.393545 0.203235 0.000320439
0.409186 0.202991 0.000167849
0.424231 0.202731 6.10361e-05
0.439307 0.202869 0
0.455009 0.20325 0
0.470863 0.203433 0
0.486458 0.203708 0
0.501579 0.204532 0
0.51667 0.205768 0
0.531884 0.206867 0
0.546609 0.208026 0
0.559548 0.209216 0
0.573587 0.210178 0
0.586862 0.211475 0
0.60061 0.212772 7.62951e-05
0.614466 0.214084 0.000183108
0.628061 0.215457 0.000289921
0.641016 0.216846 0.000320439
0.653742 0.218296 0.000259403
0.666255 0.219806 0.000183108
0.678737 0.221408 0.000122072
0.690852 0.223133 6.10361e-05
0.701808 0.22536 0
0.712886 0.228244 0
0.723369 0.231357 0
0.73373 0.234516 0
0.74435 0.238117 4.57771e-05
0.754818 0.241733 7.62951e-05
0.765118 0.24535 0.000106813
0.775235 0.248951 0.00140383
0.784451 0.252247 0.00552377
0.793835 0.255955 0.00939956
0.803143 0.259785 0.0129397
0.812345 0.263615 0.0164187
0.821485 0.267552 0.0200809
0.831159 0.272358 0.0255589
0.840711 0.27715 0.0309606
0.850126 0.281941 0.0362707
0.859144 0.286976 0.0409705
0.867872 0.292165 0.0462348
0.875807 0.297887 0.0534981
0.883711 0.303578 0.0604715
0.0262913 0.225666 0
0.0714885 0.224903 0.000488289
0.0855573 0.224384 0.000518807
0.096376 0.223911 0.000549325
0.108095 0.223941 0.000656138
0.118914 0.224186 0.000488289
0.129427 0.224598 0.000259403
0.142245 0.225025 9.15541e-05
0.157549 0.225467 9.15541e-05
0.173068 0.225498 9.15541e-05
0.188449 0.225299 1.5259e-05
0.203876 0.225727 0
