assets/luts/REALA-ACE.cube
TITLE "Generated by Resolve"
LUT_3D_SIZE 5
0 0 0
0.19321 0.00448615 1.5259e-05
0.541482 0.00579843 0.000106813
0.742458 0.0648356 0.0194858
0.877699 0.186465 0.0898756
0.0374762 0.274769 0.00077821
0.287236 0.275608 1.5259e-05
0.526467 0.272221 0
0.729046 0.286915 0
0.885634 0.34815 0.0475624
0.233646 0.542336 0.130983
0.341421 0.535256 0.0687419
0.540978 0.536126 0.000350958
0.740627 0.548394 0.000106813
0.893584 0.574548 0.0108339
0.495979 0.785916 0.351324
0.542931 0.782986 0.308873
0.639902 0.782315 0.195132
0.771634 0.778485 0.0271611
0.902495 0.780896 0.0401465
0.687037 0.909239 0.541329
0.715633 0.907958 0.519783
0.764874 0.908156 0.478798
0.832212 0.911299 0.384817
0.908904 0.910369 0.240925
0.000366217 0.00671397 0.177676
0.306371 0.0133364 0.257038
0.593454 0.00889601 0.275975
0.782635 0.0594034 0.293477
0.907927 0.219104 0.361669
0.00077821 0.276036 0.288411
0.304097 0.304097 0.304097
0.558343 0.291203 0.275303
0.770642 0.307485 0.28397
0.924086 0.369421 0.329549
0.165454 0.579309 0.323217
0.338781 0.57023 0.291081
0.576577 0.565225 0.277943
0.777249 0.57174 0.281697
0.927306 0.591943 0.30544
0.479377 0.789609 0.475196
0.532708 0.78645 0.436469
0.637919 0.785534 0.349844
0.787121 0.781262 0.297124
0.913664 0.778592 0.311559
0.659281 0.900038 0.602289
0.691127 0.899229 0.583978
0.747143 0.90103 0.54696
0.820752 0.903395 0.462974
0.905989 0.90161 0.382635
0.00205997 0.0154269 0.408072
0.346151 0.0403906 0.52401
0.626398 0.0994583 0.550027
0.808362 0.20589 0.579675
0.910765 0.312276 0.628519
0.000747692 0.281544 0.55964
0.266011 0.308858 0.576165
0.600275 0.339025 0.591409
0.818616 0.357855 0.593149
0.949554 0.421912 0.614237
0.0769513 0.570092 0.584863
0.306203 0.583688 0.590906
0.606516 0.606516 0.606516
0.806729 0.60264 0.59118
0.94905 0.612543 0.592309
0.449973 0.791928 0.659632
0.510185 0.79765 0.645487
0.62977 0.794415 0.60412
0.79234 0.785275 0.577539
0.92105 0.778531 0.571603
0.631495 0.896284 0.716594
0.662089 0.894713 0.701915
0.722103 0.895094 0.674662
0.803174 0.895491 0.617746
0.898116 0.888853 0.572427
0.0169833 0.0372015 0.63061
0.386984 0.145357 0.698314
0.652018 0.25536 0.734691
0.813596 0.358602 0.768856
0.876158 0.423255 0.792203
0.0766461 0.360876 0.770993
0.277073 0.363546 0.787808
0.621759 0.422293 0.799008
0.811795 0.472465 0.795911
0.913634 0.519112 0.799527
0.0805371 0.588205 0.773816
0.257527 0.592874 0.787686
0.58088 0.616098 0.810376
0.817304 0.635157 0.818677
0.943374 0.643305 0.803433
0.410758 0.771206 0.776364
0.458625 0.772168 0.777081
0.59472 0.786618 0.792142
0.793408 0.793408 0.793408
0.921996 0.785183 0.776669
0.586618 0.877134 0.801801
0.62092 0.880446 0.799634
0.686549 0.886458 0.791562
0.774945 0.886336 0.761715
0.883024 0.87509 0.73817
0.190387 0.15613 0.748516
0.451896 0.245258 0.797589
0.691875 0.351278 0.828901
0.833906 0.438514 0.848585
0.873549 0.48275 0.86125
0.172427 0.439246 0.829465
0.32224 0.436271 0.8542
0.634058 0.486595 0.875044
0.815656 0.543526 0.886107
0.901015 0.581506 0.890333
0.230289 0.63328 0.851972
0.321599 0.625116 0.866392
0.575936 0.639063 0.911528
0.802213 0.67451 0.923766
0.915816 0.691279 0.908919
0.37818 0.756634 0.855451
0.410529 0.754742 0.862226
0.547799 0.764691 0.895125
0.763775 0.786725 0.917479
0.903426 0.784604 0.905135
0.533593 0.846052 0.850263
0.562783 0.848768 0.852598
0.630915 0.858045 0.865171
0.736828 0.868437 0.872328
0.863462 0.863462 0.863462
