assets/luts/RicePaddyFilm.cube
TITLE "Generated by Resolve"
LUT_3D_SIZE 9
0.0827039 0.0612497 0.057435
0.100114 0.0612039 0.0568856
0.236088 0.084062 0.0455329
0.554025 0.12314 0.0439002
0.776272 0.15198 0.0570993
0.879469 0.172305 0.0713817
0.879469 0.172305 0.0713817
0.879469 0.172305 0.0713817
0.879469 0.172305 0.0713817
0.0830854 0.0699168 0.0574044
0.0860456 0.0650339 0.0573739
0.187045 0.0796826 0.0537118
0.528695 0.119142 0.0425574
0.770336 0.151141 0.0559548
0.879469 0.172305 0.0713817
0.879469 0.172305 0.0713817
0.879469 0.172305 0.0713817
0.879469 0.172305 0.0713817
0.0874495 0.153353 0.0742199
0.0854658 0.141512 0.0715343
0.131609 0.129641 0.0624399
0.490608 0.137362 0.0413519
0.7626 0.150347 0.0556191
0.879469 0.172305 0.0713817
0.879469 0.172305 0.0713817
0.879469 0.172305 0.0713817
0.879469 0.172305 0.0713817
0.16759 0.410681 0.147219
0.164446 0.402945 0.144518
0.160876 0.394186 0.141573
0.35523 0.382345 0.0705882
0.732555 0.284062 0.0800488
0.875044 0.20235 0.0699016
0.878889 0.173709 0.0709544
0.879469 0.172305 0.0713817
0.879469 0.172305 0.0713817
0.234424 0.592737 0.190982
0.233875 0.591119 0.19057
0.233204 0.58912 0.190097
0.231281 0.583474 0.188846
0.604501 0.596445 0.108919
0.855787 0.528572 0.163653
0.887037 0.479606 0.158236
0.886793 0.456657 0.151492
0.886625 0.447868 0.148882
0.273915 0.707912 0.216236
0.27361 0.706935 0.216175
0.273213 0.70576 0.216052
0.272175 0.702495 0.215808
0.330587 0.701671 0.169955
0.771298 0.744549 0.169116
0.889693 0.724971 0.19118
0.889754 0.716686 0.190494
0.889708 0.713558 0.190356
0.299321 0.759594 0.202991
0.299321 0.759594 0.202991
0.299321 0.759594 0.202991
0.299321 0.759594 0.202991
0.299321 0.759594 0.202991
0.668986 0.816342 0.184192
0.875257 0.835218 0.213352
0.897414 0.830274 0.214557
0.896849 0.827848 0.213794
0.299321 0.759594 0.202991
0.299321 0.759594 0.202991
0.299321 0.759594 0.202991
0.299321 0.759594 0.202991
0.299321 0.759594 0.202991
0.618097 0.809506 0.177859
0.844205 0.840452 0.213931
0.899214 0.848951 0.221897
0.899214 0.848951 0.221897
0.299321 0.759594 0.202991
0.299321 0.759594 0.202991
0.299321 0.759594 0.202991
0.299321 0.759594 0.202991
0.299321 0.759594 0.202991
0.59292 0.805615 0.173816
0.832395 0.838575 0.211597
0.899214 0.848951 0.221897
0.899214 0.848951 0.221897
0.0827192 0.0612497 0.0627146
0.0978866 0.0610666 0.0615549
0.228931 0.0835279 0.0505989
0.550469 0.122637 0.0449836
0.775326 0.151843 0.0569009
0.879469 0.172305 0.0713817
0.879469 0.172305 0.0713817
0.879469 0.172305 0.0713817
0.879469 0.172305 0.0713817
0.0829175 0.0660105 0.0581521
0.0827039 0.0612497 0.057435
0.178851 0.0784924 0.0542306
0.524392 0.118441 0.0422522
0.76939 0.151003 0.0557717
0.879469 0.172305 0.0713817
0.879469 0.172305 0.0713817
0.879469 0.172305 0.0713817
0.879469 0.172305 0.0713817
0.0857862 0.143648 0.0720989
0.0839857 0.132738 0.0690929
0.126406 0.122774 0.0612192
0.477928 0.130205 0.0389105
0.761532 0.15024 0.0556344
0.879469 0.172305 0.0713817
0.879469 0.172305 0.0713817
0.879469 0.172305 0.0713817
0.879469 0.172305 0.0713817
0.165087 0.404501 0.145052
0.161883 0.396765 0.142367
0.159152 0.389654 0.140093
0.350912 0.377005 0.0699931
0.731746 0.277729 0.0781262
0.87483 0.199954 0.0696574
0.879469 0.172305 0.0713817
0.879469 0.172305 0.0713817
0.879469 0.172305 0.0713817
0.233997 0.59144 0.190692
0.233417 0.589776 0.190265
0.232731 0.587777 0.189792
0.230716 0.581811 0.188464
0.602975 0.594553 0.10782
0.8551 0.525902 0.163043
0.887053 0.476173 0.157336
0.886702 0.452796 0.150286
0.886534 0.443946 0.147692
0.273655 0.707118 0.216175
0.273335 0.706142 0.216114
0.272969 0.704967 0.215991
0.271901 0.701701 0.215747
0.328267 0.700435 0.171664
0.769741 0.74316 0.168444
0.889708 0.723705 0.191043
0.889754 0.715312 0.190433
0.889693 0.712184 0.19028
0.299321 0.759594 0.202991
0.299321 0.759594 0.202991
0.299321 0.759594 0.202991
0.299321 0.759594 0.202991
0.299321 0.759594 0.202991
0.66746 0.815412 0.183749
0.874144 0.834211 0.212772
0.897154 0.829221 0.214237
0.89659 0.826795 0.213458
0.299321 0.759594 0.202991
0.299321 0.759594 0.202991
0.299321 0.759594 0.202991
0.299321 0.759594 0.202991
0.299321 0.759594 0.202991
0.616007 0.809201 0.177539
0.843153 0.840284 0.213733
0.899214 0.848951 0.221897
0.899214 0.848951 0.221897
0.299321 0.759594 0.202991
0.299321 0.759594 0.202991
0.299321 0.759594 0.202991
0.299321 0.759594 0.202991
0.299321 0.759594 0.202991
0.590692 0.805234 0.173419
0.831388 0.838407 0.211383
0.899214 0.848951 0.221897
0.899214 0.848951 0.221897
0.0940566 0.0742657 0.1449
0.104753 0.074052 0.144656
0.223102 0.0775464 0.132494
0.547982 0.123156 0.0929122
0.772763 0.15256 0.101595
0.877806 0.171893 0.111391
0.878492 0.172824 0.105348
0.879194 0.172717 0.0995346
0.87924 0.172686 0.0973373
0.0932631 0.073167 0.137316
0.0931563 0.0729229 0.13608
0.175051 0.075639 0.133837
0.520378 0.117052 0.0861067
0.765759 0.15169 0.0955367
0.878065 0.172564 0.108034
0.87924 0.172702 0.0981765
0.879255 0.172641 0.0922408
0.879271 0.172595 0.0900435
0.092607 0.134585 0.122179
0.0916915 0.126726 0.120912
0.120668 0.117708 0.117189
0.472923 0.120287 0.0743877
0.757107 0.150805 0.0892958
0.879072 0.172747 0.101411
0.879271 0.17258 0.0892042
0.879332 0.172473 0.0832532
0.879393 0.172473 0.0810407
0.163867 0.398779 0.159594
0.161303 0.392279 0.156924
0.15816 0.384573 0.153689
0.343786 0.368566 0.0944533
0.729854 0.268635 0.0950027
0.874525 0.19794 0.0756542
0.879469 0.172305 0.0713817
0.879469 0.172305 0.0713817
0.879469 0.172305 0.0713817
0.233448 0.589837 0.190265
0.232883 0.588205 0.189899
0.232197 0.58616 0.189425
0.23003 0.579812 0.188083
0.601251 0.59234 0.1066
0.854246 0.522683 0.162249
0.887022 0.471748 0.156161
0.886625 0.448112 0.148943
0.886473 0.439124 0.146288
0.27335 0.706188 0.216114
0.27303 0.705196 0.216052
0.272648 0.70399 0.21593
0.271626 0.700816 0.215686
0.325368 0.698909 0.173724
0.76788 0.741512 0.167544
0.889754 0.722087 0.190906
0.889708 0.713634 0.190356
0.889693 0.710491 0.190219
0.299321 0.759594 0.202991
0.299321 0.759594 0.202991
0.299321 0.759594 0.202991
0.299321 0.759594 0.202991
0.299321 0.759594 0.202991
0.665476 0.814282 0.183078
0.872801 0.833036 0.2121
0.896864 0.827909 0.213794
0.89633 0.825544 0.213077
0.299321 0.759594 0.202991
0.299321 0.759594 0.202991
0.299321 0.759594 0.202991
0.299321 0.759594 0.202991
0.299321 0.759594 0.202991
0.613336 0.808804 0.177127
0.841947 0.84007 0.213504
0.899214 0.848951 0.221897
0.899214 0.848951 0.221897
0.299321 0.759594 0.202991
0.299321 0.759594 0.202991
0.299321 0.759594 0.202991
0.299321 0.759594 0.202991
0.299321 0.759594 0.202991
0.587915 0.804822 0.173007
0.830076 0.838193 0.211139
0.899214 0.848951 0.221897
0.899214 0.848951 0.221897
0.124529 0.136294 0.418997
0.127474 0.136324 0.41912
0.21207 0.139269 0.413687
0.536904 0.133471 0.356847
0.771572 0.165652 0.254444
0.878248 0.186648 0.198398
0.878172 0.184588 0.187427
0.878157 0.183551 0.181888
0.87805 0.183139 0.179919
0.124819 0.134142 0.411673
0.125002 0.133761 0.410391
0.178592 0.139666 0.418509
0.514961 0.133455 0.360662
0.764996 0.16405 0.249119
0.878202 0.185428 0.191882
0.878111 0.183307 0.180682
0.877699 0.182116 0.175387
0.877531 0.181689 0.173419
0.134356 0.162615 0.412467
0.13344 0.155428 0.413947
0.14786 0.144671 0.396323
0.478218 0.13547 0.362234
0.756786 0.162188 0.243214
0.878141 0.183917 0.183795
0.877485 0.181521 0.172747
0.877028 0.180301 0.167315
0.87686 0.179828 0.16527
0.193729 0.409064 0.37882
0.192401 0.402777 0.379065
0.190692 0.394812 0.379202
0.368185 0.369848 0.358785
0.728084 0.245319 0.216938
0.872328 0.19379 0.15581
0.876493 0.178042 0.15668
0.876387 0.177508 0.153964
0.876402 0.17734 0.153246
0.25658 0.599237 0.262211
0.255711 0.597345 0.261463
0.254643 0.59501 0.260533
0.251713 0.588602 0.258015
0.616068 0.599207 0.181003
0.850782 0.515572 0.203952
0.882856 0.458091 0.191531
0.882689 0.434287 0.183871
0.88275 0.424781 0.180804
0.27361 0.703548 0.243931
0.273274 0.702541 0.243519
0.272877 0.701259 0.242985
0.271809 0.697795 0.241688
0.317311 0.694316 0.205798
0.761273 0.735653 0.185428
0.889021 0.716991 0.203983
0.889036 0.708461 0.200992
0.889067 0.705318 0.199878
0.299321 0.759594 0.202991
0.299321 0.759594 0.202991
0.299321 0.759594 0.202991
0.299321 0.759594 0.202991
0.299321 0.759594 0.202991
0.660029 0.811276 0.181353
0.869032 0.829831 0.210208
0.896239 0.824537 0.212848
0.895979 0.822324 0.212253
0.299321 0.759594 0.202991
0.299321 0.759594 0.202991
0.299321 0.759594 0.202991
0.299321 0.759594 0.202991
0.299321 0.759594 0.202991
0.606043 0.80766 0.175891
0.838499 0.839567 0.212833
0.899214 0.848951 0.221897
0.899214 0.848951 0.221897
0.299321 0.759594 0.202991
0.299321 0.759594 0.202991
0.299321 0.759594 0.202991
0.299321 0.759594 0.202991
0.299321 0.759594 0.202991
0.580392 0.803616 0.171862
0.826627 0.837644 0.210452
0.899214 0.848951 0.221897
0.899214 0.848951 0.221897
0.224277 0.222522 0.631495
0.224018 0.222324 0.631159
0.224857 0.228397 0.639811
0.471 0.213367 0.59585
0.761868 0.201205 0.552392
0.887251 0.223316 0.511711
0.88719 0.221744 0.506157
0.887144 0.221103 0.503624
0.887098 0.220829 0.502678
0.222782 0.221363 0.629465
0.222522 0.221164 0.629145
0.218845 0.225086 0.634714
0.444755 0.214786 0.599161
0.7561 0.199878 0.551659
0.887236 0.222278 0.508247
0.887144 0.220966 0.503105
0.887053 0.220325 0.500526
0.887053 0.22005 0.499626
0.220218 0.220691 0.626093
0.220691 0.219776 0.626673
0.220386 0.219547 0.626291
0.408835 0.216541 0.60383
0.748669 0.19794 0.55021
0.887144 0.221317 0.504509
0.887053 0.219974 0.49926
0.887022 0.219333 0.496727
0.886976 0.219104 0.495781
0.258824 0.392142 0.642649
0.256535 0.384649 0.641505
0.253391 0.374762 0.639948
0.315679 0.337926 0.628107
0.710811 0.231586 0.54963
0.881041 0.216815 0.497551
0.886809 0.217487 0.488685
0.886717 0.216968 0.485924
0.886702 0.2168 0.484901
0.301701 0.62359 0.597604
0.301259 0.621881 0.598444
0.300725 0.619821 0.599359
0.299336 0.614054 0.602106
0.629191 0.592798 0.560647
0.847181 0.500237 0.491691
0.883574 0.435065 0.45745
0.88481 0.40766 0.454963
0.885328 0.397299 0.454154
0.324453 0.729015 0.496864
0.324285 0.728176 0.497551
0.323888 0.727062 0.497902
0.322469 0.723705 0.497749
0.351308 0.714031 0.478111
0.783398 0.732006 0.425483
0.88867 0.708217 0.403021
0.888106 0.70071 0.402136
0.887984 0.697902 0.401617
0.348562 0.780468 0.410864
0.348516 0.780407 0.410163
0.348424 0.780285 0.409232
0.348196 0.779995 0.406806
0.347021 0.778851 0.400458
0.692866 0.810071 0.327138
0.873503 0.819074 0.321324
0.897017 0.810849 0.312612
0.896666 0.808545 0.311223
0.344152 0.776165 0.386297
0.343984 0.775998 0.385443
0.343786 0.775814 0.384451
0.343175 0.77528 0.381628
0.341833 0.774075 0.37496
0.632578 0.809628 0.292134
0.84712 0.840635 0.29958
0.899565 0.84239 0.299016
0.899428 0.842466 0.298604
0.342245 0.774441 0.376944
0.342046 0.774258 0.376028
0.341833 0.774075 0.375036
0.341253 0.773541 0.372244
0.339849 0.772274 0.365438
0.605936 0.805463 0.282078
0.834913 0.838926 0.295216
0.898482 0.842878 0.296452
0.898482 0.842939 0.29604
0.25687 0.32755 0.751278
0.256733 0.327337 0.751095
0.259297 0.327276 0.750973
0.429297 0.322148 0.729198
0.740749 0.297551 0.695674
0.894728 0.314595 0.68098
0.894469 0.312703 0.67866
0.894377 0.311757 0.677501
0.894316 0.311421 0.677089
0.255985 0.32639 0.750286
0.255848 0.326177 0.750134
0.25565 0.325917 0.74995
0.401511 0.320668 0.731319
0.732265 0.2963 0.694804
0.894575 0.313451 0.679591
0.894362 0.311574 0.677256
0.89427 0.310628 0.676158
0.894209 0.310292 0.675731
0.254932 0.32491 0.749081
0.254795 0.324712 0.748898
0.254658 0.324498 0.748699
0.369543 0.318074 0.733349
0.72076 0.294499 0.693614
0.891279 0.310384 0.677928
0.894209 0.31017 0.675608
0.894057 0.309239 0.674434
0.894011 0.308888 0.674022
0.251194 0.361639 0.747021
0.251591 0.359777 0.747677
0.252613 0.357549 0.748684
0.28925 0.341619 0.743633
0.681559 0.294255 0.687221
0.880079 0.302678 0.674205
0.893645 0.306371 0.670893
0.893492 0.305409 0.669734
0.893446 0.305013 0.669261
0.36643 0.640421 0.78735
0.365759 0.638193 0.787274
0.364935 0.635477 0.787167
0.362646 0.62797 0.78677
0.603616 0.59292 0.73872
0.839689 0.502708 0.69279
0.88336 0.425376 0.667796
0.884169 0.397009 0.66125
0.884642 0.386755 0.658839
0.398398 0.768353 0.758404
0.397986 0.767529 0.758404
0.397467 0.766491 0.758404
0.396139 0.76376 0.758511
0.418219 0.751995 0.754742
0.786099 0.739208 0.714611
0.895644 0.71165 0.693874
0.896101 0.703014 0.692012
0.8963 0.699718 0.691539
0.432944 0.821729 0.70959
0.432883 0.821668 0.709331
0.432807 0.821591 0.708934
0.43151 0.820294 0.708415
0.425422 0.813733 0.708919
0.699962 0.818326 0.681743
0.863096 0.812665 0.677882
0.891783 0.802548 0.67126
0.891615 0.800549 0.671077
0.43093 0.819638 0.699962
0.430869 0.819577 0.699672
0.430777 0.819516 0.69929
0.430564 0.819272 0.698177
0.430091 0.818738 0.69572
0.643992 0.830747 0.666239
0.846815 0.846723 0.673594
0.89482 0.845136 0.666148
0.895323 0.844816 0.665522
0.430198 0.81886 0.696437
0.430152 0.818799 0.696086
0.430091 0.818738 0.695766
0.429938 0.818509 0.694697
0.429587 0.818036 0.69221
0.621942 0.828641 0.664088
0.838849 0.84683 0.671916
0.888579 0.844968 0.661448
0.895125 0.845167 0.661433
0.347204 0.441138 0.821973
0.347189 0.440925 0.821836
0.347112 0.440604 0.821653
0.443626 0.441733 0.808743
0.722576 0.415641 0.781903
0.895079 0.42359 0.776989
0.896635 0.421195 0.774975
0.89662 0.419776 0.774044
0.896605 0.419257 0.77377
0.347005 0.439673 0.821134
0.346944 0.43946 0.820966
0.346899 0.439185 0.820829
0.422309 0.440406 0.811856
0.714199 0.414878 0.781445
0.891722 0.420996 0.776181
0.896605 0.419394 0.773846
0.896559 0.418006 0.772961
0.896544 0.417487 0.772625
0.346731 0.437964 0.820081
0.346685 0.43772 0.819959
0.346654 0.43743 0.819776
0.39588 0.43888 0.814969
0.703761 0.414008 0.780911
0.887465 0.417777 0.775174
0.896529 0.417288 0.772503
0.896513 0.415869 0.771557
0.896498 0.415351 0.771282
0.342763 0.451453 0.81738
0.343099 0.448844 0.81651
0.34374 0.44567 0.815122
0.342672 0.436408 0.818067
0.671092 0.412055 0.778851
0.87393 0.410132 0.771771
0.896422 0.41149 0.768856
0.896406 0.410254 0.76791
0.896376 0.409781 0.767514
0.41529 0.658106 0.847211
0.414374 0.655497 0.846586
0.413016 0.65182 0.845838
0.409293 0.641733 0.843732
0.577722 0.599771 0.808454
0.831159 0.512078 0.772488
0.883452 0.460014 0.755734
0.883589 0.447578 0.752026
0.883879 0.44358 0.75079
0.44686 0.787152 0.843015
0.44625 0.78616 0.842954
0.445594 0.78497 0.842878
0.443671 0.781598 0.842573
0.455497 0.769635 0.839445
0.785336 0.7514 0.814939
0.896483 0.722087 0.800366
0.896406 0.71429 0.79884
0.896315 0.711437 0.798276
0.48043 0.85008 0.819852
0.479545 0.849409 0.819974
0.478431 0.848554 0.820127
0.475288 0.846098 0.82063
0.467369 0.840024 0.82182
0.719661 0.82887 0.805005
0.859648 0.817884 0.800885
0.896925 0.809461 0.796033
0.896895 0.80766 0.79559
0.479988 0.850477 0.812924
0.479866 0.850401 0.812726
0.479744 0.850324 0.812482
0.479393 0.850095 0.811872
0.478462 0.849561 0.810346
0.672587 0.847272 0.794659
0.843854 0.854154 0.797726
0.889799 0.849363 0.79118
0.896727 0.846403 0.788495
0.478706 0.849714 0.810803
0.478614 0.849638 0.81062
0.478492 0.849577 0.810407
0.478096 0.849332 0.80975
0.477211 0.848798 0.808225
0.650477 0.845716 0.792081
0.83563 0.85536 0.794476
0.885161 0.855253 0.790066
0.896986 0.854566 0.788006
0.347677 0.44445 0.823957
0.347677 0.44445 0.823957
0.347677 0.44445 0.823957
0.430579 0.446906 0.814328
0.71722 0.424369 0.786618
0.893202 0.434897 0.784146
0.897215 0.43592 0.78378
0.897215 0.43592 0.78378
0.897215 0.43592 0.78378
0.347677 0.44445 0.823957
0.347677 0.44445 0.823957
0.347677 0.44445 0.823957
0.409934 0.447471 0.817868
0.708995 0.425345 0.787137
0.890089 0.434363 0.784436
0.897215 0.43592 0.78378
0.897215 0.43592 0.78378
0.897215 0.43592 0.78378
0.347677 0.44445 0.823957
0.347677 0.44445 0.823957
0.347677 0.44445 0.823957
0.383734 0.447471 0.821927
0.699275 0.426917 0.787732
0.885908 0.433646 0.784588
0.897215 0.43592 0.78378
0.897215 0.43592 0.78378
0.897215 0.43592 0.78378
0.34789 0.451545 0.8215
0.347768 0.449485 0.822019
0.347662 0.447028 0.822736
0.357382 0.443824 0.823651
0.667369 0.431952 0.788434
0.87274 0.432486 0.78471
0.897215 0.43592 0.78378
0.897215 0.43592 0.78378
0.897215 0.43592 0.78378
0.417975 0.654521 0.854215
0.416968 0.651484 0.853605
0.415564 0.647547 0.852979
0.411627 0.6365 0.851316
0.572732 0.601495 0.822644
0.823865 0.514107 0.78883
0.885359 0.485695 0.780224
0.887556 0.474922 0.779202
0.888472 0.472892 0.779492
0.465721 0.793149 0.866606
0.465248 0.792218 0.866621
0.464714 0.791104 0.866697
0.463355 0.788098 0.866758
0.472938 0.778622 0.865782
0.782483 0.760769 0.843107
0.894469 0.731319 0.831479
0.896834 0.72401 0.83006
0.8972 0.721401 0.829602
0.509361 0.859648 0.860929
0.508415 0.85893 0.86096
0.507286 0.858045 0.860975
0.504524 0.855512 0.860929
0.496925 0.848814 0.860426
0.720607 0.835859 0.845136
0.859037 0.823911 0.839612
0.896559 0.814481 0.836927
0.896361 0.812421 0.836439
0.514351 0.863874 0.855406
0.51426 0.863813 0.855268
0.514183 0.863783 0.855116
0.513939 0.86363 0.854597
0.513008 0.863249 0.8533
0.686046 0.8607 0.838788
0.845991 0.860029 0.841245
0.889036 0.852888 0.838605
0.89839 0.849943 0.837278
0.513329 0.86334 0.853712
0.513207 0.86331 0.853513
0.513069 0.863249 0.853315
0.512551 0.863081 0.852766
0.511345 0.862638 0.851316
0.66273 0.858946 0.836667
0.838651 0.862928 0.838117
0.885145 0.861906 0.837217
0.897993 0.861692 0.835874
0.347677 0.44445 0.823957
0.347677 0.44445 0.823957
0.347677 0.44445 0.823957
0.424567 0.447181 0.815488
0.714855 0.424567 0.78674
0.892317 0.434684 0.784237
0.897215 0.43592 0.78378
0.897215 0.43592 0.78378
0.897215 0.43592 0.78378
0.347677 0.44445 0.823957
0.347677 0.44445 0.823957
0.347677 0.44445 0.823957
0.403891 0.447501 0.81883
0.706691 0.425742 0.787274
0.889189 0.434165 0.784482
0.897215 0.43592 0.78378
0.897215 0.43592 0.78378
0.897215 0.43592 0.78378
0.347677 0.44445 0.823957
0.347677 0.44445 0.823957
0.347677 0.44445 0.823957
0.378683 0.447471 0.822751
0.697093 0.427436 0.787915
0.884779 0.433616 0.784634
0.897215 0.43592 0.78378
0.897215 0.43592 0.78378
0.897215 0.43592 0.78378
0.347723 0.448554 0.822232
0.347662 0.446555 0.822828
0.347677 0.444556 0.823835
0.354162 0.444099 0.823774
0.663966 0.432288 0.788388
0.87155 0.432349 0.784756
0.897215 0.43592 0.78378
0.897215 0.43592 0.78378
0.897215 0.43592 0.78378
0.416495 0.65008 0.853361
0.41529 0.646784 0.852857
0.413855 0.642725 0.852247
0.409918 0.631724 0.850584
0.567132 0.596689 0.822171
0.821942 0.509636 0.787839
0.886 0.482551 0.779934
0.888273 0.473335 0.779431
0.889296 0.47155 0.779767
0.465049 0.791836 0.866682
0.464591 0.790906 0.866697
0.464103 0.789792 0.866743
0.46276 0.78674 0.866758
0.469612 0.777615 0.866056
0.780728 0.759075 0.843
0.893645 0.729381 0.831159
0.897139 0.721935 0.82974
0.89749 0.719265 0.829221
0.508186 0.858656 0.861173
0.507362 0.857969 0.861341
0.506432 0.857069 0.861433
0.504051 0.854627 0.861753
0.497002 0.848005 0.862196
0.718898 0.835889 0.849241
0.859174 0.824887 0.846082
0.896254 0.814435 0.843534
0.896056 0.812421 0.843305
0.516976 0.865171 0.860014
0.516976 0.865171 0.860014
0.516976 0.865171 0.860014
0.516976 0.865171 0.860014
0.516976 0.865171 0.860014
0.689052 0.864637 0.84889
0.847364 0.861173 0.852445
0.889387 0.854673 0.850019
0.899153 0.851713 0.8495
0.516976 0.865171 0.860014
0.516976 0.865171 0.860014
0.516976 0.865171 0.860014
0.516976 0.865171 0.860014
0.516976 0.865171 0.860014
0.665888 0.863661 0.849042
0.840665 0.866529 0.852445
0.886732 0.866514 0.852186
0.899504 0.864775 0.852155
