assets/luts/RicePaddyFilm.cube
TITLE "Generated by Resolve"
LUT_3D_SIZE 33
0.0827039 0.0612497 0.057435
0.0827039 0.0612497 0.057435
0.0827039 0.0612497 0.057435
0.0914626 0.0611429 0.0572366
0.100114 0.0612039 0.0568856
0.120607 0.0671855 0.059617
0.14255 0.0732738 0.0559548
0.1841 0.0792706 0.0538796
0.236088 0.084062 0.0455329
0.300572 0.0888228 0.029633
0.390127 0.0973678 0.033402
0.470283 0.109514 0.0374914
0.554025 0.12314 0.0439002
0.623606 0.131411 0.0506142
0.679652 0.140993 0.0522621
0.732937 0.147768 0.0548409
0.776272 0.15198 0.0570993
0.814939 0.158602 0.0646372
0.844495 0.164797 0.0631723
0.871138 0.170397 0.0719615
0.879469 0.172305 0.0713817
0.879469 0.172305 0.0713817
0.879469 0.172305 0.0713817
0.879469 0.172305 0.0713817
0.879469 0.172305 0.0713817
0.879469 0.172305 0.0713817
0.879469 0.172305 0.0713817
0.879469 0.172305 0.0713817
0.879469 0.172305 0.0713817
0.879469 0.172305 0.0713817
0.879469 0.172305 0.0713817
0.879469 0.172305 0.0713817
0.879469 0.172305 0.0713817
0.0827039 0.0612497 0.057435
0.0827039 0.0612497 0.057435
0.0827039 0.0612497 0.057435
0.0877394 0.061265 0.0573739
0.0966812 0.0610056 0.057084
0.112749 0.0645457 0.0601816
0.133791 0.0711376 0.0572976
0.171359 0.0774395 0.0545968
0.224063 0.0834211 0.0481727
0.288457 0.0877546 0.0306401
0.37908 0.0966506 0.0334325
0.462119 0.108202 0.0370184
0.548135 0.122194 0.0436103
0.620081 0.130877 0.0502632
0.676951 0.140642 0.05243
0.731029 0.147601 0.0548714
0.774823 0.151766 0.0568093
0.81387 0.158404 0.064622
0.843626 0.16463 0.0630655
0.870436 0.170245 0.0718547
0.879469 0.172305 0.0713817
0.879469 0.172305 0.0713817
0.879469 0.172305 0.0713817
0.879469 0.172305 0.0713817
0.879469 0.172305 0.0713817
0.879469 0.172305 0.0713817
0.879469 0.172305 0.0713817
0.879469 0.172305 0.0713817
0.879469 0.172305 0.0713817
0.879469 0.172305 0.0713817
0.879469 0.172305 0.0713817
0.879469 0.172305 0.0713817
0.879469 0.172305 0.0713817
0.0827039 0.0612497 0.057435
0.0827039 0.0612497 0.057435
0.0827039 0.0612497 0.057435
0.0828107 0.0612497 0.057435
0.0935531 0.0610971 0.0571756
0.10515 0.0624399 0.0581521
0.125948 0.068986 0.0586099
0.157488 0.0757916 0.055024
0.211322 0.0828412 0.0514992
0.276127 0.0866255 0.0319829
0.367529 0.0956283 0.0328069
0.453696 0.106798 0.0365148
0.542016 0.121248 0.0433814
0.616053 0.130419 0.049836
0.674266 0.1402 0.0525216
0.729061 0.147372 0.0548257
0.773358 0.151553 0.0565194
0.812802 0.158206 0.064622
0.842756 0.164431 0.062974
0.869703 0.170108 0.0717632
0.879469 0.172305 0.0713817
0.879469 0.172305 0.0713817
0.879469 0.172305 0.0713817
0.879469 0.172305 0.0713817
0.879469 0.172305 0.0713817
0.879469 0.172305 0.0713817
0.879469 0.172305 0.0713817
0.879469 0.172305 0.0713817
0.879469 0.172305 0.0713817
0.879469 0.172305 0.0713817
0.879469 0.172305 0.0713817
0.879469 0.172305 0.0713817
0.879469 0.172305 0.0713817
0.0827039 0.0612497 0.057435
0.0827039 0.0612497 0.057435
0.0827039 0.0612497 0.057435
0.0827039 0.0612497 0.057435
0.0903639 0.0611734 0.0573587
0.0988785 0.0610666 0.0569314
0.117678 0.0661936 0.0602426
0.144366 0.0737621 0.0557107
0.199435 0.0814527 0.0527504
0.265415 0.0859236 0.0360571
0.355489 0.0944381 0.0321813
0.444984 0.105394 0.0359197
0.535454 0.120211 0.0429999
0.61178 0.129992 0.049424
0.671489 0.139757 0.0526894
0.726986 0.147143 0.0547646
0.771847 0.151369 0.0562295
0.811673 0.157992 0.064622
0.841886 0.164233 0.0628672
0.868971 0.169909 0.0715343
0.879469 0.172305 0.0713817
0.879469 0.172305 0.0713817
0.879469 0.172305 0.0713817
0.879469 0.172305 0.0713817
0.879469 0.172305 0.0713817
0.879469 0.172305 0.0713817
0.879469 0.172305 0.0713817
0.879469 0.172305 0.0713817
0.879469 0.172305 0.0713817
0.879469 0.172305 0.0713817
0.879469 0.172305 0.0713817
0.879469 0.172305 0.0713817
0.879469 0.172305 0.0713817
0.0830854 0.0699168 0.0574044
0.0830549 0.0687266 0.0573587
0.0830243 0.0675212 0.0573892
0.0829175 0.0663157 0.0574197
0.0860456 0.0650339 0.0573739
0.095552 0.0634928 0.057084
0.109773 0.0651713 0.0595254
0.135302 0.0715648 0.0570535
0.187045 0.0796826 0.0537118
0.254108 0.0851301 0.0402228
0.343053 0.0932784 0.0316472
0.436759 0.104097 0.0355993
0.528695 0.119142 0.0425574
0.607431 0.12958 0.0489204
0.66865 0.139254 0.052781
0.724697 0.146838 0.0546273
0.770336 0.151141 0.0559548
0.810559 0.157794 0.0646372
0.841001 0.164034 0.0627756
0.868223 0.169772 0.0714427
0.879469 0.172305 0.0713817
0.879469 0.172305 0.0713817
0.879469 0.172305 0.0713817
0.879469 0.172305 0.0713817
0.879469 0.172305 0.0713817
0.879469 0.172305 0.0713817
0.879469 0.172305 0.0713817
0.879469 0.172305 0.0713817
0.879469 0.172305 0.0713817
0.879469 0.172305 0.0713817
0.879469 0.172305 0.0713817
0.879469 0.172305 0.0713817
0.879469 0.172305 0.0713817
0.0832837 0.0807355 0.0571908
0.0833295 0.0790112 0.0572518
0.0833906 0.0772717 0.0573129
0.0833753 0.075761 0.0573587
0.0832685 0.0745708 0.0573892
0.0925917 0.0729839 0.0571298
0.103304 0.072755 0.0580606
0.127642 0.0787823 0.0582895
0.171252 0.0855573 0.0543374
0.239033 0.0892958 0.04448
0.328359 0.0933394 0.0303807
0.428489 0.102831 0.0352178
0.521859 0.117998 0.0420081
0.603052 0.129152 0.0485542
0.665751 0.138705 0.0529335
0.722377 0.146517 0.0544747
0.768765 0.150973 0.0556954
0.80943 0.15758 0.0645151
0.84007 0.163867 0.0627604
0.867475 0.169574 0.0711986
0.879469 0.172305 0.0713817
0.879469 0.172305 0.0713817
0.879469 0.172305 0.0713817
0.879469 0.172305 0.0713817
0.879469 0.172305 0.0713817
0.879469 0.172305 0.0713817
0.879469 0.172305 0.0713817
0.879469 0.172305 0.0713817
0.879469 0.172305 0.0713817
0.879469 0.172305 0.0713817
0.879469 0.172305 0.0713817
0.879469 0.172305 0.0713817
0.879469 0.172305 0.0713817
0.0800641 0.100633 0.0573892
0.0805219 0.0984054 0.0572824
0.0809949 0.0960555 0.0572671
0.0813916 0.0936141 0.0571603
0.0818647 0.09131 0.0570535
0.0883955 0.0887007 0.0566873
0.0974746 0.0856184 0.0567788
0.120836 0.088365 0.0603952
0.156542 0.0926375 0.0546578
0.223239 0.0959029 0.0480354
0.307164 0.0981308 0.0284428
0.415381 0.105104 0.0340276
0.514061 0.117266 0.0412604
0.59855 0.128664 0.0479896
0.662928 0.138247 0.0529641
0.720073 0.146212 0.0543221
0.767193 0.15082 0.0556954
0.808301 0.157366 0.0645151
0.8392 0.163668 0.0626535
0.866682 0.169436 0.071107
0.879469 0.172305 0.0713817
0.879469 0.172305 0.0713817
0.879469 0.172305 0.0713817
0.879469 0.172305 0.0713817
0.879469 0.172305 0.0713817
0.879469 0.172305 0.0713817
0.879469 0.172305 0.0713817
0.879469 0.172305 0.0713817
0.879469 0.172305 0.0713817
0.879469 0.172305 0.0713817
0.879469 0.172305 0.0713817
0.879469 0.172305 0.0713817
0.879469 0.172305 0.0713817
0.0825971 0.122087 0.0654154
0.0822919 0.120073 0.0647135
0.0819562 0.117968 0.0639353
0.0816663 0.115816 0.0631571
0.0813153 0.113588 0.0623026
0.0810407 0.111345 0.0615244
0.0918898 0.108354 0.0601511
0.11046 0.104906 0.0581369
0.147707 0.107271 0.0586099
0.206348 0.109087 0.050782
0.284428 0.106523 0.0294194
0.399191 0.110445 0.0328985
0.498543 0.122011 0.0387427
0.58967 0.130953 0.0464027
0.659388 0.137591 0.0527962
0.71725 0.14583 0.054139
0.765225 0.150607 0.0556344
0.806851 0.157107 0.0644083
0.838071 0.163409 0.0624704
0.865812 0.169223 0.0708934
0.879469 0.172305 0.0713817
0.879469 0.172305 0.0713817
0.879469 0.172305 0.0713817
0.879469 0.172305 0.0713817
0.879469 0.172305 0.0713817
0.879469 0.172305 0.0713817
0.879469 0.172305 0.0713817
0.879469 0.172305 0.0713817
0.879469 0.172305 0.0713817
0.879469 0.172305 0.0713817
0.879469 0.172305 0.0713817
0.879469 0.172305 0.0713817
0.879469 0.172305 0.0713817
0.0874495 0.153353 0.0742199
0.0869306 0.150195 0.07364
0.0863661 0.14699 0.0729229
0.0858778 0.144228 0.0722362
0.0854658 0.141512 0.0715343
0.0849928 0.138796 0.0708019
0.0885481 0.135897 0.0697948
0.101411 0.131304 0.0667277
0.131609 0.129641 0.0624399
0.19089 0.136446 0.0552987
0.272053 0.132052 0.0400244
0.380255 0.133913 0.0355077
0.490608 0.137362 0.0413519
0.57612 0.141207 0.044007
0.649653 0.142992 0.0513161
0.712947 0.146044 0.0536355
0.7626 0.150347 0.0556191
0.804685 0.156741 0.0638437
0.836637 0.163119 0.0624247
0.864515 0.168948 0.0705272
0.879469 0.172305 0.0713817
0.879469 0.172305 0.0713817
0.879469 0.172305 0.0713817
0.879469 0.172305 0.0713817
0.879469 0.172305 0.0713817
0.879469 0.172305 0.0713817
0.879469 0.172305 0.0713817
0.879469 0.172305 0.0713817
0.879469 0.172305 0.0713817
0.879469 0.172305 0.0713817
0.879469 0.172305 0.0713817
0.879469 0.172305 0.0713817
0.879469 0.172305 0.0713817
0.0968032 0.20322 0.0862593
0.0961471 0.200168 0.0854658
0.0955062 0.197101 0.0845808
0.0948196 0.193881 0.0836347
0.0941329 0.190616 0.0827497
0.0934615 0.187396 0.0819715
0.0927901 0.1841 0.0811627
0.0983139 0.180392 0.0798962
0.121859 0.1785 0.0776379
0.169345 0.176379 0.0656596
0.258305 0.178332 0.0517891
0.369009 0.17229 0.0434119
0.473243 0.16611 0.0439765
0.571359 0.165133 0.0460059
0.647196 0.163836 0.0519417
0.701076 0.15903 0.0517281
0.757046 0.155383 0.0546578
0.801846 0.156237 0.0631876
0.834653 0.162722 0.0626993
0.862837 0.168597 0.0697337
0.879469 0.172305 0.0713817
0.879469 0.172305 0.0713817
0.879469 0.172305 0.0713817
0.879469 0.172305 0.0713817
0.879469 0.172305 0.0713817
0.879469 0.172305 0.0713817
0.879469 0.172305 0.0713817
0.879469 0.172305 0.0713817
0.879469 0.172305 0.0713817
0.879469 0.172305 0.0713817
0.879469 0.172305 0.0713817
0.879469 0.172305 0.0713817
0.879469 0.172305 0.0713817
0.117159 0.286992 0.107301
0.116075 0.28426 0.106569
0.114992 0.28159 0.105638
0.113832 0.278721 0.104479
0.112688 0.275929 0.103441
0.11165 0.272984 0.102449
0.110887 0.269902 0.101686
0.109957 0.266102 0.100755
0.117968 0.258732 0.0980697
0.151888 0.258106 0.0944381
0.227176 0.248219 0.0668956
0.336858 0.235492 0.0514229
0.443107 0.217365 0.0525978
0.543511 0.203159 0.0523842
0.639246 0.197604 0.051606
0.702632 0.187304 0.0584726
0.749615 0.176883 0.0554055
0.794537 0.16791 0.0601205
0.830991 0.165698 0.0627146
0.860609 0.168124 0.0687877
0.879469 0.172305 0.0713817
0.879469 0.172305 0.0713817
0.879469 0.172305 0.0713817
0.879469 0.172305 0.0713817
0.879469 0.172305 0.0713817
0.879469 0.172305 0.0713817
0.879469 0.172305 0.0713817
0.879469 0.172305 0.0713817
0.879469 0.172305 0.0713817
0.879469 0.172305 0.0713817
0.879469 0.172305 0.0713817
0.879469 0.172305 0.0713817
0.879469 0.172305 0.0713817
0.144579 0.352209 0.127871
0.143771 0.350256 0.12723
0.142962 0.348272 0.126574
0.142123 0.346258 0.125933
0.141268 0.344228 0.125292
0.140383 0.342123 0.12459
0.139467 0.339879 0.123903
0.138323 0.337148 0.123033
0.136858 0.333532 0.12195
0.1458 0.323278 0.114488
0.188327 0.322316 0.105379
0.286656 0.316625 0.0636759
0.399451 0.299886 0.0574502
0.510201 0.275303 0.0644236
0.623865 0.258808 0.0683146
0.682704 0.233112 0.0601968
0.744244 0.209262 0.0620737
0.789349 0.198032 0.0623941
0.827512 0.185382 0.0639353
0.855756 0.1832 0.0643015
0.877806 0.17734 0.0702831
0.879469 0.172305 0.0713817
0.879469 0.172305 0.0713817
0.879469 0.172305 0.0713817
0.879469 0.172305 0.0713817
0.879469 0.172305 0.0713817
0.879469 0.172305 0.0713817
0.879469 0.172305 0.0713817
0.879469 0.172305 0.0713817
0.879469 0.172305 0.0713817
0.879469 0.172305 0.0713817
0.879469 0.172305 0.0713817
0.879469 0.172305 0.0713817
0.16759 0.410681 0.147219
0.166827 0.408774 0.146548
0.166064 0.406867 0.145892
0.165255 0.404929 0.145235
0.164446 0.402945 0.144518
0.163668 0.401038 0.143877
0.162829 0.399008 0.143175
0.161837 0.396643 0.142367
0.160876 0.394186 0.141573
0.162356 0.392844 0.141253
0.17319 0.383764 0.131197
0.235019 0.383566 0.105425
0.35523 0.382345 0.0705882
0.472007 0.362097 0.0727398
0.573632 0.33489 0.085359
0.663676 0.309255 0.0806744
0.732555 0.284062 0.0800488
0.783902 0.251026 0.073991
0.824918 0.229313 0.0704967
0.853056 0.209812 0.0693523
0.875044 0.20235 0.0699016
0.876738 0.196094 0.0703899
0.877989 0.188098 0.0716716
0.877409 0.179202 0.0700847
0.878889 0.173709 0.0709544
0.879469 0.172305 0.0713817
0.879469 0.172305 0.0713817
0.879469 0.172305 0.0713817
0.879469 0.172305 0.0713817
0.879469 0.172305 0.0713817
0.879469 0.172305 0.0713817
0.879469 0.172305 0.0713817
0.879469 0.172305 0.0713817
0.186526 0.461006 0.162829
0.186175 0.459998 0.162539
0.185809 0.459037 0.162234
0.185428 0.45803 0.161944
0.185061 0.457023 0.161608
0.18468 0.456016 0.161318
0.184283 0.454994 0.161028
0.183856 0.453773 0.160632
0.183261 0.45214 0.160174
0.182467 0.449989 0.159548
0.187671 0.449577 0.159564
0.204608 0.446097 0.145022
0.28809 0.446738 0.103731
0.414023 0.44152 0.0739757
0.53254 0.421988 0.0855726
0.628611 0.39585 0.103349
0.708614 0.372961 0.104723
0.76672 0.342412 0.106554
0.815595 0.306538 0.101976
0.852399 0.277623 0.0938125
0.87599 0.250309 0.0910964
0.879622 0.235874 0.0832532
0.878019 0.222034 0.0758221
0.876204 0.212421 0.0721904
0.875624 0.205295 0.0703899
0.875944 0.200351 0.0698253
0.876402 0.197757 0.0700694
0.87686 0.195636 0.0704204
0.877195 0.193637 0.0707713
0.87747 0.191699 0.0709697
0.877729 0.190036 0.0712902
0.877928 0.188678 0.0715953
0.878019 0.187625 0.0717174
0.205371 0.509728 0.174823
0.205066 0.508919 0.17467
0.204746 0.508049 0.174502
0.20444 0.507225 0.174304
0.204089 0.506355 0.174136
0.203769 0.505486 0.173983
0.203464 0.504662 0.173785
0.203067 0.503655 0.173571
0.202518 0.502235 0.173312
0.201877 0.500526 0.172946
0.200946 0.498161 0.172488
0.21149 0.498756 0.171481
0.232731 0.494835 0.149035
0.332937 0.494667 0.0952163
0.477989 0.497978 0.0835279
0.588815 0.478721 0.0947738
0.676219 0.457343 0.118654
0.748501 0.437491 0.128954
0.801892 0.405646 0.127428
0.843488 0.37145 0.121492
0.872312 0.340658 0.113939
0.882506 0.317922 0.108263
0.881865 0.299947 0.104219
0.881315 0.283391 0.100938
0.880903 0.269368 0.0982376
0.880674 0.259083 0.0954757
0.880415 0.25243 0.0921035
0.880171 0.24741 0.0894484
0.879973 0.243381 0.0872358
0.87982 0.240208 0.0856336
0.879728 0.237705 0.0843214
0.879622 0.235813 0.0832532
0.879515 0.23444 0.0825055
0.221286 0.553445 0.183169
0.221134 0.552895 0.183078
0.220935 0.552361 0.182971
0.220768 0.551766 0.182879
0.220584 0.551202 0.182788
0.220371 0.550546 0.182635
0.220188 0.549981 0.182544
0.219928 0.549187 0.182391
0.219593 0.548241 0.182239
0.219165 0.546944 0.181979
0.21857 0.545205 0.181628
0.217838 0.543038 0.181216
0.235203 0.546471 0.176059
0.266987 0.538293 0.14052
0.3991 0.550759 0.0914931
0.544549 0.550347 0.0963302
0.636728 0.534234 0.0999924
0.713756 0.515511 0.130373
0.783062 0.496941 0.143359
0.829877 0.46865 0.146136
0.867155 0.442634 0.143664
0.886122 0.421515 0.141131
0.885878 0.406409 0.136889
0.885664 0.392477 0.132769
0.88542 0.380041 0.129137
0.885191 0.369482 0.126162
0.885008 0.360784 0.123705
0.884825 0.353765 0.121752
0.884428 0.347707 0.120012
0.884031 0.342977 0.117998
0.883696 0.339223 0.116014
0.883467 0.336416 0.114672
0.883299 0.33431 0.113603
0.234424 0.592737 0.190982
0.234287 0.592355 0.190875
0.23415 0.591913 0.190814
0.234012 0.591516 0.190692
0.233875 0.591119 0.19057
0.233738 0.590677 0.190509
0.2336 0.59028 0.190387
0.233402 0.589761 0.190265
0.233204 0.58912 0.190097
0.232883 0.58822 0.189914
0.232486 0.58706 0.189609
0.231983 0.58555 0.189242
0.231281 0.583474 0.188846
0.25272 0.580087 0.178851
0.320027 0.582345 0.123796
0.464347 0.59324 0.0930953
0.604501 0.596445 0.108919
0.68101 0.58407 0.118349
0.757565 0.572824 0.146258
0.815015 0.549859 0.159854
0.855787 0.528572 0.163653
0.887953 0.510781 0.166125
0.887694 0.498894 0.163272
0.886946 0.488579 0.160555
0.887037 0.479606 0.158236
0.887037 0.472068 0.156283
0.886931 0.465782 0.154284
0.886839 0.460609 0.152667
0.886793 0.456657 0.151492
0.886717 0.453529 0.150576
0.886671 0.451102 0.149798
0.886656 0.449226 0.149294
0.886625 0.447868 0.148882
0.243977 0.621332 0.197452
0.24387 0.621027 0.197391
0.243748 0.620706 0.19733
0.243641 0.620386 0.197269
0.243519 0.620066 0.197208
0.243397 0.619745 0.197101
0.24329 0.61944 0.19704
0.243137 0.619013 0.196979
0.242939 0.618494 0.196857
0.242695 0.617807 0.196735
0.242344 0.616861 0.196506
0.241932 0.615656 0.196262
0.241337 0.613947 0.195819
0.244114 0.611383 0.194965
0.276097 0.6159 0.173632
0.381598 0.622522 0.116472
0.529366 0.632914 0.112673
0.64268 0.636835 0.124727
0.721706 0.629206 0.134447
0.783001 0.613001 0.153536
0.840223 0.598596 0.168872
0.87689 0.584298 0.175082
0.889662 0.574151 0.177203
0.889555 0.566766 0.176761
0.889433 0.560372 0.176257
0.889387 0.554879 0.175479
0.889296 0.5505 0.174823
0.889235 0.546899 0.174243
0.88925 0.544076 0.173724
0.88925 0.541863 0.173251
0.88925 0.540139 0.172839
0.88922 0.538918 0.172549
0.88922 0.537896 0.172335
0.255665 0.651591 0.201907
0.255558 0.651286 0.201846
0.255451 0.65098 0.201785
0.255329 0.650614 0.201724
0.255222 0.650309 0.201663
0.255085 0.649989 0.201648
0.254978 0.649683 0.201587
0.254856 0.649302 0.201526
0.254658 0.648798 0.201465
0.254398 0.648112 0.201343
0.254047 0.647242 0.201236
0.253605 0.646128 0.201053
0.25304 0.644694 0.20087
0.252323 0.642878 0.20058
0.266163 0.640513 0.199313
0.314839 0.648966 0.155901
0.453254 0.662913 0.12488
0.588434 0.677058 0.132021
0.687785 0.677455 0.142321
0.761746 0.671305 0.151247
0.814466 0.661112 0.16408
0.862211 0.648737 0.177996
0.890791 0.63856 0.184131
0.890303 0.632349 0.182895
0.88983 0.626917 0.18175
0.889662 0.622599 0.181003
0.889784 0.619181 0.180682
0.889906 0.61648 0.180392
0.889967 0.614389 0.180148
0.890028 0.612726 0.17998
0.890089 0.61146 0.179858
0.890105 0.610498 0.179751
0.89015 0.609796 0.17969
0.266224 0.683467 0.212253
0.266148 0.683177 0.212177
0.266041 0.682857 0.212039
0.265965 0.682597 0.211963
0.265873 0.682292 0.211826
0.265782 0.681987 0.211749
0.265675 0.681682 0.211612
0.265553 0.681315 0.21149
0.2654 0.680812 0.211337
0.265217 0.680186 0.211124
0.264942 0.679332 0.210803
0.264607 0.678248 0.210452
0.264103 0.676707 0.209918
0.263386 0.674586 0.20911
0.262501 0.671931 0.208057
0.289403 0.672312 0.198764
0.375753 0.680034 0.139483
0.514794 0.6963 0.132998
0.640787 0.707134 0.146914
0.729198 0.710338 0.153429
0.796201 0.709163 0.164004
0.842115 0.702022 0.174517
0.878752 0.692088 0.186252
0.889342 0.685466 0.189303
0.889281 0.681514 0.189151
0.889387 0.678096 0.189044
0.889448 0.675258 0.188876
0.889494 0.673045 0.18883
0.889555 0.671275 0.188724
0.88957 0.669947 0.188663
0.889616 0.668879 0.188602
0.889616 0.66807 0.188602
0.889632 0.667491 0.188556
0.273915 0.707912 0.216236
0.273838 0.707668 0.216236
0.273762 0.707424 0.216175
0.273671 0.707179 0.216175
0.27361 0.706935 0.216175
0.273518 0.706691 0.216114
0.273442 0.706432 0.216114
0.273335 0.706127 0.216114
0.273213 0.70576 0.216052
0.27306 0.705211 0.216052
0.272831 0.704524 0.215991
0.272526 0.703609 0.21593
0.272175 0.702495 0.215808
0.271717 0.701091 0.215686
0.271214 0.699413 0.215625
0.280507 0.695781 0.214908
0.330587 0.701671 0.169955
0.458824 0.716136 0.139818
0.595392 0.734722 0.150347
0.694926 0.739147 0.160693
0.771298 0.744549 0.169116
0.825589 0.742382 0.177249
0.863401 0.735225 0.184344
0.889647 0.728298 0.19147
0.889693 0.724971 0.19118
0.889754 0.722194 0.190906
0.889769 0.719936 0.190692
0.889815 0.71812 0.19057
0.889754 0.716686 0.190494
0.889754 0.715557 0.190433
0.889754 0.714687 0.190417
0.889738 0.714046 0.190356
0.889708 0.713558 0.190356
0.281697 0.729885 0.215351
0.281575 0.729641 0.215427
0.281483 0.729442 0.215503
0.281376 0.729213 0.215579
0.281254 0.728969 0.215656
0.281147 0.728725 0.215732
0.281041 0.728481 0.215808
0.280903 0.728222 0.2159
0.28072 0.727855 0.216037
0.280491 0.727352 0.216205
0.280171 0.72668 0.216434
0.279805 0.725826 0.216663
0.279438 0.724773 0.216739
0.27892 0.723369 0.21677
0.278355 0.721706 0.216846
0.277653 0.719676 0.216892
0.307881 0.718685 0.205005
0.40943 0.733455 0.149554
0.544701 0.74963 0.151522
0.658152 0.762585 0.164446
0.738247 0.768841 0.175235
0.806226 0.772198 0.183291
0.847562 0.771695 0.190799
0.879133 0.766217 0.196124
0.890166 0.762615 0.197101
0.890349 0.760159 0.196582
0.890486 0.75816 0.196139
0.890593 0.756542 0.195819
0.890654 0.755291 0.195682
0.8907 0.754284 0.195529
0.890715 0.753491 0.195453
0.890761 0.752926 0.195377
0.890761 0.752483 0.195315
0.292454 0.75198 0.207126
0.292378 0.751797 0.207202
0.292256 0.751553 0.207279
0.292165 0.751354 0.207355
0.292042 0.751125 0.207431
0.291951 0.750881 0.207507
0.291844 0.750698 0.207584
0.291722 0.750439 0.20766
0.291554 0.750088 0.207752
0.29131 0.749599 0.207919
0.29102 0.748989 0.208133
0.290639 0.748196 0.208438
0.29015 0.747173 0.208743
0.28957 0.745876 0.209186
0.288548 0.743862 0.209995
0.287205 0.741161 0.211048
0.299153 0.734524 0.213474
0.366812 0.745388 0.163897
0.50277 0.763378 0.155932
0.622049 0.77908 0.164935
0.70901 0.787396 0.177279
0.778393 0.793942 0.187762
0.831907 0.797864 0.193988
0.868025 0.796933 0.200046
0.891997 0.79173 0.205264
0.891691 0.789441 0.204623
0.891447 0.787549 0.20412
0.891264 0.786084 0.203693
0.891096 0.784878 0.203403
0.890959 0.783993 0.203128
0.890867 0.783291 0.202976
0.890837 0.782788 0.202838
0.890761 0.782406 0.202701
0.299321 0.759594 0.202991
0.299321 0.759594 0.202991
0.299321 0.759594 0.202991
0.299321 0.759594 0.202991
0.299321 0.759594 0.202991
0.299321 0.759594 0.202991
0.299321 0.759594 0.202991
0.299321 0.759594 0.202991
0.299321 0.759594 0.202991
0.299321 0.759594 0.202991
0.299321 0.759594 0.202991
0.299321 0.759594 0.202991
0.299321 0.759594 0.202991
0.299321 0.759594 0.202991
0.299321 0.759594 0.202991
0.297719 0.758007 0.203983
0.295796 0.756115 0.205066
0.353185 0.756268 0.181979
0.474693 0.777783 0.161654
0.600107 0.794797 0.17145
0.686351 0.802853 0.181018
0.755123 0.80882 0.189425
0.812863 0.814435 0.198825
0.853758 0.818555 0.203586
0.885069 0.817426 0.208057
0.895201 0.814618 0.21033
0.894957 0.812833 0.209979
0.89482 0.811383 0.209689
0.894682 0.810269 0.209522
0.894606 0.809415 0.209354
0.894514 0.808759 0.209232
0.894469 0.808225 0.209125
0.894438 0.807889 0.209064
0.299321 0.759594 0.202991
0.299321 0.759594 0.202991
0.299321 0.759594 0.202991
0.299321 0.759594 0.202991
0.299321 0.759594 0.202991
0.299321 0.759594 0.202991
0.299321 0.759594 0.202991
0.299321 0.759594 0.202991
0.299321 0.759594 0.202991
0.299321 0.759594 0.202991
0.299321 0.759594 0.202991
0.299321 0.759594 0.202991
0.299321 0.759594 0.202991
0.299321 0.759594 0.202991
0.299321 0.759594 0.202991
0.299321 0.759594 0.202991
0.299321 0.759594 0.202991
0.335088 0.758953 0.200427
0.450584 0.779629 0.16495
0.572686 0.802411 0.170703
0.668986 0.816342 0.184192
0.738766 0.821683 0.192813
0.800015 0.827695 0.202792
0.842435 0.832242 0.209995
0.875257 0.835218 0.213352
0.898161 0.834485 0.216297
0.897887 0.832761 0.215564
0.897658 0.831403 0.214984
0.897414 0.830274 0.214557
0.897215 0.829419 0.214298
0.897063 0.828763 0.214038
0.896941 0.828244 0.213916
0.896849 0.827848 0.213794
0.299321 0.759594 0.202991
0.299321 0.759594 0.202991
0.299321 0.759594 0.202991
0.299321 0.759594 0.202991
0.299321 0.759594 0.202991
0.299321 0.759594 0.202991
0.299321 0.759594 0.202991
0.299321 0.759594 0.202991
0.299321 0.759594 0.202991
0.299321 0.759594 0.202991
0.299321 0.759594 0.202991
0.299321 0.759594 0.202991
0.299321 0.759594 0.202991
0.299321 0.759594 0.202991
0.299321 0.759594 0.202991
0.299321 0.759594 0.202991
0.299321 0.759594 0.202991
0.321706 0.759579 0.202701
0.423606 0.77586 0.165393
0.547631 0.798184 0.168002
0.653361 0.814832 0.182452
0.724269 0.823468 0.192172
0.785657 0.83151 0.202396
0.830945 0.838346 0.211307
0.864958 0.843763 0.21706
0.891539 0.847913 0.220768
0.899153 0.847654 0.221286
0.899168 0.84654 0.220844
0.899138 0.845609 0.220523
0.899123 0.844862 0.220233
0.899107 0.844343 0.220066
0.899046 0.843915 0.219913
0.899031 0.843595 0.219776
0.299321 0.759594 0.202991
0.299321 0.759594 0.202991
0.299321 0.759594 0.202991
0.299321 0.759594 0.202991
0.299321 0.759594 0.202991
0.299321 0.759594 0.202991
0.299321 0.759594 0.202991
0.299321 0.759594 0.202991
0.299321 0.759594 0.202991
0.299321 0.759594 0.202991
0.299321 0.759594 0.202991
0.299321 0.759594 0.202991
0.299321 0.759594 0.202991
0.299321 0.759594 0.202991
0.299321 0.759594 0.202991
0.299321 0.759594 0.202991
