assets/luts/RicePaddyFilm.cube
TITLE "Generated by Resolve"
LUT_3D_SIZE 5
0.0827039 0.0612497 0.057435
0.236088 0.084062 0.0455329
0.776272 0.15198 0.0570993
0.879469 0.172305 0.0713817
0.879469 0.172305 0.0713817
0.0874495 0.153353 0.0742199
0.131609 0.129641 0.0624399
0.7626 0.150347 0.0556191
0.879469 0.172305 0.0713817
0.879469 0.172305 0.0713817
0.234424 0.592737 0.190982
0.233204 0.58912 0.190097
0.604501 0.596445 0.108919
0.887037 0.479606 0.158236
0.886625 0.447868 0.148882
0.299321 0.759594 0.202991
0.299321 0.759594 0.202991
0.299321 0.759594 0.202991
0.875257 0.835218 0.213352
0.896849 0.827848 0.213794
0.299321 0.759594 0.202991
0.299321 0.759594 0.202991
0.299321 0.759594 0.202991
0.832395 0.838575 0.211597
0.899214 0.848951 0.221897
0.0940566 0.0742657 0.1449
0.223102 0.0775464 0.132494
0.772763 0.15256 0.101595
0.878492 0.172824 0.105348
0.87924 0.172686 0.0973373
0.092607 0.134585 0.122179
0.120668 0.117708 0.117189
0.757107 0.150805 0.0892958
0.879271 0.17258 0.0892042
0.879393 0.172473 0.0810407
0.233448 0.589837 0.190265
0.232197 0.58616 0.189425
0.601251 0.59234 0.1066
0.887022 0.471748 0.156161
0.886473 0.439124 0.146288
0.299321 0.759594 0.202991
0.299321 0.759594 0.202991
0.299321 0.759594 0.202991
0.872801 0.833036 0.2121
0.89633 0.825544 0.213077
0.299321 0.759594 0.202991
0.299321 0.759594 0.202991
0.299321 0.759594 0.202991
0.830076 0.838193 0.211139
0.899214 0.848951 0.221897
0.224277 0.222522 0.631495
0.224857 0.228397 0.639811
0.761868 0.201205 0.552392
0.88719 0.221744 0.506157
0.887098 0.220829 0.502678
0.220218 0.220691 0.626093
0.220386 0.219547 0.626291
0.748669 0.19794 0.55021
0.887053 0.219974 0.49926
0.886976 0.219104 0.495781
0.301701 0.62359 0.597604
0.300725 0.619821 0.599359
0.629191 0.592798 0.560647
0.883574 0.435065 0.45745
0.885328 0.397299 0.454154
0.348562 0.780468 0.410864
0.348424 0.780285 0.409232
0.347021 0.778851 0.400458
0.873503 0.819074 0.321324
0.896666 0.808545 0.311223
0.342245 0.774441 0.376944
0.341833 0.774075 0.375036
0.339849 0.772274 0.365438
0.834913 0.838926 0.295216
0.898482 0.842939 0.29604
0.347204 0.441138 0.821973
0.347112 0.440604 0.821653
0.722576 0.415641 0.781903
0.896635 0.421195 0.774975
0.896605 0.419257 0.77377
0.346731 0.437964 0.820081
0.346654 0.43743 0.819776
0.703761 0.414008 0.780911
0.896529 0.417288 0.772503
0.896498 0.415351 0.771282
0.41529 0.658106 0.847211
0.413016 0.65182 0.845838
0.577722 0.599771 0.808454
0.883452 0.460014 0.755734
0.883879 0.44358 0.75079
0.48043 0.85008 0.819852
0.478431 0.848554 0.820127
0.467369 0.840024 0.82182
0.859648 0.817884 0.800885
0.896895 0.80766 0.79559
0.478706 0.849714 0.810803
0.478492 0.849577 0.810407
0.477211 0.848798 0.808225
0.83563 0.85536 0.794476
0.896986 0.854566 0.788006
0.347677 0.44445 0.823957
0.347677 0.44445 0.823957
0.714855 0.424567 0.78674
0.897215 0.43592 0.78378
0.897215 0.43592 0.78378
0.347677 0.44445 0.823957
0.347677 0.44445 0.823957
0.697093 0.427436 0.787915
0.897215 0.43592 0.78378
0.897215 0.43592 0.78378
0.416495 0.65008 0.853361
0.413855 0.642725 0.852247
0.567132 0.596689 0.822171
0.886 0.482551 0.779934
0.889296 0.47155 0.779767
0.508186 0.858656 0.861173
0.506432 0.857069 0.861433
0.497002 0.848005 0.862196
0.859174 0.824887 0.846082
0.896056 0.812421 0.843305
0.516976 0.865171 0.860014
0.516976 0.865171 0.860014
0.516976 0.865171 0.860014
0.840665 0.866529 0.852445
0.899504 0.864775 0.852155
