assets/luts/snow_portrait.cube
TITLE "Generated by Resolve"
LUT_3D_SIZE 5
0.0433204 0.037995 0.0383917
0.376059 0.110033 0.0660868
0.898909 0.197436 0.0948348
1 0.206729 0.104814
1 0.206729 0.104814
0.0465705 0.24062 0.0478218
0.165515 0.19324 0.0136263
0.889708 0.19704 0.0931868
1 0.206729 0.104814
1 0.206729 0.104814
0.105791 0.734325 0.133227
0.105409 0.727779 0.132906
0.765255 0.789227 0.207126
0.978027 0.639612 0.168322
0.974685 0.603082 0.158511
0.105226 0.934371 0.152224
0.105226 0.934371 0.152224
0.105226 0.934371 0.152224
0.976791 0.993591 0.22475
0.991775 0.987243 0.224552
0.105226 0.934371 0.152224
0.105226 0.934371 0.152224
0.105226 0.934371 0.152224
0.950149 1 0.225162
0.991012 1 0.225971
0.0271763 0.054902 0.24358
0.374868 0.122408 0.299672
0.917296 0.198581 0.226337
1 0.198077 0.180285
1 0.196658 0.162615
0.0642252 0.241535 0.251469
0.143481 0.174899 0.204807
0.897475 0.193225 0.18999
1 0.201511 0.146181
1 0.205554 0.134524
0.105455 0.728969 0.132967
0.105241 0.723156 0.132631
0.761303 0.784146 0.205676
0.976608 0.630472 0.166247
0.974441 0.593118 0.155612
0.105226 0.934371 0.152224
0.105226 0.934371 0.152224
0.105226 0.934371 0.152224
0.975555 0.991943 0.224598
0.991852 0.985565 0.224414
0.105226 0.934371 0.152224
0.105226 0.934371 0.152224
0.105226 0.934371 0.152224
0.94873 1 0.225132
0.991012 1 0.225971
0.0921645 0.219913 0.852689
0.219852 0.219486 0.854994
0.938262 0.285191 0.890471
1 0.293462 0.890669
1 0.293416 0.887556
0.0894942 0.225193 0.84802
0.0887007 0.217487 0.84654
0.923659 0.285801 0.885283
1 0.29337 0.884428
1 0.293645 0.881437
0.243168 0.806256 0.88159
0.242542 0.800427 0.880812
0.671183 0.762081 0.860365
1 0.587686 0.751171
1 0.543893 0.732219
0.212451 0.990662 0.770596
0.211749 0.990158 0.768566
0.208148 0.987762 0.758328
0.969329 0.993408 0.662776
0.992401 0.981994 0.653788
0.198718 0.982727 0.73341
0.197955 0.982345 0.731441
0.194217 0.97998 0.718776
0.942199 0.998795 0.611078
0.991852 0.996963 0.595972
0.155306 0.275593 1
0.155291 0.275563 1
0.910765 0.309285 1
1 0.32047 1
1 0.320439 1
0.155215 0.275486 1
0.1552 0.275456 1
0.894469 0.306447 1
1 0.320424 1
1 0.320409 1
0.261189 0.768582 1
0.260365 0.761212 1
0.593744 0.685924 1
1 0.538033 1
1 0.498146 1
0.266377 1 1
0.266468 1 1
0.266896 1 1
0.954009 1 1
0.990982 0.999313 1
0.266285 1 1
0.266285 1 1
0.2663 1 1
0.923919 1 1
0.988632 1 1
0.155398 0.2757 1
0.155398 0.2757 1
0.903304 0.307897 1
1 0.320607 1
1 0.320607 1
0.155398 0.2757 1
0.155398 0.2757 1
0.885573 0.305577 1
1 0.320607 1
1 0.320607 1
0.257954 0.748577 1
0.255573 0.738567 1
0.56556 0.655299 1
1 0.505379 1
1 0.470192 1
0.266316 1 1
0.266407 1 1
0.266835 1 1
0.949706 1 1
0.991028 0.993698 1
0.265965 1 1
0.265965 1 1
0.265965 1 1
0.918822 1 1
0.988266 1 1
