assets/luts/snow_portrait.cube
TITLE "Generated by Resolve"
LUT_3D_SIZE 33
0.0433204 0.037995 0.0383917
0.0433204 0.037995 0.0383917
0.0433204 0.037995 0.0383917
0.0752575 0.0376287 0.038117
0.12253 0.0366674 0.0372625
0.174456 0.0455329 0.0409552
0.231968 0.063447 0.0477607
0.295048 0.0855268 0.0560616
0.376059 0.110033 0.0660868
0.46154 0.133928 0.0716411
0.546899 0.148058 0.0746471
0.620203 0.159289 0.0757
0.689296 0.170871 0.0759899
0.759518 0.18172 0.0841077
0.817456 0.190097 0.0893568
0.874723 0.198474 0.089662
0.898909 0.197436 0.0948348
0.936706 0.200397 0.098024
0.973037 0.203235 0.101061
1 0.205844 0.103868
1 0.206729 0.104814
1 0.206729 0.104814
1 0.206729 0.104814
1 0.206729 0.104814
1 0.206729 0.104814
1 0.206729 0.104814
1 0.206729 0.104814
1 0.206729 0.104814
1 0.206729 0.104814
1 0.206729 0.104814
1 0.206729 0.104814
1 0.206729 0.104814
1 0.206729 0.104814
0.0433204 0.037995 0.0383917
0.0433204 0.037995 0.0383917
0.0433204 0.037995 0.0383917
0.0584115 0.0380713 0.0384985
0.107485 0.0361944 0.0367437
0.154879 0.0402533 0.0388495
0.207019 0.055375 0.0447089
0.277485 0.0793317 0.0536965
0.358801 0.104875 0.0641489
0.446891 0.131731 0.0710613
0.537697 0.146014 0.0743267
0.61355 0.158404 0.0757
0.683742 0.169863 0.0751965
0.755962 0.181353 0.0839399
0.814481 0.189517 0.0892653
0.872892 0.198474 0.0896468
0.897551 0.19733 0.094728
0.935515 0.200305 0.0979324
0.971984 0.203143 0.100969
1 0.205783 0.103792
1 0.206729 0.104814
1 0.206729 0.104814
1 0.206729 0.104814
1 0.206729 0.104814
1 0.206729 0.104814
1 0.206729 0.104814
1 0.206729 0.104814
1 0.206729 0.104814
1 0.206729 0.104814
1 0.206729 0.104814
1 0.206729 0.104814
1 0.206729 0.104814
1 0.206729 0.104814
0.0433204 0.037995 0.0383917
0.0433204 0.037995 0.0383917
0.0433204 0.037995 0.0383917
0.0435645 0.0380102 0.0383917
0.0906081 0.0363622 0.0368658
0.13257 0.0373541 0.0377508
0.186099 0.0492103 0.0425727
0.258289 0.072343 0.0509499
0.340017 0.0993515 0.0618296
0.431647 0.127672 0.0701762
0.528115 0.143832 0.0739452
0.606516 0.157565 0.0756847
0.67805 0.168826 0.0744335
0.752346 0.180987 0.0837415
0.811688 0.189059 0.0889143
0.871046 0.198474 0.0896468
0.896178 0.197223 0.0946059
0.93431 0.200214 0.0978256
0.970916 0.203067 0.100893
1 0.205707 0.103716
1 0.206729 0.104814
1 0.206729 0.104814
1 0.206729 0.104814
1 0.206729 0.104814
1 0.206729 0.104814
1 0.206729 0.104814
1 0.206729 0.104814
1 0.206729 0.104814
1 0.206729 0.104814
1 0.206729 0.104814
1 0.206729 0.104814
1 0.206729 0.104814
1 0.206729 0.104814
0.0433204 0.037995 0.0383917
0.0433204 0.037995 0.0383917
0.0433204 0.037995 0.0383917
0.0433204 0.037995 0.0383917
0.0690166 0.0378882 0.0383459
0.117372 0.0364538 0.0370336
0.167834 0.0433967 0.0401007
0.236881 0.0650645 0.0483253
0.319829 0.0933852 0.0592355
0.416144 0.122621 0.0691081
0.517723 0.141695 0.0735332
0.599298 0.15671 0.0756542
0.672602 0.16788 0.0743725
0.748669 0.180621 0.0835431
0.808865 0.188602 0.0885634
0.869154 0.198489 0.0896468
0.894789 0.197116 0.0944991
0.933089 0.200122 0.097734
0.969818 0.202976 0.100801
1 0.205631 0.103624
1 0.206729 0.104814
1 0.206729 0.104814
1 0.206729 0.104814
1 0.206729 0.104814
1 0.206729 0.104814
1 0.206729 0.104814
1 0.206729 0.104814
1 0.206729 0.104814
1 0.206729 0.104814
1 0.206729 0.104814
1 0.206729 0.104814
1 0.206729 0.104814
1 0.206729 0.104814
0.0383001 0.0695201 0.0352941
0.0406043 0.0641031 0.0373236
0.041474 0.0594186 0.0379339
0.0420233 0.0549783 0.0382239
0.0519112 0.0509041 0.0386358
0.101518 0.0453498 0.0373999
0.147051 0.0442206 0.0391852
0.211276 0.0565957 0.0450752
0.299001 0.0869001 0.0565805
0.40087 0.117769 0.0680552
0.506157 0.139681 0.0730449
0.591806 0.155825 0.0756847
0.667018 0.166918 0.0742809
0.744884 0.18024 0.0833295
0.805966 0.188128 0.0881971
0.867231 0.198489 0.0896468
0.89337 0.196994 0.094377
0.931853 0.200015 0.0976272
0.968704 0.202899 0.10071
1 0.205554 0.103548
1 0.206729 0.104814
1 0.206729 0.104814
1 0.206729 0.104814
1 0.206729 0.104814
1 0.206729 0.104814
1 0.206729 0.104814
1 0.206729 0.104814
1 0.206729 0.104814
1 0.206729 0.104814
1 0.206729 0.104814
1 0.206729 0.104814
1 0.206729 0.104814
1 0.206729 0.104814
0.0406348 0.107637 0.0384833
0.0422217 0.105531 0.0407416
0.0424353 0.101762 0.0409705
0.0419165 0.0970626 0.0401923
0.0411231 0.0918593 0.0391241
0.079942 0.0889448 0.0406195
0.127108 0.0844892 0.0408484
0.188861 0.0902113 0.0454566
0.275761 0.105531 0.0538796
0.38146 0.127825 0.066804
0.491997 0.142336 0.0726177
0.584161 0.15491 0.0756847
0.661463 0.165988 0.0744182
0.740856 0.179767 0.0830091
0.803052 0.187655 0.0878614
0.865293 0.198489 0.0896468
0.891936 0.196887 0.094255
0.930602 0.199924 0.0975204
0.96759 0.202808 0.100603
1 0.205478 0.103471
1 0.206729 0.104814
1 0.206729 0.104814
1 0.206729 0.104814
1 0.206729 0.104814
1 0.206729 0.104814
1 0.206729 0.104814
1 0.206729 0.104814
1 0.206729 0.104814
1 0.206729 0.104814
1 0.206729 0.104814
1 0.206729 0.104814
1 0.206729 0.104814
1 0.206729 0.104814
0.0280156 0.127062 0
0.0268101 0.121324 0
0.0255131 0.115267 0
0.024155 0.108141 0
0.0227207 0.100435 0
0.0450599 0.101762 0.00154116
0.0989853 0.102647 0.0184939
0.15906 0.107851 0.0322881
0.234699 0.124086 0.0433356
0.327077 0.144396 0.0535439
0.44181 0.167437 0.0639048
0.565194 0.172244 0.0732586
0.655299 0.167422 0.0745251
0.736812 0.179294 0.0827039
0.800122 0.187182 0.087541
0.863157 0.198352 0.0896315
0.890517 0.196765 0.0941329
0.929351 0.199817 0.0974136
0.966491 0.202716 0.100511
1 0.205402 0.10338
1 0.206729 0.104814
1 0.206729 0.104814
1 0.206729 0.104814
1 0.206729 0.104814
1 0.206729 0.104814
1 0.206729 0.104814
1 0.206729 0.104814
1 0.206729 0.104814
1 0.206729 0.104814
1 0.206729 0.104814
1 0.206729 0.104814
1 0.206729 0.104814
1 0.206729 0.104814
0.0390326 0.178546 0.00982681
0.037995 0.173465 0.00732433
0.0369116 0.168215 0.00474556
0.0357824 0.162799 0.0021973
0.0345922 0.157153 0
0.0336309 0.151415 0
0.0753185 0.143359 0
0.124712 0.13431 0
0.191592 0.137377 0.00985733
0.26804 0.151369 0.0239719
0.38941 0.174609 0.0365911
0.515587 0.195712 0.0548562
0.618372 0.198337 0.0661326
0.724529 0.192798 0.0789654
0.796521 0.186587 0.0871443
0.860441 0.198123 0.0896162
0.889555 0.19678 0.093843
0.92784 0.19971 0.0972915
0.965133 0.202609 0.100404
0.999802 0.205295 0.103288
1 0.206729 0.104814
1 0.206729 0.104814
1 0.206729 0.104814
1 0.206729 0.104814
1 0.206729 0.104814
1 0.206729 0.104814
1 0.206729 0.104814
1 0.206729 0.104814
1 0.206729 0.104814
1 0.206729 0.104814
1 0.206729 0.104814
1 0.206729 0.104814
1 0.206729 0.104814
0.0465705 0.24062 0.0478218
0.0464485 0.236622 0.0463722
0.0463417 0.232532 0.0449073
0.046067 0.228595 0.0433967
0.0456855 0.22475 0.0418708
0.0452888 0.220798 0.0402991
0.0589456 0.215702 0.037171
0.11284 0.199741 0.0218967
0.165515 0.19324 0.0136263
0.261143 0.202869 0.0385138
0.354238 0.211933 0.0416419
0.46305 0.221836 0.0438239
0.578927 0.226429 0.045243
0.69102 0.223987 0.0487831
0.769863 0.218952 0.073579
0.855512 0.200916 0.0891737
0.889708 0.19704 0.0931868
0.925811 0.199542 0.0971084
0.963333 0.202472 0.100252
0.998184 0.205173 0.103151
1 0.206729 0.104814
1 0.206729 0.104814
1 0.206729 0.104814
1 0.206729 0.104814
1 0.206729 0.104814
1 0.206729 0.104814
1 0.206729 0.104814
1 0.206729 0.104814
1 0.206729 0.104814
1 0.206729 0.104814
1 0.206729 0.104814
1 0.206729 0.104814
1 0.206729 0.104814
0.0471962 0.297505 0.0637675
0.0470741 0.29482 0.0629587
0.0469368 0.292058 0.0621347
0.0467994 0.289235 0.0612802
0.0467689 0.285985 0.0604105
0.0467536 0.282658 0.0595254
0.0467384 0.279301 0.0586252
0.0762798 0.27303 0.0559701
0.141543 0.263539 0.0489204
0.217151 0.262959 0.0437171
0.35996 0.283223 0.0633402
0.443046 0.275502 0.0617533
0.534325 0.272831 0.0565042
0.646662 0.265126 0.049485
0.752026 0.260227 0.0541238
0.820584 0.240757 0.057084
0.8878 0.225528 0.0801709
0.92311 0.199329 0.0968948
0.960937 0.202289 0.100053
0.996033 0.205005 0.102968
1 0.206729 0.104814
1 0.206729 0.104814
1 0.206729 0.104814
1 0.206729 0.104814
1 0.206729 0.104814
1 0.206729 0.104814
1 0.206729 0.104814
1 0.206729 0.104814
1 0.206729 0.104814
1 0.206729 0.104814
1 0.206729 0.104814
1 0.206729 0.104814
1 0.206729 0.104814
0.0513008 0.350912 0.0803693
0.051194 0.34847 0.0798047
0.0510872 0.345968 0.0792248
0.0509804 0.343435 0.078645
0.0508736 0.340825 0.0780346
0.0507668 0.338247 0.0774548
0.0507515 0.336645 0.0771649
0.050721 0.334691 0.0768139
0.10695 0.325856 0.0710002
0.168261 0.317098 0.064332
0.284825 0.337514 0.0714733
0.439017 0.364767 0.0928359
0.517159 0.339361 0.0859388
0.608042 0.327291 0.0741588
0.71136 0.311391 0.0652628
0.803006 0.295109 0.059205
0.86949 0.279377 0.062211
0.89836 0.249928 0.0666819
0.952377 0.219486 0.0941939
0.99321 0.204791 0.102739
1 0.206729 0.104814
1 0.206729 0.104814
1 0.206729 0.104814
1 0.206729 0.104814
1 0.206729 0.104814
1 0.206729 0.104814
1 0.206729 0.104814
1 0.206729 0.104814
1 0.206729 0.104814
1 0.206729 0.104814
1 0.206729 0.104814
1 0.206729 0.104814
1 0.206729 0.104814
0.056199 0.413062 0.0934462
0.055787 0.410956 0.0930495
0.0553597 0.408835 0.0926528
0.0549477 0.406683 0.092256
0.054551 0.404517 0.0918593
0.054139 0.40235 0.0914626
0.0537423 0.400168 0.0910658
0.0532387 0.397498 0.0905776
0.0525673 0.393942 0.0899214
0.13637 0.384329 0.0829938
0.197894 0.370123 0.0696117
0.365133 0.415625 0.0922255
0.52398 0.440162 0.120211
0.592981 0.405158 0.106905
0.678706 0.373739 0.0852216
0.774517 0.355337 0.0764782
0.845884 0.331838 0.0662089
0.898253 0.316258 0.0662699
0.928557 0.293553 0.0659495
0.966628 0.265049 0.0705272
1 0.232837 0.0926223
1 0.206729 0.104814
1 0.206729 0.104814
1 0.206729 0.104814
1 0.206729 0.104814
1 0.206729 0.104814
1 0.206729 0.104814
1 0.206729 0.104814
1 0.206729 0.104814
1 0.206729 0.104814
1 0.206729 0.104814
1 0.206729 0.104814
1 0.206729 0.104814
0.0684672 0.478553 0.104311
0.0681773 0.476844 0.104067
0.0679026 0.475151 0.103822
0.0675975 0.473396 0.103578
0.0673075 0.471611 0.103319
0.0670176 0.469825 0.103075
0.0667124 0.46804 0.102831
0.0663615 0.465873 0.102525
0.0658579 0.462959 0.102098
0.075288 0.458122 0.100877
0.173098 0.446571 0.0931258
0.235447 0.43032 0.0735027
0.458503 0.505653 0.120226
0.599481 0.505013 0.13225
0.663584 0.463233 0.121355
0.743023 0.435096 0.111467
0.82153 0.402258 0.0950484
0.88661 0.375921 0.0757153
0.916381 0.354894 0.070985
0.953353 0.337926 0.071397
0.988067 0.317433 0.071107
0.991547 0.293126 0.0700999
0.995132 0.266285 0.0725872
1 0.241993 0.0888075
1 0.213565 0.102998
1 0.206729 0.104814
1 0.206729 0.104814
1 0.206729 0.104814
1 0.206729 0.104814
1 0.206729 0.104814
1 0.206729 0.104814
1 0.206729 0.104814
1 0.206729 0.104814
0.078584 0.546151 0.113268
0.0784619 0.544991 0.11313
0.0783398 0.543801 0.113008
0.0782177 0.542611 0.112871
0.0780957 0.54139 0.112734
0.0779583 0.540169 0.112596
0.077821 0.538933 0.112459
0.0776684 0.537453 0.112291
0.0774548 0.53547 0.112062
0.0770581 0.532403 0.111711
0.106126 0.524849 0.109239
0.210361 0.510079 0.0994583
0.291905 0.497215 0.085771
0.544335 0.580346 0.141756
0.667048 0.571359 0.153307
0.724147 0.533928 0.143297
0.799924 0.498177 0.135668
0.86157 0.462959 0.114366
0.903243 0.42977 0.094377
0.940978 0.409598 0.0869306
0.975006 0.389807 0.0824598
0.981979 0.370703 0.0779278
0.983886 0.352544 0.074342
0.98616 0.338384 0.0731823
0.988602 0.324742 0.0717937
0.988602 0.310948 0.070634
0.988861 0.299321 0.0699168
0.990723 0.291279 0.070222
0.990631 0.284031 0.0708934
0.992706 0.278111 0.0716106
0.99411 0.273045 0.0721599
0.994827 0.268315 0.0724498
0.995392 0.264454 0.0726635
0.0890364 0.619364 0.124865
0.0888838 0.618173 0.124636
0.088716 0.616968 0.124407
0.0885481 0.615732 0.124163
0.088365 0.614496 0.123934
0.0881971 0.61323 0.12369
0.0880293 0.612009 0.123445
0.0878157 0.610498 0.123156
0.0875257 0.608454 0.122759
0.0871595 0.605783 0.122255
0.086656 0.602274 0.121584
0.15404 0.587045 0.113176
0.250294 0.574258 0.103746
0.364599 0.568566 0.103807
0.620386 0.659236 0.168917
0.739437 0.642451 0.173846
0.792615 0.595743 0.160403
0.84564 0.560418 0.153689
0.893233 0.525093 0.132525
0.927047 0.506264 0.126726
0.960449 0.487434 0.121752
0.974517 0.466453 0.114183
0.976135 0.444114 0.104387
0.977646 0.427787 0.0954757
0.979019 0.413809 0.0896925
0.97995 0.401938 0.0860609
0.980941 0.392844 0.0834974
0.981826 0.386084 0.0817884
0.982116 0.380728 0.0803998
0.9823 0.376501 0.0793317
0.982116 0.373205 0.0785382
0.981979 0.370672 0.0779278
0.981872 0.368734 0.0774548
0.103593 0.680949 0.132067
0.103563 0.680247 0.132067
0.103532 0.679515 0.132067
0.103502 0.678767 0.132067
0.10338 0.677989 0.132036
0.103197 0.67718 0.13196
0.102998 0.676371 0.131884
0.10277 0.675395 0.131792
0.102449 0.674083 0.131685
0.102037 0.672343 0.131533
0.101503 0.670085 0.131319
0.100755 0.667094 0.131044
0.202579 0.64802 0.120577
0.288273 0.637766 0.111513
0.45182 0.652445 0.125612
0.69424 0.724865 0.18645
0.797894 0.70425 0.188373
0.848798 0.668803 0.175372
0.888441 0.625772 0.164736
0.920653 0.606943 0.15819
0.953384 0.589792 0.15404
0.975174 0.571679 0.14934
0.97528 0.555322 0.144503
0.975097 0.540459 0.139849
0.97435 0.527672 0.135607
0.973159 0.516976 0.131823
0.972427 0.508278 0.128801
0.972519 0.501503 0.126604
0.97258 0.496132 0.124865
0.972992 0.492012 0.123598
0.973297 0.488869 0.122637
0.973541 0.486427 0.121889
0.973724 0.484596 0.121324
0.105791 0.734325 0.133227
0.105745 0.733593 0.133196
0.105699 0.732845 0.133165
0.105653 0.732082 0.13312
0.105592 0.731304 0.133089
0.105547 0.730541 0.133043
0.105501 0.729793 0.133013
0.105455 0.728862 0.132967
0.105409 0.727779 0.132906
0.105364 0.72639 0.132815
0.105287 0.724575 0.132708
0.105211 0.722194 0.13257
0.105089 0.719142 0.132387
0.244434 0.699809 0.118425
0.326528 0.688899 0.108583
0.560082 0.735836 0.15108
0.765255 0.789227 0.207126
0.844327 0.762997 0.205722
0.895384 0.73257 0.189563
0.92726 0.708309 0.185214
0.958114 0.693049 0.180957
0.984421 0.677485 0.177234
0.982818 0.662516 0.173083
0.980224 0.649851 0.170153
0.978027 0.639612 0.168322
0.976654 0.630838 0.166339
0.975586 0.623667 0.164691
0.975296 0.617777 0.162905
0.975082 0.613153 0.161517
0.974899 0.609537 0.160418
0.974792 0.606775 0.159594
0.974731 0.604669 0.158984
0.974685 0.603082 0.158511
0.111574 0.78648 0.14725
0.111482 0.785916 0.147036
0.111391 0.785351 0.146807
0.111299 0.784787 0.146578
0.111208 0.784207 0.146349
0.111116 0.783627 0.14612
0.111025 0.783047 0.145876
0.110918 0.782345 0.145617
0.11078 0.781415 0.145251
0.110582 0.780194 0.144747
0.110338 0.778592 0.144137
0.110018 0.776516 0.143328
0.10959 0.773831 0.142275
0.128603 0.768582 0.139239
0.290959 0.7458 0.123568
0.371221 0.735866 0.106767
0.646815 0.804898 0.179263
0.816648 0.83946 0.216892
0.883757 0.813733 0.21323
0.928359 0.794797 0.201556
0.962051 0.785077 0.203372
0.991897 0.77499 0.202594
1 0.765133 0.200916
1 0.755779 0.198947
0.999802 0.747204 0.197086
0.998245 0.740001 0.195514
0.996963 0.734112 0.194232
0.995941 0.729397 0.193225
0.995117 0.72549 0.192157
0.994492 0.722316 0.191135
0.994018 0.71986 0.190326
0.993637 0.717983 0.189715
0.993362 0.716579 0.189258
0.108171 0.820447 0.141619
0.108171 0.820111 0.141588
0.108186 0.819791 0.141558
0.108186 0.819455 0.141527
0.108202 0.819104 0.141497
0.108202 0.818769 0.141466
0.108217 0.818433 0.141436
0.108217 0.818021 0.14139
0.108232 0.817472 0.141344
0.108248 0.816739 0.141283
0.108278 0.815793 0.141192
0.108309 0.814572 0.141085
0.108339 0.812985 0.140948
0.1084 0.810987 0.140764
0.215702 0.797986 0.133074
0.335134 0.786343 0.130022
0.445884 0.78764 0.11957
0.734005 0.863813 0.197635
0.867689 0.882109 0.225055
0.915663 0.852949 0.212863
0.949035 0.845823 0.21091
0.980529 0.839536 0.209796
1 0.833616 0.208469
1 0.827878 0.20708
1 0.82298 0.206027
1 0.819089 0.205707
1 0.815915 0.205447
1 0.813336 0.205249
1 0.810849 0.205203
1 0.808942 0.205158
1 0.807462 0.205127
1 0.806363 0.205097
1 0.805508 0.205081
0.107393 0.851438 0.144427
0.107408 0.851133 0.144396
0.107408 0.850843 0.144381
0.107424 0.850538 0.14435
0.107424 0.850233 0.14432
0.107439 0.849928 0.144289
0.107439 0.849622 0.144259
0.107454 0.849241 0.144228
0.107469 0.848753 0.144183
0.107485 0.848096 0.144121
0.1075 0.847257 0.144045
0.10753 0.846143 0.143938
0.107561 0.844724 0.143816
0.107607 0.842924 0.143648
0.107668 0.840696 0.14345
0.277531 0.821012 0.131594
0.366567 0.815229 0.120668
0.589105 0.855314 0.152407
0.807584 0.911482 0.216114
0.898528 0.908904 0.232334
0.929183 0.891279 0.216709
0.962722 0.886229 0.216358
0.990585 0.881651 0.216083
0.999283 0.877317 0.215579
0.999695 0.873549 0.215
1 0.870405 0.214603
1 0.867857 0.214298
1 0.865827 0.214069
1 0.86424 0.21387
1 0.86302 0.213794
1 0.862089 0.213748
1 0.861372 0.213733
1 0.860838 0.213703
0.106691 0.879438 0.147021
0.106691 0.879179 0.14699
0.106706 0.878904 0.14696
0.106706 0.87863 0.146944
0.106706 0.87834 0.146914
0.106722 0.878065 0.146883
0.106722 0.877791 0.146868
0.106737 0.87744 0.146838
0.106752 0.876997 0.146792
0.106767 0.876402 0.146731
0.106783 0.875624 0.146654
0.106813 0.874601 0.146563
0.106844 0.873304 0.146441
0.106889 0.871672 0.146288
0.106935 0.869642 0.146105
0.175662 0.860136 0.13904
0.333761 0.846937 0.132219
0.440345 0.843427 0.118517
0.737331 0.925246 0.199634
0.876814 0.948791 0.236728
0.921111 0.923781 0.223758
0.946822 0.919356 0.219394
0.975128 0.916304 0.219715
0.995193 0.913603 0.219974
0.9953 0.911147 0.219852
0.995407 0.909102 0.219745
0.995483 0.907439 0.219654
0.99556 0.906126 0.219593
0.995605 0.905089 0.219532
0.995636 0.90428 0.219501
0.995666 0.90367 0.219471
0.995697 0.903212 0.21944
0.995712 0.902861 0.219425
0.10605 0.904036 0.149325
0.10605 0.903777 0.149294
0.10605 0.903532 0.149279
0.106065 0.903273 0.149248
0.106065 0.903014 0.149233
0.106081 0.902754 0.149203
0.106081 0.902495 0.149172
0.106096 0.902174 0.149142
0.106096 0.901762 0.149111
0.106111 0.901198 0.14905
0.106142 0.900481 0.148989
0.106157 0.89955 0.148898
0.106188 0.898344 0.148791
0.106233 0.896819 0.148638
0.106279 0.894942 0.14847
0.10634 0.892668 0.148257
0.281697 0.87306 0.134722
0.376699 0.864866 0.120073
0.648569 0.923766 0.174578
0.839841 0.970565 0.22855
0.906767 0.955428 0.231876
0.933028 0.945327 0.220752
0.962371 0.942428 0.221012
0.986114 0.939925 0.221286
0.994034 0.937728 0.221302
0.994125 0.935851 0.221195
0.994202 0.93434 0.221118
0.994263 0.93312 0.221042
0.994308 0.932174 0.220996
0.994339 0.931441 0.220951
0.994369 0.930892 0.22092
0.994385 0.930465 0.22089
0.9944 0.930144 0.220874
0.105486 0.925017 0.151324
0.105486 0.924788 0.151293
0.105501 0.924544 0.151278
0.105501 0.9243 0.151247
0.105516 0.924056 0.151232
0.105516 0.923812 0.151202
0.105516 0.923568 0.151186
0.105531 0.923278 0.151156
0.105547 0.922881 0.15111
0.105562 0.922362 0.151064
0.105577 0.921675 0.151003
0.105592 0.920806 0.150912
0.105623 0.919676 0.150805
0.105669 0.918242 0.150668
0.105714 0.916472 0.1505
0.105776 0.914351 0.150301
0.210407 0.900526 0.139254
0.346578 0.889876 0.131777
0.531868 0.91104 0.141878
0.7888 0.980377 0.216358
0.892134 0.987305 0.239521
0.923201 0.967727 0.223728
0.950484 0.964569 0.222248
0.974975 0.962173 0.222477
0.993011 0.960159 0.222675
0.993088 0.958404 0.222553
0.993149 0.957 0.222477
0.993194 0.955871 0.2224
0.99324 0.954986 0.222339
0.993271 0.954314 0.222309
0.993301 0.953796 0.222263
0.993317 0.953399 0.222248
0.993332 0.953094 0.222232
0.105226 0.934371 0.152224
0.105226 0.934371 0.152224
0.105226 0.934371 0.152224
0.105226 0.934371 0.152224
0.105226 0.934371 0.152224
0.105226 0.934371 0.152224
0.105226 0.934371 0.152224
0.105226 0.934371 0.152224
0.105226 0.934371 0.152224
0.105226 0.934371 0.152224
0.105226 0.934371 0.152224
0.105226 0.934371 0.152224
0.105226 0.934371 0.152224
0.105226 0.934371 0.152224
0.105226 0.934356 0.152224
0.105287 0.932326 0.152026
0.105348 0.929961 0.151797
0.317037 0.910613 0.137011
0.427314 0.903105 0.12163
0.733089 0.986343 0.203098
0.873823 1 0.240711
0.917952 0.987366 0.229328
0.939788 0.98291 0.223362
0.964996 0.980575 0.223575
0.98497 0.978637 0.223774
0.992233 0.977005 0.223804
0.992294 0.975677 0.223713
0.992355 0.974609 0.223636
0.992386 0.973785 0.223575
0.992416 0.973144 0.223529
0.992432 0.972641 0.223499
0.992447 0.972274 0.223468
0.992462 0.972 0.223453
0.105226 0.934371 0.152224
0.105226 0.934371 0.152224
0.105226 0.934371 0.152224
0.105226 0.934371 0.152224
0.105226 0.934371 0.152224
0.105226 0.934371 0.152224
0.105226 0.934371 0.152224
0.105226 0.934371 0.152224
0.105226 0.934371 0.152224
0.105226 0.934371 0.152224
0.105226 0.934371 0.152224
0.105226 0.934371 0.152224
0.105226 0.934371 0.152224
0.105226 0.934371 0.152224
0.105226 0.934371 0.152224
0.105226 0.934371 0.152224
0.105226 0.934371 0.152224
0.282353 0.917144 0.138216
0.38378 0.910597 0.121798
0.674876 0.981689 0.187259
0.850858 1 0.235981
0.907637 1 0.234897
0.930495 0.997772 0.224369
0.956359 0.995483 0.224552
0.976791 0.993591 0.22475
0.991562 0.992035 0.224918
0.991623 0.990768 0.224811
0.991669 0.989746 0.224735
0.991699 0.988952 0.224674
0.99173 0.988342 0.224628
0.991745 0.987869 0.224598
0.99176 0.987518 0.224567
0.991775 0.987243 0.224552
0.105226 0.934371 0.152224
0.105226 0.934371 0.152224
0.105226 0.934371 0.152224
0.105226 0.934371 0.152224
0.105226 0.934371 0.152224
0.105226 0.934371 0.152224
0.105226 0.934371 0.152224
0.105226 0.934371 0.152224
0.105226 0.934371 0.152224
0.105226 0.934371 0.152224
0.105226 0.934371 0.152224
0.105226 0.934371 0.152224
0.105226 0.934371 0.152224
0.105226 0.934371 0.152224
0.105226 0.934371 0.152224
0.105226 0.934371 0.152224
0.105226 0.934371 0.152224
0.245151 0.920089 0.138796
0.365591 0.912566 0.128038
0.620737 0.964889 0.169512
0.823194 1 0.227924
0.899168 1 0.239017
0.923796 1 0.225284
0.949248 1 0.225147
0.970001 1 0.225513
0.986191 1 0.225849
0.991073 1 0.225849
0.991119 1 0.225757
0.99115 1 0.225681
0.99118 1 0.22562
0.991196 0.999939 0.225589
0.991211 0.999603 0.225559
0.991226 0.999344 0.225528
0.105226 0.934371 0.152224
0.105226 0.934371 0.152224
0.105226 0.934371 0.152224
0.105226 0.934371 0.152224
0.105226 0.934371 0.152224
0.105226 0.934371 0.152224
0.105226 0.934371 0.152224
0.105226 0.934371 0.152224
0.105226 0.934371 0.152224
0.105226 0.934371 0.152224
0.105226 0.934371 0.152224
0.105226 0.934371 0.152224
0.105226 0.934371 0.152224
0.105226 0.934371 0.152224
0.105226 0.934371 0.152224
0.105226 0.934371 0.152224
0.105226 0.934371 0.152224
0.201648 0.923766 0.142046
0.350881 0.914504 0.13257
0.563928 0.948882 0.152834
0.798688 1 0.221347
0.892287 1 0.241825
0.921874 1 0.227466
0.943679 1 0.225055
0.964797 1 0.225406
0.981247 1 0.225742
0.991012 1 0.225971
0.991012 1 0.225971
0.991012 1 0.225971
0.991012 1 0.225971
0.991012 1 0.225971
0.991012 1 0.225971
0.991012 1 0.225971
0.105226 0.934371 0.152224
0.105226 0.934371 0.152224
0.105226 0.934371 0.152224
0.105226 0.934371 0.152224
0.105226 0.934371 0.152224
0.105226 0.934371 0.152224
0.105226 0.934371 0.152224
0.105226 0.934371 0.152224
0.105226 0.934371 0.152224
