assets/luts/snow_portrait.cube
TITLE "Generated by Resolve"
LUT_3D_SIZE 9
0.0433204 0.037995 0.0383917
0.12253 0.0366674 0.0372625
0.376059 0.110033 0.0660868
0.689296 0.170871 0.0759899
0.898909 0.197436 0.0948348
1 0.206729 0.104814
1 0.206729 0.104814
1 0.206729 0.104814
1 0.206729 0.104814
0.0383001 0.0695201 0.0352941
0.0519112 0.0509041 0.0386358
0.299001 0.0869001 0.0565805
0.667018 0.166918 0.0742809
0.89337 0.196994 0.094377
1 0.206729 0.104814
1 0.206729 0.104814
1 0.206729 0.104814
1 0.206729 0.104814
0.0465705 0.24062 0.0478218
0.0456855 0.22475 0.0418708
0.165515 0.19324 0.0136263
0.578927 0.226429 0.045243
0.889708 0.19704 0.0931868
1 0.206729 0.104814
1 0.206729 0.104814
1 0.206729 0.104814
1 0.206729 0.104814
0.0684672 0.478553 0.104311
0.0673075 0.471611 0.103319
0.0658579 0.462959 0.102098
0.458503 0.505653 0.120226
0.82153 0.402258 0.0950484
0.988067 0.317433 0.071107
1 0.213565 0.102998
1 0.206729 0.104814
1 0.206729 0.104814
0.105791 0.734325 0.133227
0.105592 0.731304 0.133089
0.105409 0.727779 0.132906
0.105089 0.719142 0.132387
0.765255 0.789227 0.207126
0.958114 0.693049 0.180957
0.978027 0.639612 0.168322
0.975082 0.613153 0.161517
0.974685 0.603082 0.158511
0.106691 0.879438 0.147021
0.106706 0.87834 0.146914
0.106752 0.876997 0.146792
0.106844 0.873304 0.146441
0.333761 0.846937 0.132219
0.921111 0.923781 0.223758
0.9953 0.911147 0.219852
0.995605 0.905089 0.219532
0.995712 0.902861 0.219425
0.105226 0.934371 0.152224
0.105226 0.934371 0.152224
0.105226 0.934371 0.152224
0.105226 0.934371 0.152224
0.105226 0.934371 0.152224
0.850858 1 0.235981
0.976791 0.993591 0.22475
0.991699 0.988952 0.224674
0.991775 0.987243 0.224552
0.105226 0.934371 0.152224
0.105226 0.934371 0.152224
0.105226 0.934371 0.152224
0.105226 0.934371 0.152224
0.105226 0.934371 0.152224
0.760082 1 0.211444
0.957336 1 0.225269
0.991012 1 0.225971
0.991012 1 0.225971
0.105226 0.934371 0.152224
0.105226 0.934371 0.152224
0.105226 0.934371 0.152224
0.105226 0.934371 0.152224
0.105226 0.934371 0.152224
0.715389 0.994766 0.199313
0.950149 1 0.225162
0.991012 1 0.225971
0.991012 1 0.225971
0.0427558 0.0375372 0.0627298
0.112581 0.0361334 0.0569314
0.362203 0.105623 0.0802319
0.682902 0.169436 0.0798352
0.898024 0.19736 0.0947738
1 0.206729 0.104814
1 0.206729 0.104814
1 0.206729 0.104814
1 0.206729 0.104814
0.0420996 0.0540475 0.0411841
0.0433204 0.037995 0.0383917
0.287892 0.0830243 0.0551003
0.663523 0.166323 0.074342
0.89247 0.196933 0.0943008
1 0.206729 0.104814
1 0.206729 0.104814
1 0.206729 0.104814
1 0.206729 0.104814
0.0459907 0.227802 0.0430915
0.0439612 0.208743 0.0309758
0.156024 0.176364 0.00755322
0.58085 0.215671 0.043946
0.889738 0.197147 0.0929427
1 0.206729 0.104814
1 0.206729 0.104814
1 0.206729 0.104814
1 0.206729 0.104814
0.0675517 0.47303 0.103532
0.0663767 0.46598 0.102541
0.0647288 0.457099 0.101106
0.451865 0.498192 0.118257
0.821256 0.395834 0.0923476
0.986999 0.310719 0.0705272
1 0.206729 0.104814
1 0.206729 0.104814
1 0.206729 0.104814
0.105638 0.731929 0.13312
0.105455 0.728908 0.132967
0.105333 0.725719 0.132784
0.105013 0.717021 0.132326
0.7635 0.786954 0.206485
0.95668 0.688914 0.179721
0.977386 0.635538 0.167391
0.974868 0.608743 0.160174
0.974578 0.598627 0.157214
0.106706 0.878569 0.146929
0.106737 0.877455 0.146838
0.106767 0.876112 0.1467
0.106859 0.872419 0.146365
0.332509 0.846326 0.132189
0.920623 0.923003 0.223987
0.995361 0.910185 0.219806
0.995651 0.904112 0.219486
0.995758 0.901869 0.219379
0.105226 0.934371 0.152224
0.105226 0.934371 0.152224
0.105226 0.934371 0.152224
0.105226 0.934371 0.152224
0.105226 0.934371 0.152224
0.848783 1 0.235187
0.976242 0.992844 0.224689
0.99173 0.988205 0.224613
0.991806 0.986496 0.224491
0.105226 0.934371 0.152224
0.105226 0.934371 0.152224
0.105226 0.934371 0.152224
0.105226 0.934371 0.152224
0.105226 0.934371 0.152224
0.756268 1 0.210407
0.95671 1 0.225269
0.991012 1 0.225971
0.991012 1 0.225971
0.105226 0.934371 0.152224
0.105226 0.934371 0.152224
0.105226 0.934371 0.152224
0.105226 0.934371 0.152224
0.105226 0.934371 0.152224
0.710964 0.993347 0.198062
0.949508 1 0.225147
0.991012 1 0.225971
0.991012 1 0.225971
0.0271763 0.054902 0.24358
0.0855421 0.0549935 0.242618
0.374868 0.122408 0.299672
0.695583 0.169818 0.239155
0.917296 0.198581 0.226337
1 0.20267 0.205188
1 0.198077 0.180285
1 0.196185 0.167422
1 0.196658 0.162615
0.026276 0.0429389 0.217853
0.0261082 0.0403906 0.213367
0.284749 0.0849317 0.264683
0.672969 0.165652 0.225879
0.902373 0.194903 0.209567
1 0.199542 0.190494
1 0.196307 0.164477
1 0.199008 0.150713
1 0.200778 0.14728
0.0642252 0.241535 0.251469
0.0562142 0.215152 0.234333
0.143481 0.174899 0.204807
0.589258 0.202731 0.176638
0.897475 0.193225 0.18999
1 0.196841 0.17174
1 0.201511 0.146181
1 0.205035 0.139498
1 0.205554 0.134524
0.0679332 0.469932 0.192645
0.0663767 0.462043 0.188434
0.0647593 0.453346 0.183719
0.429969 0.47689 0.186496
0.817411 0.38497 0.142611
0.986419 0.301045 0.0867475
1 0.206729 0.104814
1 0.206729 0.104814
1 0.206729 0.104814
0.105455 0.728969 0.132967
0.105364 0.726345 0.132815
0.105241 0.723156 0.132631
0.104921 0.714412 0.13228
0.761303 0.784146 0.205676
0.95491 0.68368 0.178225
0.976608 0.630472 0.166247
0.974701 0.603326 0.158587
0.974441 0.593118 0.155612
0.106737 0.877485 0.146838
0.106767 0.876371 0.146731
0.106798 0.875013 0.146609
0.106889 0.871305 0.146258
0.329442 0.845563 0.132006
0.920043 0.922042 0.224277
0.995407 0.90901 0.219745
0.995712 0.902907 0.219425
0.995819 0.900664 0.219318
0.105226 0.934371 0.152224
0.105226 0.934371 0.152224
0.105226 0.934371 0.152224
0.105226 0.934371 0.152224
0.105226 0.934371 0.152224
0.84625 1 0.234226
0.975555 0.991943 0.224598
0.991775 0.987289 0.224552
0.991852 0.985565 0.224414
0.105226 0.934371 0.152224
0.105226 0.934371 0.152224
0.105226 0.934371 0.152224
0.105226 0.934371 0.152224
0.105226 0.934371 0.152224
0.751614 1 0.20914
0.955947 1 0.225254
0.991012 1 0.225971
0.991012 1 0.225971
0.105226 0.934371 0.152224
0.105226 0.934371 0.152224
0.105226 0.934371 0.152224
0.105226 0.934371 0.152224
0.105226 0.934371 0.152224
0.705516 0.991577 0.196521
0.94873 1 0.225132
0.991012 1 0.225971
0.991012 1 0.225971
0.0557717 0.152758 0.603433
0.074815 0.155962 0.606546
0.257023 0.169223 0.596353
0.717876 0.235904 0.592569
0.937926 0.245045 0.519127
1 0.253117 0.516838
1 0.25214 0.502708
1 0.251194 0.494636
1 0.250675 0.49131
0.054612 0.150698 0.596933
0.0544289 0.150362 0.595865
0.199832 0.162005 0.595911
0.693523 0.22858 0.585184
0.932296 0.243992 0.510994
1 0.252522 0.508476
1 0.250874 0.492592
1 0.249409 0.483253
1 0.248875 0.47985
0.0484932 0.25658 0.585122
0.0473335 0.24538 0.586877
0.128084 0.225452 0.584985
0.643107 0.232593 0.566155
0.925261 0.242969 0.50341
1 0.251682 0.497688
1 0.248676 0.478584
1 0.246311 0.467063
1 0.24538 0.462669
0.190692 0.562768 0.633219
0.190692 0.55877 0.634501
0.187213 0.547845 0.629664
0.394903 0.489632 0.585672
0.83975 0.383764 0.410086
1 0.294087 0.360739
1 0.238331 0.428687
1 0.235569 0.415183
1 0.234562 0.410239
0.111894 0.724941 0.398352
0.112581 0.722545 0.39913
0.112871 0.719295 0.399176
0.113512 0.710735 0.399451
0.728985 0.769421 0.41529
0.946258 0.661402 0.368872
0.97142 0.605585 0.344961
0.969299 0.578119 0.331197
0.969192 0.56849 0.326207
0.103014 0.872755 0.282765
0.103029 0.871672 0.280903
0.103029 0.870329 0.278614
0.103944 0.866392 0.273945
0.311421 0.839033 0.245319
0.915389 0.917006 0.320058
0.992584 0.903105 0.291005
0.99379 0.896315 0.278843
0.99443 0.893446 0.274113
0.105226 0.934371 0.152224
0.105226 0.934371 0.152224
0.105226 0.934371 0.152224
0.105226 0.934371 0.152224
0.105226 0.934371 0.152224
0.837797 1 0.231586
0.973724 0.989471 0.224384
0.991882 0.984787 0.224369
0.991958 0.983063 0.224231
0.105226 0.934371 0.152224
0.105226 0.934371 0.152224
0.105226 0.934371 0.152224
0.105226 0.934371 0.152224
0.105226 0.934371 0.152224
0.738964 1 0.205737
0.953872 1 0.225223
0.991012 1 0.225971
0.991012 1 0.225971
0.105226 0.934371 0.152224
0.105226 0.934371 0.152224
0.105226 0.934371 0.152224
0.105226 0.934371 0.152224
0.105226 0.934371 0.152224
0.690486 0.986694 0.192203
0.946609 1 0.225101
0.991012 1 0.225971
0.991012 1 0.225971
0.0921645 0.219913 0.852689
0.0919661 0.219776 0.852308
0.219852 0.219486 0.854994
0.594583 0.230259 0.873579
0.938262 0.285191 0.890471
1 0.293538 0.895323
1 0.293462 0.890669
1 0.293431 0.888395
1 0.293416 0.887556
0.0908217 0.218982 0.850324
0.0906233 0.21883 0.849928
0.174258 0.216114 0.850309
0.554269 0.22623 0.864866
0.931777 0.285481 0.888121
1 0.293492 0.892546
1 0.293416 0.887877
1 0.293385 0.885573
1 0.29337 0.884733
0.0894942 0.225193 0.84802
0.0889754 0.217685 0.847013
0.0887007 0.217487 0.84654
0.499138 0.225208 0.85478
0.923659 0.285801 0.885283
1 0.293431 0.889158
1 0.29337 0.884428
1 0.293553 0.882231
1 0.293645 0.881437
0.119112 0.459968 0.832059
0.112474 0.449729 0.829007
0.10396 0.436713 0.825101
0.269718 0.396704 0.81294
0.847547 0.393576 0.832624
1 0.293996 0.879057
1 0.294224 0.875502
1 0.294438 0.873213
1 0.294438 0.872145
0.243168 0.806256 0.88159
0.242893 0.803647 0.88127
0.242542 0.800427 0.880812
0.241581 0.791592 0.879667
0.671183 0.762081 0.860365
0.963134 0.654612 0.782025
1 0.587686 0.751171
1 0.555642 0.737179
1 0.543893 0.732219
0.230411 0.940276 0.821241
0.230045 0.938689 0.820005
0.229618 0.936767 0.818494
0.228473 0.931563 0.814481
0.403922 0.891173 0.766659
0.900725 0.947005 0.750805
0.994766 0.92784 0.729931
0.994492 0.920577 0.727886
0.994598 0.917647 0.72697
0.212451 0.990662 0.770596
0.212146 0.990433 0.769696
0.211749 0.990158 0.768566
0.210681 0.98941 0.765499
0.208148 0.987762 0.758328
0.758099 1 0.672541
0.969329 0.993408 0.662776
0.992309 0.984833 0.656016
0.992401 0.981994 0.653788
0.202502 0.984619 0.743191
0.202167 0.984451 0.742306
0.20174 0.984253 0.741238
0.200641 0.983688 0.738384
0.19791 0.982315 0.731334
0.639826 0.977615 0.620508
0.949279 1 0.628153
0.991669 0.999374 0.617746
0.991714 0.999008 0.614816
0.198718 0.982727 0.73341
0.198367 0.982544 0.732525
0.197955 0.982345 0.731441
0.196811 0.981765 0.728481
0.194217 0.97998 0.718776
0.589181 0.96405 0.59913
0.942199 0.998795 0.611078
0.991714 0.997299 0.59913
0.991852 0.996963 0.595972
0.151751 0.271305 1
0.151751 0.271305 1
0.164965 0.271366 1
0.523766 0.274662 1
0.920638 0.309377 1
1 0.319112 1
1 0.319081 1
1 0.319066 1
1 0.319051 1
0.151705 0.271244 1
0.15169 0.271229 1
0.151675 0.271229 1
0.481727 0.271427 1
0.913207 0.307897 1
1 0.319081 1
1 0.319051 1
1 0.319036 1
1 0.319036 1
0.151629 0.271168 1
0.151629 0.271153 1
0.151614 0.271138 1
0.420539 0.266835 1
0.904768 0.306127 1
1 0.318822 1
1 0.319036 1
1 0.31902 1
1 0.31902 1
0.134707 0.414328 0.98613
0.130678 0.406928 0.985458
0.126375 0.397406 0.985168
0.263157 0.370459 0.980133
0.846403 0.330709 1
1 0.317983 1
1 0.318975 1
1 0.318959 1
1 0.318959 1
0.261601 0.791196 1
0.261433 0.788251 1
0.261341 0.784573 1
0.261204 0.774807 1
0.63093 0.727657 1
0.957198 0.661265 1
1 0.594888 1
1 0.556069 1
1 0.544427 1
0.269795 0.949691 1
0.269841 0.948516 1
0.269886 0.947082 1
0.270039 0.94316 1
0.422919 0.91899 1
0.887587 0.93724 1
0.995605 0.926116 1
0.996155 0.91812 1
0.99646 0.914916 1
0.267048 1 1
0.267048 1 1
0.267048 1 1
0.267109 1 1
0.267399 1 1
0.769833 1 1
0.960708 1 1
0.991165 1 1
0.991257 1 1
0.267109 1 1
0.267109 1 1
0.267109 1 1
0.267124 1 1
0.26714 1 1
0.676738 1 0.999496
0.939315 1 1
0.988846 1 1
0.989471 1 1
0.26714 1 1
0.26714 1 1
0.26714 1 1
0.267155 1 1
0.26717 1 1
0.635538 1 0.993622
0.931762 1 1
0.982391 1 1
0.989487 1 1
0.155306 0.275593 1
0.155291 0.275578 1
0.155291 0.275563 1
0.459159 0.27155 1
0.910765 0.309285 1
1 0.320394 1
1 0.32047 1
1 0.320455 1
1 0.320439 1
0.155261 0.275532 1
0.155261 0.275532 1
0.155245 0.275517 1
0.41033 0.27013 1
0.903792 0.307851 1
1 0.32015 1
1 0.320455 1
1 0.320439 1
1 0.320424 1
0.155215 0.275486 1
0.1552 0.275471 1
0.1552 0.275456 1
0.361288 0.272831 1
0.894469 0.306447 1
1 0.31986 1
1 0.320424 1
1 0.320409 1
1 0.320409 1
0.127611 0.356542 1
0.12929 0.348211 1
0.131426 0.335027 1
0.242649 0.302815 1
0.860899 0.301152 1
1 0.319051 1
1 0.320378 1
1 0.320363 1
1 0.320348 1
0.261189 0.768582 1
0.260822 0.765286 1
0.260365 0.761212 1
0.257664 0.747723 1
0.593744 0.685924 1
0.950851 0.611704 1
1 0.538033 1
1 0.507225 1
1 0.498146 1
0.269627 0.940291 1
0.269673 0.939086 1
0.269734 0.937606 1
0.269902 0.933577 1
0.376745 0.912444 1
0.876234 0.926665 1
0.996139 0.91284 1
0.997223 0.903868 1
0.99762 0.900374 1
0.266377 1 1
0.266423 1 1
0.266468 1 1
0.26659 1 1
0.266896 1 1
0.743984 1 1
0.954009 1 1
0.990875 1 1
0.990982 0.999313 1
0.26627 1 1
0.26627 1 1
0.26627 1 1
0.266285 1 1
0.266285 1 1
0.63978 1 1
0.931731 1 1
0.982483 1 1
0.989013 1 1
0.266285 1 1
0.266285 1 1
0.266285 1 1
0.2663 1 1
0.2663 1 1
0.596536 1 1
0.923919 1 1
0.975616 1 1
0.988632 1 1
0.155398 0.2757 1
0.155398 0.2757 1
0.155398 0.2757 1
0.419379 0.269596 1
0.905348 0.308263 1
1 0.320317 1
1 0.320607 1
1 0.320607 1
1 0.320607 1
0.155398 0.2757 1
0.155398 0.2757 1
0.155398 0.2757 1
0.37731 0.272572 1
0.898085 0.307012 1
1 0.320104 1
1 0.320607 1
1 0.320607 1
1 0.320607 1
0.155398 0.2757 1
0.155398 0.2757 1
0.155398 0.2757 1
0.330236 0.270359 1
0.888029 0.305852 1
1 0.319829 1
1 0.320607 1
1 0.320607 1
1 0.320607 1
0.13785 0.329107 1
0.141222 0.317647 1
0.15053 0.298329 1
0.21236 0.272831 1
0.851575 0.299168 1
1 0.319081 1
1 0.320607 1
1 0.320607 1
1 0.320607 1
0.259327 0.754849 1
0.258366 0.75053 1
0.257221 0.74522 1
0.253483 0.730007 1
0.574853 0.664927 1
0.949096 0.5823 1
1 0.513008 1
1 0.488014 1
1 0.478599 1
0.269703 0.935592 1
0.269749 0.934371 1
0.26981 0.932876 1
0.269993 0.928771 1
0.335149 0.912749 1
0.870588 0.921309 1
0.995605 0.905898 1
0.997925 0.896391 1
0.998215 0.892714 1
0.26627 1 1
0.2663 1 1
0.266346 1 1
0.266484 1 1
0.266789 1 1
0.731106 1 1
0.95082 1 1
0.99086 0.997055 1
0.990982 0.995193 1
0.265995 1 1
0.265995 1 1
0.265995 1 1
0.265995 1 1
0.266011 1 1
0.622263 1 1
0.928267 1 1
0.979522 1 1
0.988937 1 1
0.266011 1 1
0.266011 1 1
0.266011 1 1
0.266011 1 1
0.266011 1 1
0.579599 1 1
0.920165 1 1
0.972396 1 1
0.988342 1 1
0.155398 0.2757 1
0.155398 0.2757 1
0.155398 0.2757 1
0.406973 0.270558 1
0.903304 0.307897 1
1 0.320256 1
1 0.320607 1
1 0.320607 1
1 0.320607 1
0.155398 0.2757 1
0.155398 0.2757 1
0.155398 0.2757 1
0.365621 0.273106 1
0.895735 0.306737 1
1 0.320043 1
1 0.320607 1
1 0.320607 1
1 0.320607 1
0.155398 0.2757 1
0.155398 0.2757 1
0.155398 0.2757 1
0.318151 0.268788 1
0.885573 0.305577 1
1 0.319768 1
1 0.320607 1
1 0.320607 1
1 0.320607 1
0.143313 0.31104 1
0.15172 0.294896 1
0.15523 0.277226 1
0.188556 0.27509 1
0.847837 0.298299 1
1 0.319005 1
1 0.320607 1
1 0.320607 1
1 0.320607 1
0.257954 0.748577 1
0.256962 0.744183 1
0.255573 0.738567 1
0.251957 0.723461 1
0.56556 0.655299 1
0.948623 0.570275 1
1 0.505379 1
1 0.480598 1
1 0.470192 1
0.26978 0.933822 1
0.269825 0.932586 1
0.269886 0.931075 1
0.270069 0.926955 1
0.31722 0.913039 1
0.868544 0.919234 1
0.994888 0.903258 1
0.998199 0.893477 1
0.998322 0.889632 1
0.266316 1 1
0.266361 1 1
0.266407 1 1
0.266529 1 1
0.266835 1 1
0.726375 1 1
0.949706 1 1
0.990921 0.995575 1
0.991028 0.993698 1
0.265965 1 1
0.265965 1 1
0.265965 1 1
0.265965 1 1
0.265965 1 1
0.615122 1 1
0.927016 1 1
0.978469 1 1
0.988937 1 1
0.265965 1 1
0.265965 1 1
0.265965 1 1
0.265965 1 1
0.265965 1 1
0.574441 1 1
0.918822 1 1
0.971237 1 1
0.988266 1 1
