assets/luts/Velvia.cube
TITLE "Generated by Resolve"
LUT_3D_SIZE 9
0 0 0
0.0527962 0.00128176 1.5259e-05
0.182727 0.00122072 0.000610361
0.381994 9.15541e-05 0
0.594202 4.57771e-05 0
0.753262 0.00697337 4.57771e-05
0.87895 0.0413214 0
0.981689 0.0987869 6.10361e-05
0.999557 0.157656 0.00196841
0.000518807 0.0760815 0.000213626
0.0750896 0.0825666 0.000259403
0.235477 0.0876326 0.000518807
0.425605 0.0998703 0.000427253
0.594278 0.116426 0.000213626
0.725338 0.149935 6.10361e-05
0.839292 0.193805 0
0.957961 0.239139 1.5259e-05
0.999405 0.28571 0
0.000244144 0.26862 0.000244144
0.0791638 0.269352 0.000106813
0.245975 0.271977 0.000686656
0.43209 0.277241 1.5259e-05
0.583032 0.290394 0
0.70338 0.312428 9.15541e-05
0.81413 0.338048 7.62951e-05
0.926802 0.366323 9.15541e-05
0.997238 0.394888 0
7.62951e-05 0.49276 0.000747692
0.0746166 0.481743 0.00015259
0.25095 0.469551 0.000198367
0.428687 0.460853 0.00015259
0.567742 0.460182 1.5259e-05
0.684123 0.466819 0
0.788678 0.477119 0.000198367
0.896025 0.488838 1.5259e-05
0.98999 0.50074 7.62951e-05
9.15541e-05 0.643595 0.000640879
0.0885481 0.630854 0.000259403
0.257252 0.615808 9.15541e-05
0.421149 0.603403 0.000518807
0.55555 0.596246 0.000122072
0.66746 0.593378 0
0.768414 0.593317 0.000106813
0.870771 0.593835 1.5259e-05
0.963973 0.596368 9.15541e-05
0.017731 0.753841 0.000198367
0.116106 0.74081 0.000228885
0.268742 0.727016 1.5259e-05
0.418814 0.712657 6.10361e-05
0.544976 0.702602 0.000228885
0.651118 0.694682 0
0.747936 0.687831 0
0.843381 0.684031 3.0518e-05
0.93753 0.68043 0.000137331
0.0297093 0.841215 0
0.139361 0.829648 0
0.278248 0.814801 0.000122072
0.412116 0.802411 0.000198367
0.529778 0.790326 6.10361e-05
0.631998 0.78117 7.62951e-05
0.724651 0.772564 1.5259e-05
0.818219 0.764782 0.000259403
0.910719 0.758724 0
0.0436866 0.924315 0.00015259
0.16553 0.911513 0.000503548
0.281392 0.899306 0.000350958
0.404959 0.886915 3.0518e-05
0.516197 0.874708 9.15541e-05
0.614481 0.863279 0.000198367
0.703227 0.853666 0.000106813
0.791653 0.844251 7.62951e-05
0.882109 0.835019 0.000122072
0.0815747 0.988876 0.000671397
0.186877 0.982177 0.000427253
0.294591 0.975326 0.000183108
0.407538 0.963684 0.000137331
0.507271 0.949966 0.000137331
0.598627 0.939178 3.0518e-05
0.685267 0.928679 4.57771e-05
0.768811 0.918639 0.00015259
0.857404 0.910094 1.5259e-05
0.00015259 1.5259e-05 0.0305638
0.0834669 6.10361e-05 0.0526284
0.255726 0.00015259 0.0757
0.470176 9.15541e-05 0.0974289
0.656672 6.10361e-05 0.117952
0.795361 0.00395209 0.141268
0.914687 0.038468 0.170428
0.995682 0.0939193 0.191684
0.99971 0.154849 0.220081
0.000259403 0.0983749 0.111116
0.0990921 0.0990921 0.0990921
0.283879 0.10248 0.0858015
0.480446 0.103639 0.0773022
0.632059 0.124422 0.0771649
0.75256 0.154177 0.0880903
0.865919 0.194018 0.103197
0.979858 0.235706 0.127794
0.999451 0.280507 0.152789
0.000320439 0.304234 0.0872816
0.0860151 0.295094 0.0657359
0.279042 0.285313 0.0432898
0.461799 0.286732 0.0308995
0.603922 0.295537 0.0318303
0.720867 0.313634 0.0370184
0.831891 0.333928 0.0549325
0.942519 0.35877 0.078233
0.999832 0.385504 0.110887
0.000259403 0.498726 0.0526131
0.0776226 0.484733 0.0302892
0.267491 0.469413 0.0112001
0.442679 0.458579 0.00836194
0.579049 0.457252 0.0103609
0.693843 0.45893 0.0137331
0.799725 0.468238 0.0278019
0.907225 0.477409 0.0496223
0.992538 0.488518 0.0764172
7.62951e-05 0.636484 0.0491646
0.0907759 0.620905 0.0334783
0.262333 0.60589 0.0187381
0.429023 0.592905 0.00331121
0.561929 0.584802 0.00830091
0.672435 0.581018 0.0135348
0.772824 0.579538 0.0212253
0.875547 0.581415 0.0301976
0.96553 0.582177 0.057023
0.0157321 0.741039 0.0568093
0.114321 0.726543 0.0435798
0.270588 0.712077 0.0306401
0.417838 0.69929 0.0153658
0.545068 0.687205 0.0111391
0.65066 0.679545 0.0108034
0.747753 0.673396 0.0222171
0.844862 0.669474 0.0340429
0.938979 0.666468 0.0509041
0.0333104 0.826017 0.0654612
0.136538 0.813703 0.0525216
0.277409 0.799954 0.0399023
0.411231 0.786923 0.0297093
0.527962 0.775952 0.021973
0.631739 0.76495 0.0219577
0.724041 0.758328 0.0274357
0.817578 0.751797 0.0349889
0.911009 0.745418 0.0499733
0.0445716 0.909117 0.0697642
0.161975 0.897444 0.0618296
0.279728 0.885817 0.0491188
0.402609 0.872709 0.0403601
0.513359 0.860533 0.0341344
0.612009 0.849821 0.0334478
0.702251 0.840146 0.0381781
0.791012 0.831373 0.0476844
0.881117 0.823117 0.0631266
0.0811475 0.983948 0.0737926
0.18703 0.972381 0.0680858
0.292744 0.961074 0.0614939
0.405158 0.949599 0.0575265
0.505928 0.938781 0.0559396
0.597314 0.92842 0.0538491
0.683726 0.916838 0.0582742
0.769177 0.90866 0.0644083
0.856855 0.899031 0.0751049
1.5259e-05 0.000320439 0.113664
0.114229 4.57771e-05 0.166949
0.312505 3.0518e-05 0.225589
0.531121 7.62951e-05 0.287678
0.702739 0.000137331 0.336019
0.822309 0.00260929 0.364218
0.938445 0.0392767 0.384802
0.999939 0.0944381 0.398093
0.999695 0.157565 0.408667
0.000595102 0.117662 0.334752
0.113939 0.115846 0.322454
0.324025 0.105974 0.317739
0.513954 0.112398 0.312139
0.654139 0.1308 0.310307
0.771206 0.159884 0.318166
0.883391 0.196262 0.327504
0.985733 0.235462 0.33518
0.999557 0.276997 0.350195
0.000137331 0.326482 0.355581
0.0903487 0.311589 0.325429
0.297414 0.297414 0.297414
0.478202 0.294438 0.278721
0.617456 0.301961 0.26978
0.734508 0.315389 0.271916
0.843503 0.33492 0.277592
0.954055 0.35613 0.288243
0.999527 0.380789 0.301747
0.000198367 0.501762 0.323201
0.0819409 0.48542 0.296437
0.274632 0.469673 0.269062
0.450538 0.459571 0.250263
0.587381 0.45539 0.242206
0.701259 0.457374 0.238132
0.808728 0.463142 0.242741
0.916014 0.470527 0.250065
0.994812 0.480812 0.266346
0.00015259 0.632654 0.299107
0.0883803 0.616312 0.276081
0.268376 0.599481 0.257755
0.432853 0.587655 0.234745
0.564416 0.578622 0.225025
0.676921 0.573358 0.220081
0.776425 0.57171 0.219425
0.88014 0.571283 0.225925
0.968368 0.573892 0.233417
0.00985733 0.731365 0.278492
0.109071 0.717876 0.261814
0.266789 0.702937 0.242695
0.420691 0.688014 0.226993
0.543481 0.678508 0.215396
0.649927 0.669886 0.207828
0.748531 0.664073 0.205844
0.848203 0.658671 0.208835
0.941222 0.656535 0.216449
0.0337377 0.816815 0.260945
0.131182 0.802731 0.247135
0.27361 0.790387 0.231891
0.407614 0.777569 0.216297
0.526085 0.765347 0.20589
0.629419 0.75581 0.199283
0.724163 0.747356 0.196918
0.817868 0.741024 0.198108
0.912093 0.735348 0.20528
0.049424 0.900023 0.241581
0.158862 0.887343 0.229587
0.275608 0.875135 0.219532
0.401236 0.862409 0.207263
0.511009 0.850523 0.198871
0.610468 0.838712 0.191485
0.701564 0.829709 0.190356
0.791852 0.821225 0.194339
0.881453 0.814374 0.196384
0.0801709 0.973373 0.227558
0.188403 0.96231 0.221088
0.294804 0.951278 0.214038
0.406165 0.940764 0.203464
0.506294 0.929351 0.19736
0.597635 0.918303 0.193072
0.683253 0.908293 0.189853
0.768399 0.898817 0.190478
0.855497 0.889891 0.194644
0.00161746 0.000442512 0.253574
0.153964 0.000106813 0.354131
0.375631 7.62951e-05 0.446952
0.589654 0 0.532357
0.732036 4.57771e-05 0.560815
0.846616 0.0055848 0.573922
0.963928 0.047837 0.577829
0.999908 0.102571 0.578683
0.999695 0.164096 0.574533
3.0518e-05 0.145983 0.57586
0.139376 0.132601 0.563928
0.361807 0.120653 0.557885
0.537911 0.126329 0.539117
0.673793 0.145205 0.52784
0.789197 0.172198 0.522087
0.906035 0.20499 0.519112
0.99144 0.24361 0.516243
0.999939 0.281086 0.515053
0.000106813 0.349248 0.580514
0.100313 0.330449 0.549401
0.313878 0.313848 0.518853
0.494423 0.306447 0.498939
0.632258 0.311299 0.484245
0.747784 0.323033 0.474662
0.859464 0.339239 0.468605
0.965942 0.358587 0.46862
0.999893 0.3794 0.469902
0.000488289 0.513802 0.538308
0.0828565 0.494057 0.512642
0.286931 0.476631 0.486229
0.463996 0.463996 0.463996
0.598001 0.458305 0.445426
0.709819 0.458473 0.43534
0.818372 0.462425 0.429343
0.923049 0.468452 0.42826
0.996155 0.477348 0.428351
0 0.632959 0.502113
0.0888991 0.616892 0.480003
0.273213 0.599649 0.456733
0.437034 0.585229 0.434501
0.570153 0.575189 0.417533
0.678172 0.56936 0.405859
0.781857 0.566018 0.398245
0.886152 0.564874 0.392615
0.971527 0.567773 0.395377
0.000198367 0.727245 0.466316
0.107118 0.71194 0.448661
0.266407 0.696559 0.430549
0.420188 0.68275 0.410925
0.544549 0.67219 0.394247
0.652659 0.662806 0.38204
0.750652 0.656382 0.374105
0.851423 0.65214 0.370809
0.943038 0.649607 0.369284
0.0355535 0.809415 0.434089
0.12842 0.796735 0.418296
0.270039 0.78378 0.400732
0.407874 0.768917 0.387457
0.525643 0.757992 0.374228
0.628275 0.747967 0.362051
0.724819 0.739513 0.352697
0.819318 0.732952 0.349477
0.911986 0.727535 0.347417
0.0548409 0.891661 0.398795
0.157214 0.879164 0.38613
0.275105 0.867658 0.374899
0.400061 0.854337 0.36318
0.511513 0.841581 0.350713
0.609857 0.830762 0.343435
0.700343 0.821805 0.336461
0.792172 0.813718 0.33193
0.883467 0.805798 0.332952
0.0783856 0.965209 0.372091
0.187411 0.954726 0.361807
0.291707 0.943923 0.352956
0.405707 0.931563 0.344884
0.506676 0.919966 0.335744
0.597742 0.909194 0.326802
0.682216 0.899107 0.322972
0.768154 0.889479 0.317861
0.854459 0.879911 0.315038
0.0115663 9.15541e-05 0.443519
0.211826 7.62951e-05 0.567407
0.441169 0.00015259 0.676371
0.63209 1.5259e-05 0.739681
0.757427 0.000381476 0.742306
0.871946 0.0151369 0.741588
0.984848 0.060914 0.735012
1 0.118059 0.720073
1 0.176684 0.707362
0.000656138 0.174151 0.763348
0.165606 0.155047 0.760571
0.389944 0.145068 0.733928
0.561959 0.146258 0.717632
0.69218 0.164797 0.698451
0.807813 0.189807 0.68571
0.924422 0.220142 0.672755
0.995789 0.252872 0.660136
0.999512 0.287343 0.651987
0.000564584 0.373251 0.751186
0.116426 0.350164 0.721096
0.336583 0.333715 0.690471
0.512428 0.325353 0.667201
0.646769 0.327688 0.648051
0.760464 0.334737 0.634485
0.874937 0.347265 0.623346
0.97409 0.36376 0.61268
0.999664 0.381979 0.60705
0.000122072 0.523507 0.705135
0.0930495 0.504997 0.677699
0.299474 0.486107 0.651438
0.473518 0.472908 0.625559
0.60531 0.465553 0.606882
0.718349 0.462806 0.591119
0.828565 0.463508 0.581415
0.93228 0.468727 0.570336
0.998123 0.475608 0.566629
0.000274662 0.635203 0.662394
0.0885328 0.619333 0.636835
0.279332 0.600732 0.613642
0.442115 0.585931 0.592462
0.574273 0.574273 0.574273
0.681987 0.569787 0.557992
0.787076 0.565423 0.546273
0.891676 0.562905 0.537011
0.975906 0.564874 0.532418
0.000198367 0.72549 0.619898
0.105592 0.71136 0.59855
0.2701 0.694926 0.58088
0.419776 0.680156 0.562615
0.547158 0.66862 0.544717
0.654353 0.659953 0.528725
0.75285 0.652552 0.517494
0.854643 0.647959 0.508034
0.946685 0.644205 0.502541
0.0260014 0.807385 0.578363
0.122087 0.793973 0.56318
0.267643 0.779629 0.54699
0.406241 0.765759 0.531029
0.526406 0.753033 0.516472
0.629053 0.742916 0.501732
0.723796 0.734462 0.490578
0.82153 0.726864 0.48275
0.913481 0.721843 0.477745
0.0603799 0.887175 0.538308
0.151354 0.874678 0.525231
0.274418 0.862745 0.512215
0.39913 0.849378 0.500435
0.512184 0.83537 0.487724
0.610422 0.824918 0.4757
0.700771 0.81622 0.468025
0.792142 0.807431 0.459663
0.883345 0.799542 0.455085
0.0748913 0.956115 0.502083
0.187274 0.944884 0.491478
0.289311 0.934173 0.481544
0.401205 0.922637 0.471962
0.502861 0.911727 0.459739
0.59411 0.90074 0.452033
0.679408 0.889723 0.443534
0.764584 0.880522 0.434577
0.850889 0.87071 0.427451
0.0427253 6.10361e-05 0.638773
0.280613 0.000488289 0.775189
0.505302 0.000228885 0.880598
0.659464 1.5259e-05 0.889693
0.780377 0.00201419 0.883391
0.897871 0.0323033 0.875288
0.996674 0.0805066 0.85774
0.999969 0.136461 0.838132
0.999832 0.19028 0.821851
0.000320439 0.204425 0.928817
0.200183 0.183062 0.90367
0.418204 0.173754 0.874876
0.580468 0.177325 0.851453
0.711345 0.187167 0.835599
0.826474 0.210269 0.815274
0.940795 0.235157 0.798932
0.99884 0.263615 0.781811
1 0.295827 0.769528
0.000885023 0.395148 0.889876
0.139498 0.370794 0.861036
0.35906 0.353368 0.830396
0.528038 0.344884 0.803174
0.659083 0.342092 0.783017
0.773404 0.347799 0.76701
0.886839 0.355764 0.749447
0.980224 0.369848 0.736294
0.999268 0.387427 0.724514
0.000381476 0.534646 0.841184
0.103502 0.513405 0.816114
0.311086 0.494255 0.786191
0.480491 0.479789 0.762966
0.614374 0.470771 0.739025
0.726452 0.468147 0.723888
0.83621 0.467842 0.709148
0.940246 0.471427 0.695247
0.999557 0.478096 0.686473
0.000274662 0.638621 0.79588
0.094667 0.621866 0.772244
0.283513 0.604288 0.748531
0.446693 0.589029 0.725231
0.578317 0.577798 0.704738
0.687709 0.570031 0.688914
0.792615 0.565179 0.672892
0.897124 0.562356 0.661494
0.978103 0.563134 0.651057
0.00407416 0.725765 0.753948
0.101595 0.711223 0.732357
0.270207 0.695354 0.711147
0.422919 0.679683 0.692195
0.548501 0.667918 0.672786
0.657984 0.657984 0.657984
0.756313 0.651118 0.64152
0.858335 0.645274 0.62974
0.948257 0.643168 0.61973
0.00500496 0.806668 0.709545
0.118624 0.792844 0.693324
0.265858 0.778408 0.676555
0.405051 0.764065 0.65832
0.526238 0.750576 0.641611
0.630488 0.740734 0.625666
0.726162 0.732662 0.611276
0.825254 0.723186 0.602502
0.915709 0.718715 0.594202
0.0573129 0.884825 0.665248
0.142962 0.872587 0.651484
0.271885 0.859846 0.637797
0.399603 0.843381 0.62475
0.511757 0.833234 0.607813
0.609415 0.821637 0.594232
0.701549 0.811551 0.583047
0.793851 0.802106 0.573831
0.883085 0.793667 0.565148
0.0823072 0.945144 0.618891
0.183993 0.93463 0.607355
0.283925 0.92398 0.597742
0.396445 0.91284 0.585214
0.498299 0.901549 0.574166
0.591409 0.889845 0.563317
0.675837 0.879149 0.551888
0.760876 0.869825 0.541039
0.845487 0.859709 0.532738
0.0916457 0 0.831449
0.351263 7.62951e-05 0.965774
0.546822 9.15541e-05 0.99968
0.684184 0.000167849 0.999573
0.802304 0.0169223 0.998276
0.91696 0.0567178 0.982788
1 0.104036 0.961212
0.999954 0.154711 0.940291
0.99968 0.206485 0.919966
0.00163272 0.234394 1
0.243839 0.211887 0.999863
0.446372 0.201404 0.990326
0.599237 0.204379 0.966918
0.724239 0.212955 0.94757
0.840879 0.229847 0.925505
0.952148 0.250874 0.905089
0.999817 0.277775 0.886091
0.999664 0.307805 0.87219
0 0.411872 0.999893
0.164843 0.387533 0.976074
0.376425 0.370489 0.949218
0.541283 0.359136 0.92369
0.669627 0.357137 0.899397
0.783932 0.359014 0.880415
0.896895 0.367147 0.860746
0.984161 0.378546 0.844541
0.999863 0.393484 0.833494
0.000534066 0.541192 0.968429
0.118486 0.520516 0.940169
0.323293 0.502754 0.90985
0.489357 0.488396 0.884169
0.62092 0.47837 0.859495
0.733974 0.474205 0.840818
0.844907 0.472572 0.823804
0.947173 0.474937 0.807172
1 0.481895 0.795422
0.000350958 0.641901 0.925643
0.102022 0.624842 0.899641
0.288991 0.606302 0.874403
0.452277 0.592248 0.846357
0.582132 0.580789 0.825437
0.692134 0.57229 0.80621
0.799466 0.566781 0.788785
0.903548 0.563821 0.773175
0.980529 0.563912 0.76199
0.0108186 0.72668 0.883635
0.103838 0.710124 0.861097
0.272526 0.694896 0.839521
0.424308 0.679911 0.816251
0.551156 0.66775 0.793469
0.658686 0.657801 0.77612
0.760266 0.650523 0.75819
0.863066 0.64445 0.740993
0.952285 0.641688 0.731106
0.000717174 0.805615 0.839887
0.116045 0.791913 0.819623
0.263661 0.777417 0.801633
0.404837 0.762844 0.782132
0.525414 0.750515 0.761852
0.630732 0.739162 0.743832
0.728954 0.728954 0.728954
0.82594 0.722683 0.714229
0.917067 0.715984 0.700389
0.0424048 0.877836 0.787213
0.136828 0.866423 0.771862
0.270893 0.85304 0.75642
0.397513 0.838346 0.739422
0.50837 0.82652 0.723812
0.606561 0.815427 0.707347
0.700008 0.804471 0.694972
0.788785 0.795254 0.679088
0.877455 0.786908 0.665476
0.0890364 0.93225 0.731731
0.172671 0.922866 0.720714
0.274144 0.912581 0.708949
0.388708 0.900771 0.694865
0.492058 0.890593 0.679561
0.584344 0.879057 0.664988
0.668086 0.867857 0.654871
0.753353 0.858366 0.643366
0.838926 0.848951 0.630518
0.16408 0.00889601 0.979431
0.416739 9.15541e-05 0.999069
0.575128 4.57771e-05 0.999619
0.704707 0.01355 0.999771
0.816297 0.0456092 0.998779
0.930755 0.0826886 0.999435
1 0.127245 0.999832
1 0.177157 0.999359
1 0.223896 0.999924
0.0157015 0.258396 0.999985
0.282597 0.238117 0.999817
0.467643 0.228458 0.999756
0.613993 0.227054 0.999039
0.737438 0.235142 0.999985
0.854871 0.247807 0.999329
0.96144 0.268193 0.999466
0.99942 0.291142 0.988403
0.999588 0.318227 0.973693
0.000335698 0.423804 0.999329
0.193484 0.400488 0.999664
0.395712 0.384558 0.999893
0.553185 0.372366 0.999802
0.678752 0.370047 0.999786
0.793149 0.371817 0.987564
0.907195 0.376577 0.968338
0.98497 0.387259 0.951782
0.999863 0.401343 0.940185
0.000717174 0.547189 0.999985
0.138003 0.526375 0.999619
0.337789 0.509102 0.999008
0.499916 0.495277 0.998596
0.628107 0.485786 0.975326
0.740322 0.479927 0.954879
0.85185 0.478096 0.934905
0.953246 0.479194 0.916808
0.999924 0.484443 0.903868
0.00332647 0.643687 0.999863
0.109926 0.625818 0.999954
0.29633 0.610224 0.992538
0.458488 0.595376 0.967071
0.585779 0.583642 0.946761
0.696025 0.575235 0.925689
0.802747 0.568643 0.905486
0.909026 0.564736 0.886748
0.98201 0.565438 0.871931
0.00442512 0.726986 0.995453
0.10515 0.710781 0.981308
0.273228 0.695552 0.962737
0.427192 0.679927 0.941619
0.553079 0.668711 0.917159
0.660258 0.658656 0.89604
0.763699 0.650645 0.875547
0.866041 0.644755 0.857114
0.953155 0.640711 0.840772
0.0217899 0.801678 0.963043
0.121981 0.787747 0.944717
0.259846 0.773251 0.924056
0.402518 0.758923 0.90312
0.525002 0.74667 0.881392
0.63061 0.736171 0.861097
0.726955 0.726329 0.840986
0.824582 0.718105 0.824247
0.913527 0.711147 0.808057
0.0171664 0.864668 0.904265
0.130251 0.854383 0.888457
0.262379 0.842191 0.87126
0.39028 0.829862 0.853422
0.503548 0.816678 0.835264
0.60209 0.805158 0.816892
0.69276 0.794598 0.800458
0.784482 0.784482 0.784482
0.871595 0.776608 0.767758
0.0826276 0.915969 0.843122
0.160342 0.909133 0.831357
0.266575 0.898939 0.818128
0.378271 0.88809 0.802304
0.483146 0.876707 0.787808
0.575708 0.865904 0.772732
0.662043 0.856321 0.757031
0.745403 0.845762 0.740108
0.831724 0.835889 0.726009
0.249012 0.0409857 0.999786
0.46305 0.0306859 0.999176
0.59855 0.0292821 0.999161
0.718898 0.044358 0.999557
0.831174 0.0741894 0.999298
0.94287 0.111269 0.999374
0.999527 0.152529 0.999054
0.999802 0.19498 0.999359
1 0.242206 0.999527
0.063447 0.290318 0.999908
0.319692 0.259617 0.999649
0.489143 0.251728 0.999619
0.628443 0.249027 0.99971
0.746258 0.255619 0.999451
0.86392 0.266911 0.999542
0.968109 0.284123 0.999786
0.99968 0.30544 0.998856
0.999512 0.330083 0.999298
0.0110323 0.434424 0.999878
0.226673 0.413123 0.999893
0.414008 0.39762 0.999847
0.562753 0.387488 0.999741
0.68545 0.38323 0.999435
0.801205 0.381643 0.999237
0.913436 0.386938 0.999115
0.988266 0.395209 0.999512
0.999893 0.409079 0.999207
0.00047303 0.552422 0.99942
0.1608 0.532784 0.999985
0.352834 0.51458 0.999573
0.508324 0.502419 0.999802
0.633722 0.492271 0.999924
0.746624 0.486046 0.999435
0.858564 0.483925 0.999481
0.957702 0.484733 0.997391
0.999863 0.489067 0.992309
0.00402838 0.646464 0.999878
0.122896 0.629419 0.999893
0.306294 0.612818 0.999847
0.464836 0.596887 0.999649
0.589792 0.586725 0.999878
0.700145 0.578119 0.996948
0.808209 0.571542 0.995682
0.912032 0.567987 0.991745
0.984695 0.566201 0.982483
0.000335698 0.727581 0.999939
0.112963 0.71017 1
0.279362 0.695598 0.999634
0.429679 0.680888 0.999786
0.555001 0.667918 0.997864
0.662684 0.659144 0.996384
0.76434 0.64979 0.986526
0.866087 0.642954 0.966079
0.95201 0.638224 0.946151
0.0274662 0.794247 0.999817
0.108431 0.780896 0.99942
0.257511 0.766766 0.998505
0.400519 0.753582 0.994095
0.523522 0.739879 0.983871
0.624369 0.729778 0.966415
0.722042 0.720394 0.944137
0.818509 0.711192 0.92459
0.906935 0.703105 0.908568
0.0234989 0.853895 0.994614
0.130236 0.842268 0.983429
0.251194 0.830411 0.970764
0.382635 0.817288 0.953811
0.496559 0.804807 0.935058
0.594232 0.794507 0.916823
0.684627 0.784894 0.900236
0.775357 0.774273 0.882887
0.863325 0.765743 0.865171
0.0634012 0.902281 0.938018
0.149294 0.895979 0.926635
0.25835 0.885588 0.915938
0.368795 0.874571 0.901854
0.474449 0.863401 0.885466
0.567727 0.853101 0.869795
0.653117 0.843168 0.85153
0.736767 0.833494 0.835706
0.823011 0.823011 0.823011
