assets/luts/Velvia.cube
TITLE "Generated by Resolve"
LUT_3D_SIZE 65
0 0 0
0.00483711 0.000335698 0.00015259
0.00868238 0.000701915 0.000350958
0.0127871 0.00105287 0.000350958
0.0180514 0.00149538 9.15541e-05
0.0249332 0.00183108 0.000137331
0.0333715 0.00180056 0.000289921
0.0428931 0.00128176 0.00015259
0.0527962 0.00128176 1.5259e-05
0.0639811 0.0018616 7.62951e-05
0.0771496 0.00177005 9.15541e-05
0.0887007 0.00175479 0
0.105928 0.00189212 0
0.123995 0.00198367 0
0.1411 0.00222782 0.000198367
0.159686 0.00201419 0.00047303
0.182727 0.00122072 0.000610361
0.205264 0.00047303 0.000717174
0.231327 0.000106813 0.000595102
0.25594 0 0.000274662
0.281041 0 0.000228885
0.305348 7.62951e-05 0.000228885
0.329946 6.10361e-05 0.000183108
0.356146 4.57771e-05 0.000106813
0.381994 9.15541e-05 0
0.409171 7.62951e-05 0
0.436393 3.0518e-05 0
0.463172 0 0
0.489586 0 0
0.515373 1.5259e-05 0
0.542168 1.5259e-05 0
0.568444 3.0518e-05 0
0.594202 4.57771e-05 0
0.618311 1.5259e-05 0
0.639078 0.000442512 0
0.65742 0.00117494 0
0.677623 0.0010071 0
0.697734 0.000717174 0
0.717479 0.00062562 0
0.736034 0.00396735 3.0518e-05
0.753262 0.00697337 4.57771e-05
0.770169 0.0100404 6.10361e-05
0.786801 0.0131075 7.62951e-05
0.80296 0.0169985 7.62951e-05
0.818067 0.0214389 6.10361e-05
0.832425 0.0252995 1.5259e-05
0.847471 0.0297246 0
0.863539 0.0350042 0
0.87895 0.0413214 0
0.893553 0.0483558 0
0.908309 0.0554971 0
0.923232 0.0627604 0
0.93817 0.0694438 0
0.953155 0.0761883 0
0.966415 0.083299 1.5259e-05
0.974121 0.0910811 4.57771e-05
0.981689 0.0987869 6.10361e-05
0.989181 0.106294 7.62951e-05
0.996887 0.113725 9.15541e-05
0.999298 0.120974 9.15541e-05
0.999374 0.127947 9.15541e-05
0.999435 0.134905 0.000198367
0.999481 0.141894 0.000411994
0.999512 0.148806 0.000610361
0.999557 0.157656 0.00196841
1.5259e-05 0.00645457 0.000534066
0.00573739 0.0081178 6.10361e-05
0.0112001 0.0084535 0.00030518
0.0169223 0.00881971 1.5259e-05
0.0233005 0.00949111 1.5259e-05
0.0307164 0.00981155 0
0.0398566 0.0104677 0.000106813
0.0518044 0.0113222 0.000106813
0.0634318 0.0119173 1.5259e-05
0.0755322 0.0124056 0
0.0878767 0.0129397 1.5259e-05
0.104143 0.0135653 0.000259403
0.119585 0.0144656 0.000579843
0.140398 0.0149844 0.000427253
0.160754 0.0152895 0.000198367
0.182513 0.0155032 0.00015259
0.203601 0.0153658 3.0518e-05
0.23003 0.015259 0
0.256687 0.0151369 0
0.2822 0.0152132 0
0.307027 0.0158236 0
0.331182 0.0163272 1.5259e-05
0.358816 0.0160525 6.10361e-05
0.386542 0.0158389 0.000122072
0.413016 0.01561 9.15541e-05
0.438514 0.0155337 4.57771e-05
0.463325 0.0156252 1.5259e-05
0.486748 0.0171511 0.00015259
0.510109 0.0189059 0.000289921
0.532631 0.0208896 0.000366217
0.55407 0.0232242 0.000381476
0.575067 0.0255283 0.000366217
0.595544 0.0265049 0.000244144
0.615427 0.0270542 0.000244144
0.63476 0.0279088 0.000259403
0.653956 0.0295262 0.000244144
0.673564 0.0327306 0.000167849
0.692821 0.0359503 9.15541e-05
0.711955 0.0394903 7.62951e-05
0.728054 0.0432441 6.10361e-05
0.74406 0.0475319 9.15541e-05
0.760037 0.0518502 0.000137331
0.77525 0.0569314 0.00015259
0.789685 0.0627298 0.000122072
0.803876 0.0684977 7.62951e-05
0.81767 0.074464 1.5259e-05
0.832731 0.0802777 0.000122072
0.84802 0.0858778 0.000274662
0.863294 0.0914168 0.000396735
0.878294 0.0969253 0.000503548
0.894057 0.103212 0.000503548
0.909758 0.109728 0.000442512
0.925048 0.116304 0.000274662
0.940093 0.12285 0.000106813
0.95317 0.129549 3.0518e-05
0.964462 0.136492 4.57771e-05
0.97557 0.143374 4.57771e-05
0.986496 0.150225 6.10361e-05
0.999191 0.158206 6.10361e-05
0.999374 0.16553 4.57771e-05
0.999557 0.172793 3.0518e-05
0.99968 0.179995 3.0518e-05
0.999664 0.187091 1.5259e-05
0.99968 0.194293 0.000244144
0.99968 0.202304 0.000717174
0 0.0127413 0.000686656
0.0061799 0.014786 0.000549325
0.0123903 0.0155795 0.00109865
0.0190433 0.0159915 0.000503548
0.0257267 0.0166171 3.0518e-05
0.0328985 0.0172885 3.0518e-05
0.041825 0.0175479 1.5259e-05
0.0531167 0.0184482 1.5259e-05
0.0647746 0.0194095 0
0.0778821 0.0198062 1.5259e-05
0.0914168 0.0200351 4.57771e-05
0.106676 0.020264 0.000106813
0.123949 0.0208743 0.000137331
0.145708 0.0219577 0.000137331
0.167514 0.0228733 0.000122072
0.188861 0.0234836 0.00015259
0.210605 0.0237278 0.000198367
0.23772 0.0224155 3.0518e-05
0.263645 0.0219577 0
0.289631 0.0230259 0
0.314977 0.0245365 1.5259e-05
0.341024 0.0251621 7.62951e-05
0.366888 0.0252537 7.62951e-05
0.39205 0.0254673 0.000137331
0.417304 0.0261997 7.62951e-05
0.442023 0.0268101 3.0518e-05
0.466102 0.0276951 0
0.489448 0.0293889 0
0.512215 0.0304875 0
0.533562 0.0322423 7.62951e-05
0.554284 0.0345769 0.000198367
0.574563 0.0369421 0.000320439
0.594766 0.0388952 0.000427253
0.614801 0.0405432 0.000534066
0.63447 0.0420539 0.000610361
0.654185 0.0440528 0.00062562
0.673152 0.0473335 0.000427253
0.691722 0.0505989 0.000213626
0.709712 0.0540017 4.57771e-05
0.726009 0.0580148 0.000183108
0.742 0.0620584 0.00030518
0.757885 0.0660563 0.000274662
0.772824 0.0714733 0.000228885
0.786999 0.0780346 0.000167849
0.800931 0.0840772 9.15541e-05
0.814633 0.0898909 1.5259e-05
0.83006 0.0953231 0.000137331
0.845304 0.100649 0.000320439
0.860166 0.105913 0.000503548
0.874174 0.112444 0.000595102
0.889647 0.118212 0.000503548
0.905119 0.123934 0.000381476
0.920501 0.13019 0.000213626
0.935515 0.136706 7.62951e-05
0.948043 0.143404 1.5259e-05
0.960052 0.150378 1.5259e-05
0.973388 0.158114 3.0518e-05
0.986526 0.165805 3.0518e-05
0.998123 0.173388 3.0518e-05
0.998337 0.180362 3.0518e-05
0.998535 0.187304 1.5259e-05
0.998734 0.194217 0
0.999161 0.201266 0
0.999634 0.208576 3.0518e-05
0.999664 0.216281 0.00015259
0.000549325 0.0178225 0.000228885
0.00654612 0.0205081 0.000534066
0.0131991 0.0209049 0.000549325
0.0195163 0.0213779 0.00015259
0.0261692 0.0222019 1.5259e-05
0.0329747 0.023209 1.5259e-05
0.043122 0.024445 0
0.0536202 0.0255131 0
0.0664683 0.0261082 0
0.0796521 0.026688 0
0.0947585 0.0274052 3.0518e-05
0.110124 0.0276646 0.000167849
0.128923 0.0281682 0.000381476
0.148669 0.028687 0.000396735
0.170169 0.0292973 0.000366217
0.191592 0.0298009 0.000320439
0.214649 0.0306249 0.000350958
0.241672 0.0300145 0.00015259
0.267597 0.0300298 4.57771e-05
0.293767 0.0303807 1.5259e-05
0.319463 0.0320439 0
0.344839 0.0330663 6.10361e-05
0.370169 0.0336156 0.00015259
0.395132 0.0338293 0.000198367
0.420157 0.0341955 0.000137331
0.444389 0.0359808 6.10361e-05
0.467857 0.0375982 0
0.490593 0.0393683 0
0.512657 0.0406195 0
0.533639 0.0421302 0.000106813
0.553887 0.0438087 0.000244144
0.57377 0.045594 0.000396735
0.593988 0.0474098 0.000488289
0.614206 0.0494698 0.00047303
0.634028 0.0515297 0.000457771
0.653437 0.0548104 0.000411994
0.672099 0.0585489 0.000411994
0.690349 0.0618296 0.000396735
0.708156 0.0650645 0.00030518
0.724407 0.0688945 0.000411994
0.739498 0.0737163 0.000366217
0.754391 0.0785534 0.000259403
0.769375 0.0844434 0.000167849
0.784176 0.0903334 0.000137331
0.798703 0.095964 9.15541e-05
0.812421 0.101503 0
0.828 0.106813 0.000137331
0.842817 0.113252 0.000213626
0.857069 0.119585 0.00030518
0.871077 0.125917 0.000396735
0.886778 0.131319 0.000289921
0.902281 0.13669 0.000183108
0.917464 0.142214 7.62951e-05
0.932113 0.148287 3.0518e-05
0.946624 0.155352 1.5259e-05
0.960159 0.162814 0
0.97348 0.170275 1.5259e-05
0.986481 0.177783 1.5259e-05
0.99704 0.185138 1.5259e-05
0.997147 0.191928 1.5259e-05
0.997452 0.198749 0
0.998474 0.205707 0
0.99913 0.212634 0
0.999573 0.219745 4.57771e-05
0.999588 0.227222 0.00015259
0.000427253 0.0252995 0
0.00695811 0.0276188 0.00030518
0.0125582 0.0281834 0.000259403
0.018967 0.0287327 0
0.0254063 0.0292363 0
0.0326543 0.0301976 0
0.0439918 0.0319677 0
0.0557107 0.033341 0
0.0692149 0.0336919 0
0.0829328 0.034638 3.0518e-05
0.0985275 0.0353246 3.0518e-05
0.114092 0.0348211 0.000320439
0.133944 0.0360876 0.000381476
0.152789 0.0371099 0.00030518
0.174792 0.037995 0.000411994
0.196841 0.0389868 0.00047303
0.221134 0.0399481 0.000396735
0.247501 0.0404517 0.00015259
0.273533 0.040238 0
0.298909 0.0403906 0
0.323568 0.0406653 1.5259e-05
0.34818 0.0417182 4.57771e-05
0.372839 0.0429847 0.000106813
0.39707 0.0444648 0.00015259
0.421118 0.0461891 0.000167849
0.445014 0.0479133 0.000106813
0.468269 0.0490272 6.10361e-05
0.49099 0.0498207 3.0518e-05
0.51252 0.0510262 0
0.533562 0.0525826 7.62951e-05
0.554299 0.0542306 0.000183108
0.574594 0.0560006 0.000274662
0.594537 0.0578775 0.000228885
0.61416 0.0599527 0.000167849
0.63389 0.0618143 0.000167849
0.653223 0.0651408 0.000106813
0.672084 0.0689708 6.10361e-05
0.689052 0.0727398 0.000213626
0.705257 0.0771191 0.000289921
0.720516 0.0825055 0.000213626
0.735653 0.0870985 0.000167849
0.7505 0.0916609 0.000122072
0.765545 0.0969863 6.10361e-05
0.780407 0.102373 1.5259e-05
0.795026 0.108492 4.57771e-05
0.809461 0.115114 0.000122072
0.824613 0.121294 6.10361e-05
0.839506 0.127459 1.5259e-05
0.853956 0.133532 0.000106813
0.868132 0.139513 0.000183108
0.883925 0.144579 7.62951e-05
0.899275 0.149966 1.5259e-05
0.913893 0.156008 1.5259e-05
0.928267 0.162051 3.0518e-05
0.94287 0.169039 3.0518e-05
0.957351 0.176242 4.57771e-05
0.971527 0.183368 3.0518e-05
0.985443 0.190417 1.5259e-05
0.995544 0.197406 0
0.996643 0.204166 0
0.997726 0.210895 0
0.998444 0.217609 0
0.999115 0.224292 0
0.999496 0.231205 4.57771e-05
0.999527 0.238453 0.000167849
7.62951e-05 0.0348058 0
0.00857557 0.0372473 9.15541e-05
0.014374 0.0382086 0.000106813
0.0198367 0.0392309 0
0.0259251 0.0399481 0
0.0347295 0.0408484 0.000228885
0.0455329 0.0423743 0.000366217
0.0575875 0.0431067 0.000381476
0.070222 0.0431525 0.000396735
0.0847486 0.0437324 0.00030518
0.100908 0.043946 7.62951e-05
0.11754 0.0441901 0.000122072
0.137148 0.0458686 6.10361e-05
0.156481 0.0474098 9.15541e-05
0.179232 0.0481727 0.000350958
0.201633 0.0489967 0.000595102
0.226642 0.0495766 0.000411994
0.251835 0.0501717 0.00015259
0.276997 0.0509041 7.62951e-05
0.301701 0.0516823 0.000167849
0.325856 0.0519417 0.000183108
0.350256 0.0534524 9.15541e-05
0.373968 0.0560311 0
0.398001 0.0575418 4.57771e-05
0.421744 0.0592203 6.10361e-05
0.44564 0.0596323 9.15541e-05
0.468727 0.0602274 0.000259403
0.491234 0.0610361 0.00030518
0.512932 0.062089 0.000350958
0.534752 0.0635538 0.000183108
0.555947 0.0652781 3.0518e-05
0.575998 0.0670634 0.000122072
0.59585 0.0681773 3.0518e-05
0.615167 0.0707408 0
0.633814 0.0743114 0
0.651026 0.0772717 0
0.668605 0.0812238 1.5259e-05
0.685695 0.0849622 0.000137331
0.701793 0.0892958 0.000167849
0.717083 0.0944533 9.15541e-05
0.732067 0.0995956 1.5259e-05
0.746868 0.105272 1.5259e-05
0.761791 0.111376 0.000122072
0.776776 0.117571 0.000183108
0.791485 0.123751 0.000244144
0.806104 0.129854 0.000274662
0.821332 0.135576 0.000183108
0.836301 0.141299 9.15541e-05
0.851011 0.147021 0
0.865049 0.15317 4.57771e-05
0.880217 0.159533 6.10361e-05
0.89514 0.16527 7.62951e-05
0.909819 0.171008 7.62951e-05
0.924254 0.176745 9.15541e-05
0.938964 0.183551 9.15541e-05
0.953506 0.190478 0.000106813
0.967865 0.197284 0.000106813
0.982132 0.20354 4.57771e-05
0.992325 0.209949 0
0.994705 0.216709 0
0.996796 0.223438 0
0.998428 0.230091 0
0.999084 0.236545 0
0.999435 0.243259 6.10361e-05
0.999435 0.249928 0.000137331
0.000427253 0.0465095 0
0.0109255 0.0482032 0.000198367
0.0164187 0.0491493 0.00015259
0.0215305 0.050248 4.57771e-05
0.0280003 0.051133 0.000106813
0.0373083 0.0521553 0.000411994
0.0475319 0.0533761 0.000518807
0.0601205 0.0538186 0.000350958
0.0720226 0.0542611 0.000381476
0.0874342 0.0542153 0.000366217
0.103349 0.0547036 9.15541e-05
0.119951 0.05626 0
0.138003 0.0581674 0
0.158984 0.0593576 0.000106813
0.182757 0.0594339 0.000411994
0.205264 0.0599832 0.00062562
0.230167 0.0599985 0.000396735
0.254978 0.0604715 0.000106813
0.280079 0.0610971 0.000137331
0.30425 0.0624704 0.000213626
0.328359 0.06392 0.000289921
0.352468 0.0653086 0.000213626
0.375784 0.0678569 0.000106813
0.399451 0.0696117 3.0518e-05
0.423026 0.0710155 1.5259e-05
0.44654 0.0716106 4.57771e-05
0.469337 0.0720684 0.000289921
0.491691 0.0726024 0.000549325
0.513649 0.0734112 0.000686656
0.535225 0.0754253 0.00047303
0.556481 0.0778515 0.000213626
0.577081 0.0804608 0
0.595789 0.0838026 0
0.614664 0.0869917 0
0.633234 0.0902113 0
0.650172 0.0926986 0
0.666773 0.0952316 0
0.683131 0.0981765 0
0.699001 0.103197 1.5259e-05
0.714427 0.108888 3.0518e-05
0.729702 0.114916 3.0518e-05
0.744686 0.120928 4.57771e-05
0.759411 0.126879 0.000213626
0.773922 0.132616 0.000274662
0.788205 0.138354 0.000320439
0.802945 0.144121 0.000335698
0.817975 0.149905 0.000244144
0.832532 0.155993 0.000137331
0.84683 0.162097 6.10361e-05
0.861173 0.1682 1.5259e-05
0.87628 0.174212 6.10361e-05
0.891142 0.18024 9.15541e-05
0.905745 0.186236 0.000137331
0.92018 0.191974 0.00015259
0.935149 0.198306 0.000137331
0.950011 0.20444 0.000106813
0.964645 0.210559 7.62951e-05
0.979019 0.216632 3.0518e-05
0.988251 0.222843 0
0.990509 0.229358 0
0.992523 0.235843 0
0.994492 0.242329 0
0.997665 0.248875 0
0.999374 0.2551 0
0.999329 0.261036 0
0.000106813 0.0597696 0.000228885
0.00967422 0.0616312 7.62951e-05
0.0162051 0.0628061 0.00015259
0.0212406 0.0637217 0.000106813
0.0290837 0.0644846 0.000381476
0.0372625 0.0653239 0.000671397
0.0488441 0.0662242 0.000534066
0.0618143 0.0670481 0.000213626
0.0753796 0.0673381 4.57771e-05
0.0910353 0.0670634 1.5259e-05
0.106645 0.0670024 1.5259e-05
0.123568 0.0691081 0.000106813
0.139895 0.071397 0.000122072
0.161608 0.0724956 7.62951e-05
0.184878 0.0727398 0.000366217
0.209018 0.072755 0.000610361
0.233829 0.0731212 0.000564584
0.258015 0.0740063 0.000320439
0.281437 0.0745861 0.000106813
0.305577 0.0754406 6.10361e-05
0.329763 0.0766613 0.000137331
0.354192 0.0778821 0.000183108
0.377859 0.0797284 0.000167849
0.401587 0.0809796 9.15541e-05
0.424674 0.0830854 9.15541e-05
0.447364 0.0849622 7.62951e-05
0.470329 0.0857252 0.000122072
0.492668 0.0868086 0.000320439
0.514656 0.088365 0.000411994
0.536126 0.0907912 0.000381476
0.557137 0.0931411 0.000259403
0.577234 0.0956893 9.15541e-05
0.595789 0.0988174 0.000106813
0.614282 0.102068 7.62951e-05
0.632242 0.10602 1.5259e-05
0.64892 0.109621 0
0.665202 0.113115 0
0.681193 0.116701 0
0.696941 0.121263 1.5259e-05
0.712444 0.126131 4.57771e-05
0.727657 0.131243 6.10361e-05
0.742641 0.136965 9.15541e-05
0.757351 0.142626 0.000259403
0.771572 0.148531 0.000335698
0.785473 0.154421 0.000289921
0.799512 0.160281 0.000259403
0.81387 0.166079 0.000244144
0.828168 0.171878 0.000198367
0.842618 0.177707 9.15541e-05
0.857328 0.183383 0
0.872389 0.189044 3.0518e-05
0.887297 0.194934 6.10361e-05
0.901961 0.201266 0.000106813
0.916487 0.207538 0.000137331
0.931701 0.213031 0.000106813
0.946685 0.21854 7.62951e-05
0.961395 0.224231 4.57771e-05
0.975845 0.230091 1.5259e-05
0.983886 0.236164 0
0.986038 0.242435 0
0.98996 0.248844 0
0.994034 0.255238 0
0.998032 0.261616 0
0.99939 0.267552 0
0.999344 0.273259 0
0.000518807 0.0760815 0.000213626
0.0101167 0.0760204 1.5259e-05
0.0163119 0.0772412 9.15541e-05
0.0224613 0.0779583 0.000106813
0.0298466 0.0787366 0.00030518
0.0384833 0.0797742 0.000564584
0.0495918 0.0812543 0.000503548
0.0621347 0.0822309 0.000183108
0.0750896 0.0825666 0.000259403
0.0890669 0.0830091 0.000411994
0.105806 0.0837262 0.000411994
0.125017 0.0838941 0.00030518
0.142611 0.0855726 0.000274662
0.165301 0.0865644 0.000122072
0.187121 0.0877699 0.000183108
0.211734 0.0874189 0.000411994
0.235477 0.0876326 0.000518807
0.258198 0.0889601 0.000518807
0.281651 0.0899977 0.000350958
0.306615 0.0907912 0.000213626
0.330419 0.0916915 1.5259e-05
0.354086 0.0935073 6.10361e-05
0.37763 0.0955825 0.00015259
0.402197 0.0977493 0.000411994
0.425605 0.0998703 0.000427253
0.448386 0.101396 0.000396735
0.471382 0.101656 0.000213626
0.493965 0.102022 1.5259e-05
0.515831 0.103593 4.57771e-05
0.537148 0.106035 1.5259e-05
0.557733 0.108919 0.000106813
0.576562 0.112551 0.000183108
0.594278 0.116426 0.000213626
0.611917 0.12015 0.000213626
0.629572 0.124132 0.000137331
0.646601 0.128298 7.62951e-05
0.663355 0.13254 4.57771e-05
0.6795 0.136141 9.15541e-05
0.695155 0.140246 0
0.710475 0.144976 3.0518e-05
0.725338 0.149935 6.10361e-05
0.739925 0.154955 6.10361e-05
0.754253 0.160006 6.10361e-05
0.768353 0.165759 0.000137331
0.782238 0.17142 0.000122072
0.796414 0.176974 0.000106813
0.810788 0.182498 9.15541e-05
0.825116 0.188037 4.57771e-05
0.839292 0.193805 0
0.853666 0.199741 0
0.868574 0.205463 0
0.883528 0.211505 4.57771e-05
0.898238 0.217563 7.62951e-05
0.912902 0.223453 0.000106813
0.928161 0.228672 7.62951e-05
0.943175 0.233906 4.57771e-05
0.957961 0.239139 1.5259e-05
0.972305 0.244373 0
0.981353 0.250111 0
0.986297 0.256214 0
0.990402 0.262364 0
0.994461 0.268498 0
0.998459 0.274617 0
0.999435 0.280247 0
0.999405 0.28571 0
0.000534066 0.0916762 9.15541e-05
0.0106966 0.092134 9.15541e-05
0.017731 0.0922103 1.5259e-05
0.024094 0.0927901 0
0.0304723 0.093431 0
0.0408942 0.0952621 0.000244144
0.0509804 0.0972152 0.000274662
0.0628061 0.0983749 0.000228885
0.0754253 0.0990616 0.000350958
0.0882429 0.10074 0.000610361
0.106142 0.102022 0.000503548
0.125017 0.102434 0.000335698
0.145907 0.102037 0.000366217
0.167834 0.102876 0.000274662
0.189151 0.10457 0.000320439
0.212253 0.106401 0.000427253
0.235462 0.107012 0.000595102
0.259586 0.107973 0.000701915
0.284627 0.108812 0.000823987
0.308309 0.109575 0.000671397
0.331151 0.110216 0.000381476
0.354299 0.110979 9.15541e-05
0.3776 0.112337 4.57771e-05
0.402274 0.114504 0.000274662
0.426673 0.116884 0.000503548
0.450477 0.119203 0.000503548
0.47335 0.12015 0.000320439
0.495979 0.12105 6.10361e-05
0.516899 0.122255 0
0.537301 0.123903 0
0.557763 0.126528 7.62951e-05
0.575936 0.130205 0.00015259
0.593088 0.134279 0.000228885
0.609918 0.138399 0.00030518
0.627115 0.14226 0.000289921
0.644251 0.14638 0.000198367
0.661097 0.150576 9.15541e-05
0.677516 0.15491 0
0.692515 0.16025 0
0.707408 0.165133 1.5259e-05
0.72221 0.169787 4.57771e-05
0.736751 0.174472 4.57771e-05
0.751034 0.179202 3.0518e-05
0.765057 0.183978 1.5259e-05
0.778897 0.188785 1.5259e-05
0.793347 0.194171 0
0.807813 0.200046 0
0.822049 0.205951 0
0.836042 0.211872 0
0.850629 0.217395 0
0.865476 0.22269 0
0.88011 0.228138 0
0.894606 0.233875 0
0.909422 0.239368 1.5259e-05
0.924636 0.244312 1.5259e-05
0.939544 0.249256 3.0518e-05
0.95404 0.254215 3.0518e-05
0.968246 0.259159 3.0518e-05
0.976471 0.264759 4.57771e-05
0.982452 0.270588 4.57771e-05
0.988342 0.276265 3.0518e-05
0.994141 0.281926 1.5259e-05
0.998962 0.287709 0
0.999512 0.293126 0
0.999435 0.298589 0
0.00030518 0.111681 0.000411994
0.00869764 0.113863 0.000213626
0.0159457 0.113115 0.000366217
0.0218204 0.11397 0.000381476
0.0295567 0.115755 0.000427253
0.0383764 0.117662 0.000442512
0.0485695 0.11931 0.000442512
0.0631418 0.119539 0.000228885
0.0762646 0.120043 0.000198367
0.0912184 0.121065 0.000259403
0.108232 0.121767 0.000137331
0.126406 0.122591 0.000106813
0.147967 0.121706 0.000244144
0.169451 0.120928 0.000381476
0.191745 0.121752 0.000411994
0.214267 0.123827 0.000503548
0.236637 0.125948 0.000579843
0.261326 0.127169 0.000640879
0.285664 0.128283 0.000732433
0.310475 0.128588 0.000793469
0.333913 0.12903 0.000656138
0.356558 0.129671 0.000366217
0.380041 0.131121 0.000198367
0.405264 0.132555 0.00015259
0.429374 0.134722 0.000381476
0.453101 0.137057 0.000274662
0.476005 0.139193 0.000167849
0.4981 0.140291 0
0.51841 0.141329 0
0.538293 0.142626 0
0.557733 0.145403 0
0.575601 0.149035 9.15541e-05
0.592508 0.153429 0.000198367
0.609079 0.158068 0.00030518
0.625925 0.161608 0.000259403
0.642893 0.164874 0.000167849
0.659663 0.16875 7.62951e-05
0.675792 0.173022 0
0.69073 0.178103 0
0.705272 0.183276 0
0.718944 0.1888 1.5259e-05
0.733257 0.193835 1.5259e-05
0.74786 0.198444 1.5259e-05
0.762203 0.203082 0
0.776196 0.207843 0
0.790661 0.21323 0
0.804974 0.218677 0
0.819104 0.224186 0
0.833112 0.229831 0
0.847883 0.235004 0
0.862715 0.240024 0
0.877058 0.24509 0
0.891112 0.25037 0
0.905638 0.255482 1.5259e-05
0.92079 0.260136 6.10361e-05
0.9355 0.26479 7.62951e-05
0.949966 0.26949 7.62951e-05
0.964202 0.274189 7.62951e-05
0.971557 0.279652 7.62951e-05
0.9776 0.285252 7.62951e-05
0.983703 0.290852 7.62951e-05
0.991485 0.296376 4.57771e-05
0.999161 0.3019 0
0.999451 0.307027 0
0.999405 0.312123 0
0 0.133104 0.000686656
0.00740063 0.135897 0.000381476
0.0143893 0.135348 0.000534066
0.0215763 0.136065 0.000579843
0.0295567 0.138079 0.00062562
0.0381476 0.139773 0.000549325
0.0496071 0.140566 0.000518807
0.0634775 0.140932 0.000320439
0.076524 0.141039 0.000228885
0.093019 0.140932 9.15541e-05
0.109422 0.141787 1.5259e-05
0.127825 0.143526 1.5259e-05
0.147921 0.144228 7.62951e-05
0.168811 0.143725 0.000198367
0.193027 0.14342 0.000183108
0.215961 0.144396 0.000213626
0.239078 0.146029 0.000350958
0.263127 0.147555 0.000350958
0.286961 0.148836 0.000396735
0.312413 0.147951 0.000411994
0.336324 0.147997 0.000549325
0.359533 0.148394 0.000579843
0.383047 0.149935 0.000457771
0.407462 0.151644 0.000289921
0.431907 0.15314 0.000183108
0.454719 0.155535 0.000183108
0.477241 0.158251 0.000137331
0.497917 0.160769 0.000137331
0.517433 0.164645 0
0.536751 0.166445 0
0.555566 0.168475 3.0518e-05
0.573739 0.171405 0.000137331
0.591608 0.174441 0.000244144
0.608331 0.178515 0.000350958
0.625208 0.181415 0.000244144
0.641993 0.18436 0.000137331
0.658305 0.188037 6.10361e-05
0.673961 0.192386 6.10361e-05
0.688685 0.197971 0.000106813
0.703136 0.203632 0.00015259
0.716899 0.209537 0.000213626
0.731304 0.213977 0.000137331
0.745632 0.218173 4.57771e-05
0.759625 0.222583 0
0.773465 0.227115 0
0.788159 0.23241 0
0.802502 0.237629 0
0.816312 0.242741 0
0.829633 0.247776 0
0.844327 0.25272 0
0.858824 0.257527 0
0.873075 0.262318 0
0.887098 0.267155 0
0.901762 0.271794 1.5259e-05
0.916716 0.276173 4.57771e-05
0.931426 0.280568 6.10361e-05
0.945922 0.284993 9.15541e-05
0.960189 0.289509 0.000106813
0.968826 0.294865 9.15541e-05
0.97673 0.300328 7.62951e-05
0.984543 0.305791 6.10361e-05
0.992264 0.311254 3.0518e-05
0.999359 0.316518 0
0.999313 0.321386 0
0.999313 0.326101 0
0.000137331 0.159899 0.000427253
0.00593576 0.15906 0.000411994
0.0144961 0.159243 0.00047303
0.0222934 0.15996 0.000442512
0.0300603 0.161196 0.000442512
0.0398871 0.162173 0.000457771
0.0508736 0.16289 0.000518807
0.0629282 0.163455 0.00047303
0.0785229 0.16289 0.000320439
0.0945449 0.162219 0.00015259
0.111192 0.162203 4.57771e-05
0.130282 0.163806 6.10361e-05
0.149187 0.165682 7.62951e-05
0.16997 0.166552 1.5259e-05
0.193561 0.166201 0
0.217212 0.165896 0
0.242145 0.166873 0.000183108
0.265827 0.168505 0.000228885
0.289342 0.16997 0.000228885
0.313619 0.169879 0.000137331
0.337392 0.169909 0.000244144
0.361089 0.170825 0.000366217
0.385641 0.17229 0.000411994
0.409094 0.173968 0.000259403
0.432578 0.175219 0.000244144
0.454765 0.176486 0.000350958
0.476753 0.178241 0.000411994
0.497276 0.181231 0.000335698
0.516426 0.184527 0.000198367
0.535256 0.187869 7.62951e-05
0.553689 0.19147 4.57771e-05
0.571801 0.19472 0.000137331
0.58967 0.197696 0.000213626
0.60708 0.200839 0.000274662
0.623163 0.204593 0.000320439
0.639368 0.208011 0.000198367
0.655467 0.211704 0.000137331
0.670954 0.215915 0.000183108
0.686015 0.220401 0.000274662
0.700816 0.224964 0.000366217
0.715023 0.230304 0.000396735
0.729351 0.234302 0.000320439
0.743465 0.238331 0.000228885
0.757153 0.242496 0.000122072
0.770626 0.246708 3.0518e-05
0.784329 0.251011 0
0.79826 0.255894 0
0.81181 0.260639 0
0.825254 0.265415 0
0.840101 0.270115 0
0.854734 0.27483 0
0.869123 0.279561 0
0.883223 0.284245 0
0.897765 0.288212 0
0.912642 0.292561 1.5259e-05
0.927306 0.297078 4.57771e-05
0.941756 0.301625 6.10361e-05
0.955566 0.306218 7.62951e-05
0.965698 0.311086 6.10361e-05
0.975677 0.315984 4.57771e-05
0.985428 0.320897 3.0518e-05
0.993118 0.326146 1.5259e-05
0.999237 0.331243 0
0.999237 0.335744 0
0.999252 0.340185 0
0.000274662 0.186175 0.000366217
0.00569161 0.183749 0.000457771
0.0141451 0.184344 0.000350958
0.0214542 0.185092 0.00030518
0.0305028 0.185306 0.000366217
0.0402838 0.185763 0.000381476
0.0507668 0.186481 0.000427253
0.0632029 0.186481 0.000350958
