assets/luts/Velvia.cube
TITLE "Generated by Resolve"
LUT_3D_SIZE 5
0 0 0
0.182727 0.00122072 0.000610361
0.594202 4.57771e-05 0
0.87895 0.0413214 0
0.999557 0.157656 0.00196841
0.000244144 0.26862 0.000244144
0.245975 0.271977 0.000686656
0.583032 0.290394 0
0.81413 0.338048 7.62951e-05
0.997238 0.394888 0
9.15541e-05 0.643595 0.000640879
0.257252 0.615808 9.15541e-05
0.55555 0.596246 0.000122072
0.768414 0.593317 0.000106813
0.963973 0.596368 9.15541e-05
0.0297093 0.841215 0
0.278248 0.814801 0.000122072
0.529778 0.790326 6.10361e-05
0.724651 0.772564 1.5259e-05
0.910719 0.758724 0
0.0815747 0.988876 0.000671397
0.294591 0.975326 0.000183108
0.507271 0.949966 0.000137331
0.685267 0.928679 4.57771e-05
0.857404 0.910094 1.5259e-05
1.5259e-05 0.000320439 0.113664
0.312505 3.0518e-05 0.225589
0.702739 0.000137331 0.336019
0.938445 0.0392767 0.384802
0.999695 0.157565 0.408667
0.000137331 0.326482 0.355581
0.297414 0.297414 0.297414
0.617456 0.301961 0.26978
0.843503 0.33492 0.277592
0.999527 0.380789 0.301747
0.00015259 0.632654 0.299107
0.268376 0.599481 0.257755
0.564416 0.578622 0.225025
0.776425 0.57171 0.219425
0.968368 0.573892 0.233417
0.0337377 0.816815 0.260945
0.27361 0.790387 0.231891
0.526085 0.765347 0.20589
0.724163 0.747356 0.196918
0.912093 0.735348 0.20528
0.0801709 0.973373 0.227558
0.294804 0.951278 0.214038
0.506294 0.929351 0.19736
0.683253 0.908293 0.189853
0.855497 0.889891 0.194644
0.0115663 9.15541e-05 0.443519
0.441169 0.00015259 0.676371
0.757427 0.000381476 0.742306
0.984848 0.060914 0.735012
1 0.176684 0.707362
0.000564584 0.373251 0.751186
0.336583 0.333715 0.690471
0.646769 0.327688 0.648051
0.874937 0.347265 0.623346
0.999664 0.381979 0.60705
0.000274662 0.635203 0.662394
0.279332 0.600732 0.613642
0.574273 0.574273 0.574273
0.787076 0.565423 0.546273
0.975906 0.564874 0.532418
0.0260014 0.807385 0.578363
0.267643 0.779629 0.54699
0.526406 0.753033 0.516472
0.723796 0.734462 0.490578
0.913481 0.721843 0.477745
0.0748913 0.956115 0.502083
0.289311 0.934173 0.481544
0.502861 0.911727 0.459739
0.679408 0.889723 0.443534
0.850889 0.87071 0.427451
0.0916457 0 0.831449
0.546822 9.15541e-05 0.99968
0.802304 0.0169223 0.998276
1 0.104036 0.961212
0.99968 0.206485 0.919966
0 0.411872 0.999893
0.376425 0.370489 0.949218
0.669627 0.357137 0.899397
0.896895 0.367147 0.860746
0.999863 0.393484 0.833494
0.000350958 0.641901 0.925643
0.288991 0.606302 0.874403
0.582132 0.580789 0.825437
0.799466 0.566781 0.788785
0.980529 0.563912 0.76199
0.000717174 0.805615 0.839887
0.263661 0.777417 0.801633
0.525414 0.750515 0.761852
0.728954 0.728954 0.728954
0.917067 0.715984 0.700389
0.0890364 0.93225 0.731731
0.274144 0.912581 0.708949
0.492058 0.890593 0.679561
0.668086 0.867857 0.654871
0.838926 0.848951 0.630518
0.249012 0.0409857 0.999786
0.59855 0.0292821 0.999161
0.831174 0.0741894 0.999298
0.999527 0.152529 0.999054
1 0.242206 0.999527
0.0110323 0.434424 0.999878
0.414008 0.39762 0.999847
0.68545 0.38323 0.999435
0.913436 0.386938 0.999115
0.999893 0.409079 0.999207
0.00402838 0.646464 0.999878
0.306294 0.612818 0.999847
0.589792 0.586725 0.999878
0.808209 0.571542 0.995682
0.984695 0.566201 0.982483
0.0274662 0.794247 0.999817
0.257511 0.766766 0.998505
0.523522 0.739879 0.983871
0.722042 0.720394 0.944137
0.906935 0.703105 0.908568
0.0634012 0.902281 0.938018
0.25835 0.885588 0.915938
0.474449 0.863401 0.885466
0.653117 0.843168 0.85153
0.823011 0.823011 0.823011
